P3
400 225
255
175 198 0
174 197 0
173 197 0
175 198 0
175 198 0
174 198 0
172 196 0
173 197 0
173 196 0
174 197 0
172 196 0
173 197 0
175 198 0
175 198 0
171 196 0
174 197 0
174 197 0
173 196 0
173 196 0
173 196 0
172 196 0
174 197 0
174 197 0
175 198 0
174 197 0
173 197 0
174 198 0
173 197 0
174 197 0
174 197 0
174 198 0
174 198 0
175 198 0
174 197 0
175 198 0
172 196 0
175 198 0
173 197 0
173 196 0
174 197 0
175 198 0
174 198 0
173 197 0
175 198 0
176 199 0
173 197 0
173 197 0
175 198 0
174 197 0
174 198 0
175 198 0
172 196 0
175 198 0
173 196 0
172 196 0
175 198 0
175 198 0
173 196 0
172 195 0
174 197 0
170 194 0
175 198 0
172 195 0
174 196 0
173 197 0
171 194 0
172 196 0
173 196 0
174 197 0
175 198 0
174 197 0
175 198 0
174 197 0
174 197 0
172 195 0
174 197 0
175 198 0
173 197 0
169 193 0
174 198 0
174 197 0
173 196 0
173 196 0
174 196 0
174 197 0
174 197 0
172 196 0
174 198 0
173 196 0
173 197 0
173 197 0
173 197 0
174 197 0
173 197 0
174 198 0
174 198 0
173 196 0
171 195 0
174 196 0
172 195 0
174 197 0
173 196 0
174 197 0
171 195 0
174 198 0
173 196 0
175 197 0
173 196 0
173 196 0
172 195 0
170 193 0
171 195 0
173 196 0
172 196 0
173 196 0
171 195 0
174 197 0
172 195 0
170 194 0
175 198 0
171 195 0
174 198 0
171 195 0
172 195 0
174 197 0
171 195 0
175 197 0
174 197 0
172 195 0
176 199 0
174 198 0
174 197 0
172 196 0
172 196 0
171 195 0
172 196 0
171 195 0
172 196 0
173 196 0
173 197 0
171 195 0
170 194 0
174 197 0
172 196 0
172 196 0
175 197 0
175 198 0
173 197 0
174 196 0
173 196 0
173 197 0
174 197 0
173 197 0
171 194 0
172 195 0
174 197 0
174 197 0
173 196 0
174 197 0
173 196 0
173 197 0
174 197 0
173 196 0
175 198 0
174 197 0
174 197 0
172 196 0
175 198 0
174 197 0
170 194 0
174 196 0
173 195 0
173 196 0
173 197 0
173 197 0
174 197 0
173 196 0
172 195 0
175 198 0
172 195 0
174 197 0
172 196 0
172 195 0
172 196 0
172 195 0
174 196 0
173 197 0
172 196 0
173 196 0
173 196 0
171 194 0
172 195 0
175 198 0
171 194 0
173 196 0
172 196 0
173 197 0
173 196 0
171 194 0
174 196 0
174 198 0
171 194 0
175 198 0
173 197 0
172 196 0
172 195 0
174 198 0
173 196 0
174 197 0
173 197 0
173 196 0
173 197 0
170 194 0
173 196 0
175 197 0
174 197 0
171 194 0
172 196 0
174 197 0
173 197 0
174 198 0
173 196 0
173 196 0
172 195 0
174 197 0
174 197 0
173 195 0
172 195 0
172 196 0
173 196 0
174 197 0
173 195 0
172 196 0
175 198 0
172 195 0
172 195 0
171 195 0
174 198 0
172 195 11
174 196 11
173 194 16
171 190 22
169 191 11
170 189 32
166 183 41
164 179 41
156 173 40
156 169 44
164 175 48
148 159 53
159 168 62
164 168 71
155 157 73
154 154 76
150 149 78
160 160 80
131 128 75
149 146 84
148 143 83
144 139 85
131 127 76
148 143 87
154 149 87
153 147 92
156 151 94
147 142 90
154 149 93
158 153 97
163 159 101
153 149 95
157 152 97
157 153 97
155 150 96
157 152 98
154 150 97
156 152 100
166 162 105
159 154 99
160 156 101
160 157 103
152 150 99
159 155 101
162 158 102
160 156 103
153 150 98
161 158 105
162 157 102
162 159 106
163 160 107
160 156 102
165 161 106
161 159 106
165 161 107
165 162 108
159 156 104
164 162 108
167 164 109
167 164 109
163 160 107
167 165 110
165 162 108
166 163 108
160 159 106
169 166 110
166 163 109
161 159 106
168 165 110
162 161 108
164 162 108
164 162 108
159 156 104
166 164 109
165 163 109
163 160 107
165 163 109
168 166 110
162 160 106
163 161 108
162 160 106
167 164 109
165 163 109
166 164 109
168 165 110
164 161 108
165 162 108
167 164 110
165 162 108
164 161 108
162 160 106
166 163 109
164 162 108
166 163 109
164 161 107
164 161 108
160 157 104
162 159 106
163 160 107
159 157 105
164 162 108
165 162 108
163 159 105
163 160 105
160 157 104
164 160 105
165 162 107
162 159 105
160 156 103
162 158 104
155 151 99
162 158 104
163 159 103
161 157 103
164 161 106
169 165 109
160 155 102
155 150 99
159 154 99
162 155 97
152 147 96
156 152 99
165 159 101
164 159 101
159 156 101
155 150 97
159 154 98
159 154 99
153 148 91
147 142 88
153 148 95
145 141 87
153 147 90
144 138 80
155 149 90
145 142 80
141 138 78
148 148 70
145 149 63
140 148 54
146 154 62
147 156 53
168 180 56
163 179 41
160 176 39
169 187 34
167 184 34
169 190 16
172 194 16
175 198 0
174 197 0
175 198 0
174 197 0
173 197 0
174 197 0
174 198 0
174 198 0
173 197 0
174 197 0
175 198 0
175 198 0
174 197 0
175 197 0
172 196 0
175 198 0
175 198 0
172 196 0
174 198 0
175 198 0
173 197 0
172 196 0
173 197 0
172 196 0
173 197 0
174 198 0
174 198 0
173 197 0
174 197 0
174 198 0
171 195 0
173 196 0
174 198 0
174 197 0
173 197 0
172 196 0
174 197 0
175 198 0
174 197 0
173 197 0
175 198 0
174 198 0
174 198 0
173 197 0
173 197 0
174 197 0
174 197 0
172 196 0
173 197 0
172 196 0
174 198 0
173 197 0
173 196 0
175 197 0
174 197 0
174 197 0
173 196 0
173 196 0
173 196 0
174 197 0
174 197 0
173 196 0
174 197 0
175 198 0
173 197 0
175 198 0
174 197 0
173 195 0
171 195 0
173 196 0
175 198 0
176 199 0
173 196 0
172 196 0
172 195 0
174 197 0
171 194 0
176 198 0
174 197 0
173 197 0
172 196 0
173 196 0
175 198 0
174 197 0
173 197 0
173 197 0
174 197 0
172 196 0
173 197 0
173 197 0
174 198 0
175 198 0
173 196 0
174 197 0
173 196 0
172 196 0
172 196 0
174 197 0
173 196 0
173 197 0
173 196 0
173 196 0
173 197 0
173 197 0
176 198 0
175 198 0
174 197 0
174 197 0
175 198 0
173 196 0
172 196 0
175 198 0
173 197 0
174 197 0
174 197 0
173 197 0
175 198 0
175 198 0
174 197 0
174 197 0
171 194 0
174 197 0
175 197 0
174 197 0
173 197 0
171 194 0
173 196 0
171 195 0
171 194 0
174 197 0
174 197 0
172 196 0
172 196 0
171 194 0
173 196 0
173 197 0
172 195 0
174 197 0
172 196 0
174 197 0
174 197 0
173 196 0
172 196 0
171 195 0
173 197 0
176 198 0
173 196 0
173 197 0
172 196 0
172 196 0
172 195 0
172 197 0
173 196 0
173 197 0
173 197 0
172 195 0
172 195 0
174 198 0
175 198 0
175 198 0
172 196 0
172 195 0
173 195 0
173 197 0
174 197 0
173 197 0
174 197 0
171 195 0
173 196 0
175 197 0
175 197 0
173 197 0
173 195 0
174 197 0
173 196 0
176 198 0
174 198 0
174 197 0
173 197 0
173 196 0
175 198 0
171 195 0
172 197 0
171 195 0
172 196 0
172 196 0
175 198 0
173 196 0
172 196 0
172 195 0
173 197 0
173 197 0
172 194 0
173 196 0
173 196 0
174 197 0
173 195 0
173 197 0
172 196 0
173 196 0
174 198 0
174 196 0
173 196 0
172 195 0
174 197 0
174 197 0
174 197 0
172 195 0
173 196 0
173 196 0
171 195 0
172 194 0
172 195 0
173 197 0
175 198 0
175 197 0
174 197 0
174 197 0
172 195 0
173 196 0
172 195 0
172 195 0
171 195 0
171 194 0
172 196 0
173 196 0
176 198 0
174 196 0
175 198 0
173 196 0
170 193 0
176 199 0
174 197 0
174 197 0
172 195 0
174 197 0
174 198 0
173 197 0
173 196 0
172 196 0
174 196 0
171 193 0
172 196 0
173 196 0
173 196 0
174 197 0
173 196 0
174 197 0
175 198 0
171 195 0
172 195 0
174 197 11
171 193 16
169 190 19
171 192 16
170 187 37
164 180 47
161 175 49
163 179 42
163 174 54
156 167 53
159 169 50
145 154 53
159 166 67
155 161 69
148 149 71
156 157 76
155 156 82
150 148 78
143 139 78
147 141 84
156 151 89
151 145 89
161 154 97
154 148 92
157 152 93
151 146 91
150 145 93
151 146 94
156 151 93
145 141 90
159 154 97
152 148 93
156 150 97
163 159 104
157 153 99
159 155 101
157 154 102
164 159 103
162 158 104
159 154 102
163 159 104
159 155 101
163 159 104
159 156 103
159 155 102
163 159 103
164 160 106
165 161 106
157 154 103
163 160 104
157 154 101
151 148 99
165 162 108
152 150 100
163 161 107
164 161 107
165 162 108
164 161 107
159 156 104
164 162 108
160 157 105
167 164 110
167 163 108
163 161 107
164 162 109
164 161 108
161 159 107
161 159 106
165 163 109
165 162 108
162 160 108
166 163 109
163 160 107
169 166 111
167 165 110
167 164 109
165 163 109
164 161 108
166 164 109
166 164 110
162 160 107
165 163 109
168 166 111
166 164 109
171 168 112
166 164 109
163 161 108
166 163 109
163 160 107
166 164 110
161 159 106
165 163 109
162 160 107
164 162 108
166 163 109
163 160 106
169 166 110
162 159 106
153 151 101
158 156 103
167 164 109
166 163 107
165 162 108
163 160 106
170 166 108
168 163 107
158 154 101
154 152 101
158 155 102
161 158 104
165 160 104
158 155 103
157 154 101
152 149 97
154 151 98
157 153 99
158 154 101
157 153 99
155 152 99
157 152 97
152 148 96
151 146 93
155 150 97
160 154 99
156 151 97
152 147 93
157 152 96
151 145 90
153 148 95
152 147 93
155 149 93
153 148 90
143 139 86
145 139 84
147 142 85
143 138 81
145 142 77
153 153 84
154 156 73
155 158 69
148 156 59
160 169 61
148 159 51
162 175 54
167 182 47
164 180 41
169 187 36
164 183 25
172 194 19
170 193 0
173 197 0
173 197 0
174 196 0
174 197 0
173 197 0
174 197 0
174 197 0
173 196 0
173 196 0
174 197 0
175 198 0
175 198 0
173 196 0
174 197 0
172 196 0
172 195 0
174 197 0
174 197 0
175 198 0
174 197 0
174 198 0
175 198 0
174 197 0
173 197 0
175 198 0
173 196 0
174 197 0
174 197 0
173 197 0
173 197 0
173 197 0
174 197 0
173 196 0
174 197 0
174 197 0
175 198 0
174 198 0
173 197 0
176 199 0
174 197 0
174 198 0
174 197 0
174 197 0
174 198 0
174 197 0
174 196 0
174 198 0
172 196 0
174 198 0
173 197 0
173 196 0
174 197 0
174 197 0
171 195 0
171 195 0
173 196 0
174 198 0
173 197 0
173 197 0
171 195 0
175 198 0
173 197 0
172 196 0
174 198 0
174 197 0
174 197 0
171 195 0
174 197 0
176 198 0
172 196 0
173 197 0
172 196 0
174 197 0
172 196 0
174 197 0
172 196 0
172 196 0
173 197 0
172 195 0
173 197 0
174 197 0
173 196 0
174 197 0
175 196 0
173 196 0
175 198 0
173 197 0
172 196 0
171 195 0
176 199 0
173 197 0
173 196 0
174 198 0
173 196 0
172 196 0
172 195 0
174 197 0
173 197 0
174 197 0
174 198 0
172 195 0
173 196 0
170 194 0
172 196 0
174 197 0
173 196 0
173 197 0
174 198 0
172 194 0
174 198 0
174 198 0
175 198 0
173 196 0
173 196 0
173 197 0
172 196 0
174 197 0
172 196 0
174 197 0
174 197 0
172 195 0
171 194 0
175 197 0
173 196 0
175 198 0
173 197 0
172 196 0
174 196 0
173 197 0
173 197 0
171 194 0
174 197 0
173 197 0
173 196 0
173 196 0
173 196 0
174 197 0
172 195 0
174 197 0
174 198 0
173 197 0
175 198 0
173 197 0
173 196 0
173 196 0
172 195 0
174 197 0
174 197 0
173 196 0
171 195 0
173 197 0
174 197 0
173 197 0
175 198 0
174 197 0
171 195 0
174 197 0
171 195 0
172 196 0
172 195 0
173 195 0
172 196 0
173 197 0
173 196 0
172 196 0
173 196 0
171 196 0
175 198 0
173 197 0
173 196 0
173 196 0
173 197 0
173 197 0
175 197 0
173 196 0
172 196 0
172 196 0
172 195 0
174 198 0
175 198 0
173 197 0
172 196 0
172 195 0
172 195 0
172 196 0
174 197 0
173 196 0
175 198 0
172 195 0
173 196 0
172 196 0
172 196 0
171 194 0
172 196 0
174 197 0
174 196 0
174 197 0
173 197 0
175 198 0
174 197 0
174 197 0
172 195 0
172 195 0
173 196 0
175 198 0
172 195 0
175 198 0
171 194 0
173 197 0
173 197 0
172 196 0
174 197 0
172 195 0
171 194 0
172 195 0
172 195 0
172 196 0
172 195 0
173 196 0
173 197 0
174 197 0
173 197 0
172 196 0
172 197 0
174 196 0
174 197 0
173 195 0
174 196 0
171 194 0
172 195 0
174 197 0
174 196 0
173 196 0
173 196 0
173 195 0
172 196 0
171 195 0
172 195 0
175 197 0
172 196 0
172 195 0
175 197 0
173 196 0
174 197 0
173 196 0
175 198 0
174 197 0
174 197 0
173 196 0
174 197 0
176 197 16
170 192 16
167 185 34
164 184 28
162 182 32
158 173 41
154 171 30
160 175 41
159 172 52
147 159 45
159 169 57
162 168 69
143 151 53
148 149 66
148 149 74
140 141 69
154 153 79
145 142 80
146 142 83
149 144 88
151 145 87
146 141 89
148 142 84
150 145 91
150 145 93
157 152 96
156 152 96
143 140 90
157 152 95
152 148 93
150 145 93
154 149 96
157 154 99
151 147 95
158 153 100
156 153 101
164 159 104
151 147 95
161 156 103
163 159 104
161 158 103
161 156 103
162 158 104
156 152 100
159 156 103
163 160 106
161 158 104
161 158 105
163 161 108
164 160 106
160 156 103
161 158 105
158 156 104
162 160 106
164 161 108
166 163 109
161 157 105
167 164 109
162 160 107
164 161 108
159 156 104
165 161 108
164 161 107
161 159 106
163 161 108
166 163 109
162 160 107
165 163 109
168 166 110
169 167 112
164 162 109
161 159 107
162 160 107
167 164 109
165 163 109
170 168 112
163 161 108
164 162 109
167 165 110
162 161 108
165 163 109
165 162 108
164 161 108
164 162 108
164 162 108
160 157 105
163 161 108
165 162 108
164 161 108
166 164 109
164 162 109
160 158 105
166 163 109
167 164 109
163 161 108
168 164 109
167 163 108
166 162 108
167 163 109
168 165 109
167 164 108
160 157 104
169 166 109
160 156 102
166 163 108
164 161 106
162 158 104
163 159 104
167 163 108
158 154 101
168 163 106
162 158 104
161 157 102
161 157 103
164 160 104
162 157 103
164 160 104
155 152 100
160 155 98
155 151 98
152 148 93
164 160 100
168 162 104
152 146 93
157 153 97
155 150 95
156 150 95
157 152 97
154 148 92
156 150 94
154 148 93
151 147 91
143 138 84
156 150 93
144 139 83
151 146 87
150 147 84
151 149 77
155 154 77
147 152 68
150 154 64
156 164 60
157 167 57
157 170 49
163 178 48
157 172 34
168 184 44
169 186 47
168 191 16
170 190 19
174 197 11
174 197 0
173 197 0
173 197 0
175 198 0
175 198 0
175 198 0
173 197 0
174 198 0
174 198 0
172 196 0
173 197 0
176 198 0
176 198 0
174 198 0
174 198 0
174 198 0
173 197 0
173 197 0
176 198 0
175 198 0
174 197 0
174 197 0
172 196 0
174 197 0
173 197 0
173 197 0
174 197 0
174 198 0
174 197 0
174 198 0
174 197 0
174 197 0
173 197 0
174 198 0
174 197 0
175 198 0
171 196 0
174 197 0
175 198 0
173 196 0
173 197 0
171 195 0
174 197 0
174 197 0
173 196 0
174 197 0
174 197 0
173 197 0
174 198 0
175 198 0
173 197 0
174 197 0
173 197 0
172 195 0
174 197 0
173 197 0
177 199 0
174 198 0
175 198 0
174 198 0
173 197 0
173 197 0
174 198 0
171 195 0
172 196 0
173 196 0
173 197 0
173 197 0
174 197 0
173 197 0
174 197 0
176 198 0
171 196 0
175 198 0
173 197 0
172 196 0
175 198 0
171 196 0
173 197 0
173 196 0
174 197 0
173 197 0
175 198 0
173 196 0
173 197 0
173 197 0
172 197 0
173 197 0
173 197 0
174 197 0
174 197 0
172 195 0
174 198 0
173 196 0
172 197 0
176 198 0
174 197 0
173 196 0
173 197 0
171 195 0
173 197 0
172 195 0
174 198 0
173 196 0
172 195 0
172 195 0
174 198 0
173 196 0
170 194 0
171 194 0
175 198 0
173 196 0
174 197 0
173 197 0
175 198 0
175 198 0
174 197 0
170 194 0
173 196 0
174 198 0
173 197 0
173 196 0
174 197 0
172 196 0
173 197 0
174 197 0
174 197 0
172 195 0
173 196 0
172 196 0
174 198 0
171 196 0
174 197 0
173 196 0
172 196 0
172 196 0
175 198 0
174 197 0
173 196 0
172 195 0
171 195 0
172 196 0
172 196 0
172 196 0
173 196 0
176 198 0
174 197 0
174 197 0
173 196 0
173 196 0
174 197 0
172 196 0
171 195 0
173 197 0
171 196 0
174 197 0
174 197 0
170 193 0
173 197 0
172 195 0
176 198 0
173 196 0
175 197 0
173 197 0
173 196 0
173 197 0
173 195 0
175 197 0
171 194 0
173 196 0
174 196 0
172 195 0
173 197 0
173 196 0
172 196 0
173 197 0
172 196 0
172 194 0
170 193 0
174 197 0
174 197 0
174 197 0
172 195 0
174 197 0
174 196 0
173 196 0
172 195 0
174 197 0
173 196 0
173 197 0
172 195 0
173 196 0
175 197 0
172 196 0
176 199 0
173 196 0
174 196 0
175 197 0
171 195 0
174 196 0
175 198 0
173 195 0
174 197 0
174 196 0
175 198 0
173 196 0
173 196 0
174 197 0
174 197 0
172 196 0
174 197 0
173 196 0
173 196 0
172 195 0
172 196 0
172 196 0
172 195 0
173 196 0
172 195 0
173 196 0
173 197 0
173 196 0
174 196 0
175 197 0
171 195 0
174 196 0
174 197 0
174 197 0
172 195 0
171 195 0
173 196 0
175 198 0
174 197 0
172 195 0
172 195 0
173 197 0
171 194 0
172 196 0
171 193 0
172 195 0
172 195 0
174 197 0
172 196 0
172 195 0
172 194 0
172 196 0
172 196 0
170 193 0
173 197 11
168 190 16
168 190 16
165 185 22
165 185 25
160 177 34
161 178 34
163 180 37
161 173 50
157 167 53
156 164 58
155 166 52
155 159 67
155 160 66
146 148 71
149 148 70
153 151 80
138 136 70
144 141 80
146 142 82
152 146 88
140 134 80
152 147 89
153 148 93
155 150 92
157 151 94
160 155 99
156 151 95
153 149 97
162 157 100
150 145 93
155 150 95
155 151 98
153 148 95
163 156 99
148 143 92
166 161 104
155 152 100
152 148 98
150 146 95
160 157 103
161 157 103
159 156 103
158 154 102
154 152 101
160 157 105
160 157 104
160 157 105
164 161 106
164 160 104
155 152 102
160 158 104
162 159 106
159 156 104
161 157 103
161 158 106
162 160 107
169 166 110
160 157 105
164 162 108
170 167 111
165 162 108
170 166 110
169 167 111
163 161 108
165 162 108
168 165 110
166 164 109
168 166 110
165 163 109
166 164 110
167 164 109
165 162 108
163 161 108
164 161 107
165 163 109
169 166 111
168 165 110
164 162 108
165 163 109
166 163 109
164 162 109
164 162 108
168 165 110
162 160 107
164 162 109
167 164 110
161 158 106
161 160 107
171 169 113
161 159 106
167 165 110
167 164 109
166 163 108
169 166 111
169 166 110
165 162 108
164 161 107
161 158 105
159 157 104
169 165 110
170 168 112
164 160 106
165 162 108
157 154 102
160 158 105
164 160 105
163 158 104
159 156 104
163 159 106
165 161 106
159 155 103
160 156 103
160 156 103
161 158 103
164 159 104
157 153 99
159 156 101
161 157 102
159 155 101
153 150 99
157 152 100
160 154 98
159 153 98
147 143 90
159 154 99
154 149 95
156 151 95
158 154 99
148 143 88
150 145 92
148 142 89
158 152 93
147 142 89
148 142 84
139 135 85
146 140 86
148 143 84
148 143 84
151 149 78
146 146 73
151 151 73
155 159 67
154 164 52
150 161 53
162 173 53
165 182 44
163 178 37
171 190 34
169 190 11
171 192 16
173 194 19
174 197 0
174 197 0
174 197 0
174 197 0
173 197 0
172 196 0
174 198 0
173 197 0
173 197 0
174 197 0
173 197 0
174 197 0
173 196 0
173 197 0
174 197 0
174 198 0
173 197 0
175 198 0
174 197 0
174 198 0
175 198 0
172 196 0
175 198 0
173 197 0
175 198 0
174 197 0
172 196 0
174 198 0
176 198 0
175 198 0
173 197 0
174 197 0
173 197 0
173 197 0
173 197 0
174 197 0
173 197 0
174 197 0
171 195 0
174 197 0
173 196 0
173 196 0
172 196 0
172 195 0
174 197 0
173 197 0
171 195 0
175 198 0
173 196 0
175 198 0
174 197 0
172 195 0
173 197 0
175 198 0
173 196 0
173 196 0
173 196 0
174 198 0
173 197 0
171 195 0
173 197 0
175 198 0
175 198 0
174 198 0
174 198 0
173 196 0
174 197 0
175 198 0
174 197 0
173 197 0
172 196 0
170 193 0
173 196 0
170 195 0
171 195 0
174 196 0
175 198 0
174 197 0
174 197 0
174 197 0
171 195 0
174 198 0
174 197 0
173 196 0
173 196 0
173 196 0
172 195 0
173 197 0
174 198 0
174 197 0
174 197 0
174 197 0
172 196 0
175 198 0
173 197 0
174 197 0
175 198 0
171 194 0
173 196 0
172 195 0
173 195 0
172 196 0
171 194 0
174 197 0
175 198 0
174 197 0
172 196 0
175 198 0
171 195 0
171 194 0
173 196 0
173 197 0
174 197 0
172 196 0
171 195 0
173 197 0
174 197 0
172 196 0
176 199 0
172 195 0
173 197 0
174 198 0
174 197 0
174 198 0
173 197 0
176 198 0
173 197 0
172 195 0
174 198 0
175 198 0
175 198 0
172 195 0
173 195 0
172 195 0
171 195 0
171 195 0
174 197 0
174 198 0
175 198 0
173 196 0
172 195 0
173 197 0
173 197 0
172 195 0
173 196 0
172 195 0
173 197 0
174 197 0
175 198 0
173 196 0
173 197 0
172 196 0
174 197 0
174 196 0
173 197 0
173 196 0
174 198 0
173 196 0
174 197 0
175 198 0
172 196 0
173 197 0
173 196 0
170 193 0
173 197 0
172 195 0
174 197 0
173 196 0
172 194 0
173 196 0
171 194 0
172 196 0
173 196 0
172 196 0
172 195 0
173 195 0
172 196 0
174 198 0
175 198 0
173 196 0
173 196 0
173 196 0
171 195 0
174 197 0
174 197 0
174 197 0
173 196 0
173 196 0
172 195 0
173 195 0
173 197 0
172 195 0
172 196 0
173 196 0
175 198 0
173 196 0
173 195 0
169 193 0
172 195 0
174 198 0
174 197 0
174 197 0
173 196 0
172 196 0
172 196 0
173 196 0
174 198 0
171 194 0
173 197 0
174 196 0
173 196 0
172 196 0
172 195 0
174 197 0
174 197 0
174 196 0
174 196 0
174 197 0
173 196 0
173 195 0
174 197 0
173 197 0
170 194 0
173 196 0
172 195 0
172 196 0
174 197 0
174 197 0
174 197 0
174 198 0
174 197 0
174 197 0
174 197 0
172 196 0
171 195 0
174 197 0
175 197 0
174 197 0
172 196 0
174 197 0
174 197 0
173 196 0
171 195 0
174 197 0
175 197 0
175 198 0
173 196 0
171 195 0
173 195 0
173 194 19
173 193 16
170 188 30
169 187 30
164 182 32
165 181 37
154 164 51
161 173 56
159 168 57
154 159 64
165 170 69
151 152 71
151 152 69
147 147 71
146 146 75
151 148 80
153 148 90
151 145 87
149 144 85
144 140 87
149 144 89
148 143 83
151 146 91
153 148 92
148 144 89
152 147 94
147 142 90
159 155 95
159 153 96
149 145 94
152 148 96
151 148 97
155 151 98
153 150 98
147 144 93
155 151 97
157 154 100
159 155 103
161 157 104
162 159 105
159 155 102
161 158 104
158 155 102
161 158 105
154 152 100
166 162 108
167 163 108
159 156 103
156 154 103
163 160 107
162 159 106
164 161 108
163 160 106
164 161 106
158 155 103
158 155 103
166 163 109
167 164 109
169 166 110
168 165 110
163 160 107
166 163 109
164 161 107
171 168 111
158 156 104
165 162 108
165 163 109
170 167 111
164 162 108
163 161 108
167 164 109
163 161 108
168 166 111
160 157 105
162 160 107
169 165 110
165 163 109
163 161 108
166 163 109
162 160 107
166 164 109
165 163 109
162 159 106
168 166 110
168 165 110
166 163 109
166 164 109
160 158 106
159 157 105
163 160 107
166 163 109
167 164 109
159 157 104
166 164 109
170 166 110
164 161 108
168 165 109
161 158 105
167 163 108
161 158 105
167 163 108
163 159 106
166 163 108
167 163 108
164 161 107
166 162 106
164 160 106
163 160 106
165 162 107
165 160 104
162 158 103
166 162 107
164 159 103
162 159 103
161 157 103
162 157 102
161 157 103
156 151 99
156 152 99
163 158 101
157 152 98
160 156 101
155 151 97
163 157 102
158 152 97
158 153 98
159 154 100
146 141 88
157 152 98
159 152 96
150 144 91
149 143 89
152 146 92
149 143 89
152 147 91
141 136 85
153 147 93
147 143 84
149 145 80
150 149 76
153 153 79
161 162 75
155 161 66
152 161 59
161 171 56
149 164 39
167 183 51
165 182 36
171 189 36
166 187 19
170 191 25
170 192 0
172 196 0
174 198 0
175 198 0
172 196 0
173 197 0
172 195 0
175 198 0
174 197 0
174 197 0
173 196 0
175 198 0
173 197 0
174 197 0
172 196 0
177 199 0
174 198 0
174 197 0
175 198 0
176 198 0
174 197 0
174 197 0
173 197 0
173 197 0
172 196 0
172 196 0
173 196 0
174 198 0
174 197 0
174 197 0
174 197 0
175 198 0
174 197 0
174 197 0
175 198 0
172 195 0
173 197 0
174 197 0
174 197 0
171 195 0
174 197 0
174 197 0
175 198 0
175 197 0
174 196 0
175 198 0
175 198 0
176 198 0
174 198 0
175 198 0
173 197 0
173 196 0
173 197 0
174 197 0
175 198 0
174 198 0
174 198 0
174 198 0
173 197 0
173 196 0
174 196 0
174 197 0
174 197 0
174 197 0
173 196 0
173 196 0
174 197 0
172 196 0
173 197 0
172 196 0
174 197 0
174 198 0
171 195 0
174 197 0
172 196 0
176 198 0
173 197 0
175 197 0
174 197 0
174 197 0
174 198 0
175 198 0
174 197 0
173 197 0
172 196 0
173 196 0
170 193 0
174 197 0
175 198 0
172 196 0
173 197 0
174 197 0
175 197 0
173 197 0
175 198 0
175 198 0
171 195 0
172 195 0
173 197 0
174 198 0
173 197 0
173 196 0
174 196 0
172 196 0
173 196 0
174 197 0
173 196 0
173 196 0
173 196 0
175 198 0
173 197 0
174 197 0
173 196 0
174 197 0
175 197 0
173 197 0
172 195 0
172 196 0
172 195 0
173 197 0
174 197 0
174 197 0
174 197 0
173 196 0
174 197 0
174 197 0
175 198 0
173 197 0
172 196 0
174 198 0
174 197 0
172 194 0
172 196 0
173 197 0
172 196 0
170 193 0
173 196 0
174 197 0
174 198 0
172 195 0
171 195 0
174 197 0
175 198 0
173 196 0
174 196 0
175 198 0
173 197 0
173 197 0
173 196 0
172 195 0
174 196 0
174 197 0
173 196 0
173 196 0
173 196 0
172 195 0
173 196 0
175 198 0
173 197 0
175 198 0
172 195 0
171 194 0
173 197 0
173 197 0
174 197 0
174 197 0
172 196 0
173 197 0
172 196 0
173 197 0
172 195 0
172 195 0
173 196 0
172 196 0
175 198 0
171 195 0
174 197 0
175 198 0
172 195 0
169 192 0
172 195 0
172 195 0
173 197 0
172 196 0
175 198 0
171 195 0
171 194 18
172 194 0
174 198 0
171 196 0
173 196 0
171 195 0
172 195 0
173 196 0
174 197 0
173 197 0
173 197 0
173 196 0
171 195 0
172 195 0
174 197 0
171 195 0
172 194 0
171 195 0
171 194 0
173 196 0
173 197 0
172 195 0
174 197 0
173 197 0
172 195 0
171 193 0
170 193 0
174 197 0
174 198 0
171 194 0
173 197 0
173 196 0
171 194 0
172 194 0
173 197 0
174 197 0
174 198 0
172 195 0
172 195 0
174 198 0
171 195 0
175 198 0
174 197 0
174 197 0
174 197 0
172 195 0
173 197 0
174 197 0
172 195 0
173 196 0
173 195 0
170 193 0
173 196 0
174 196 0
171 193 0
174 197 0
170 194 0
172 196 0
172 195 0
172 195 0
170 193 0
171 194 0
170 191 25
169 189 22
168 189 19
164 183 25
164 181 39
164 178 51
161 173 41
162 173 53
160 171 62
152 161 57
149 158 53
156 159 66
146 149 68
147 149 69
144 144 74
141 140 72
141 138 74
142 138 77
142 137 82
147 141 86
151 145 91
149 145 89
145 141 88
147 144 91
142 139 86
153 148 94
149 145 90
152 149 95
153 149 95
158 153 96
154 151 97
152 148 98
152 149 97
156 153 99
161 156 100
154 150 98
160 156 101
157 153 100
160 156 102
162 158 103
166 162 106
162 159 104
161 157 103
158 155 104
153 150 100
165 161 107
155 152 101
164 161 107
166 163 109
164 161 106
165 161 107
164 161 107
160 158 106
164 161 107
164 161 107
162 160 107
163 161 107
162 159 107
159 156 105
166 164 110
165 163 109
162 160 107
168 165 110
168 165 110
165 162 108
165 162 108
165 162 108
167 164 109
166 163 109
170 168 112
162 160 108
165 163 109
168 164 109
165 162 108
168 165 110
166 164 110
169 166 110
161 159 106
164 163 109
169 166 111
161 159 106
168 166 111
166 164 109
164 161 108
168 165 110
165 162 108
166 164 109
170 167 112
166 164 109
169 167 111
166 163 109
164 161 107
162 159 106
167 164 110
167 163 109
167 164 109
169 166 110
167 164 109
165 162 108
167 163 109
168 164 109
167 163 108
163 161 107
165 161 107
170 167 110
164 160 106
165 161 106
172 168 110
160 157 103
164 161 106
163 158 104
157 153 99
162 158 104
165 162 107
159 155 101
163 158 103
164 160 105
161 157 102
160 155 101
166 161 104
161 157 103
152 148 96
162 157 97
156 152 99
159 154 97
155 150 93
157 151 97
155 150 94
155 148 91
164 157 99
161 156 98
156 152 96
154 150 93
150 144 87
156 151 93
151 144 90
159 153 95
155 149 93
153 147 86
148 144 82
146 144 80
152 153 72
157 158 78
143 146 64
155 164 56
167 176 61
158 171 53
160 172 49
168 185 37
166 183 36
169 190 22
171 192 22
171 193 11
173 196 11
172 195 0
175 198 0
175 198 0
174 197 0
174 197 0
175 198 0
174 198 0
173 197 0
175 198 0
173 197 0
172 196 0
170 194 0
174 198 0
173 196 0
174 197 0
174 197 0
173 196 0
174 197 0
175 198 0
173 197 0
173 197 0
174 197 0
172 195 0
173 196 0
172 196 0
171 194 0
172 195 0
173 196 0
173 196 0
175 198 0
174 197 0
172 196 0
173 197 0
173 197 0
174 197 0
174 197 0
174 197 0
174 197 0
175 198 0
172 196 0
174 197 0
175 198 0
175 198 0
174 197 0
174 198 0
175 198 0
173 197 0
176 198 0
172 196 0
174 198 0
175 198 0
174 197 0
175 198 0
173 197 0
171 196 0
174 197 0
171 194 0
174 197 0
173 196 0
174 197 0
173 197 0
172 195 0
173 196 0
173 196 0
173 197 0
175 198 0
170 194 0
173 197 0
174 197 0
174 196 0
173 197 0
174 197 0
174 197 0
173 196 0
175 198 0
174 197 0
172 196 0
171 195 0
176 198 0
172 196 0
173 196 0
174 197 0
174 197 0
174 198 0
175 198 0
172 196 0
172 196 0
174 198 0
171 194 0
173 196 0
172 195 0
173 197 0
174 197 0
174 197 0
173 195 0
173 197 0
171 195 0
172 195 0
172 195 0
174 197 0
171 195 0
173 196 0
175 198 0
174 198 0
171 195 0
174 197 0
173 196 0
174 196 0
174 197 0
175 198 0
172 196 0
174 198 0
175 197 0
172 195 0
175 198 0
174 197 0
172 195 0
173 197 0
172 196 0
173 197 0
174 197 0
171 195 0
173 197 0
171 194 0
172 194 0
171 195 0
174 197 0
175 198 0
173 197 0
173 197 0
172 196 0
174 198 0
174 197 0
173 197 0
175 198 0
172 195 0
173 196 0
173 196 0
172 196 0
173 196 0
173 196 0
172 196 0
171 195 0
174 197 0
173 196 0
174 196 0
173 196 0
173 197 0
174 197 0
174 197 0
174 198 0
173 196 0
170 193 0
172 195 0
174 197 0
173 197 0
172 195 0
174 197 0
175 198 0
173 196 0
172 195 0
175 198 0
171 195 0
173 197 0
173 197 0
172 194 0
172 196 0
171 195 0
172 195 0
174 196 0
173 196 0
171 194 25
172 195 25
170 193 31
169 193 31
169 193 44
166 190 54
165 189 57
162 186 62
171 194 36
159 182 70
157 182 78
166 189 60
158 182 80
162 185 65
163 187 60
163 187 60
165 188 65
162 185 62
168 191 40
169 191 36
171 194 36
168 190 36
166 189 47
170 194 31
174 197 0
175 198 0
172 196 0
174 197 0
174 197 0
172 196 0
172 195 0
175 198 0
172 196 0
173 197 0
172 195 0
171 193 0
172 197 0
174 197 0
173 197 0
171 194 0
171 195 0
173 196 0
175 197 0
172 195 0
172 195 0
173 196 0
173 197 0
174 197 0
173 196 0
174 197 0
172 195 0
176 198 0
173 196 0
171 195 0
175 197 0
173 197 0
173 197 0
172 196 0
175 197 0
174 197 0
175 198 0
174 197 0
174 197 0
170 194 0
173 197 0
172 196 0
170 193 0
174 196 0
171 195 0
170 194 0
171 195 0
169 194 0
172 195 11
172 195 0
170 193 16
170 193 11
168 187 28
163 182 32
167 182 42
166 184 36
154 172 25
150 164 39
158 168 60
152 161 57
157 164 60
147 152 64
151 155 64
145 146 70
148 149 70
152 150 85
152 150 83
148 144 84
151 145 85
157 151 93
148 142 86
155 150 91
160 154 95
143 138 82
146 141 88
154 150 92
154 150 95
157 152 97
154 150 94
157 153 98
151 147 95
154 150 96
149 146 95
149 145 95
152 148 98
154 150 96
160 156 102
156 152 99
152 149 98
157 153 100
155 151 99
165 160 106
164 161 106
160 156 103
166 163 108
162 158 105
157 155 104
170 166 110
168 164 108
164 160 106
161 157 104
161 158 106
161 159 106
158 155 104
163 160 106
161 158 106
162 159 105
163 161 108
165 163 109
169 165 109
162 159 106
165 161 108
162 160 107
165 163 108
164 161 108
168 164 109
166 163 109
167 164 109
167 165 110
164 161 108
172 169 113
169 167 111
167 164 110
165 163 109
165 162 108
171 168 112
170 167 111
170 167 111
165 163 109
164 161 108
168 166 110
165 162 108
169 166 111
166 164 110
163 161 108
162 160 107
167 164 109
163 160 106
169 166 111
168 165 110
166 163 109
167 164 109
167 164 109
166 163 109
167 164 109
166 163 108
167 165 110
161 158 106
172 168 112
166 163 108
170 167 111
163 160 106
169 166 110
160 158 106
166 162 108
162 159 106
164 160 106
166 162 108
163 160 105
166 162 106
165 161 106
170 165 108
158 154 99
168 164 108
162 159 104
166 161 106
160 157 101
164 159 102
167 162 105
158 153 96
160 156 99
165 160 104
157 152 97
156 152 99
151 148 97
161 156 99
163 158 101
167 162 103
160 154 95
163 157 100
150 145 90
156 151 95
146 141 87
157 151 95
158 153 93
154 150 94
152 147 89
158 152 93
153 147 85
151 145 86
138 132 75
140 136 76
155 153 81
144 146 69
155 156 79
150 154 68
165 174 58
156 169 49
159 173 47
160 173 39
161 178 36
163 181 34
169 189 28
169 190 22
175 196 16
173 196 0
173 196 0
174 198 0
172 195 0
173 197 0
175 198 0
174 197 0
173 196 0
173 195 0
175 198 0
173 196 0
175 198 0
173 197 0
171 195 0
173 197 0
174 197 0
171 194 0
175 198 0
171 195 0
175 198 0
174 197 0
174 197 0
174 197 0
174 198 0
174 197 0
173 197 0
170 193 0
175 198 0
174 198 0
173 197 0
173 196 0
173 196 0
175 198 0
175 198 0
176 199 0
172 196 0
174 196 0
172 196 0
173 197 0
172 196 0
173 196 0
172 195 0
172 196 0
174 197 0
171 195 0
173 196 0
174 198 0
174 197 0
172 196 0
173 197 0
174 197 0
173 196 0
171 195 0
173 196 0
174 197 0
174 197 0
174 197 0
174 197 0
174 196 0
172 195 0
174 198 0
174 197 0
174 197 0
174 198 0
173 197 0
173 197 0
174 198 0
171 195 0
173 196 0
173 196 0
174 197 0
173 197 0
173 197 0
173 196 0
175 198 0
172 197 0
174 197 0
174 198 0
172 196 0
173 196 0
174 197 0
173 196 0
174 197 0
172 196 0
173 197 0
175 198 0
172 196 0
173 197 0
173 197 0
171 195 0
173 196 0
174 197 0
173 195 0
173 196 0
173 197 0
173 196 0
173 196 0
173 196 0
174 197 0
174 198 0
174 198 0
172 196 0
175 198 0
174 197 0
173 196 0
171 195 0
175 198 0
174 198 0
174 197 0
173 196 0
172 195 0
173 197 0
176 199 0
175 198 0
173 197 0
174 197 0
176 199 0
175 198 0
175 197 0
173 196 0
174 198 0
171 195 0
171 195 0
172 196 0
172 196 0
173 196 0
173 196 0
174 197 0
171 195 0
173 196 0
174 197 0
172 196 0
173 197 0
173 196 0
174 197 0
170 193 0
172 195 0
175 198 0
171 195 0
172 196 0
173 196 0
174 197 0
173 196 0
172 196 0
173 196 0
174 197 0
172 195 0
174 196 0
174 197 0
174 197 0
172 196 0
172 195 0
169 194 0
173 196 0
174 197 0
172 195 0
171 195 0
172 196 0
172 195 0
175 197 0
175 198 0
173 196 0
172 195 0
172 195 0
170 194 18
174 197 18
167 192 36
168 193 36
162 186 60
166 189 54
165 188 62
163 186 70
157 181 74
158 182 78
139 164 111
147 171 102
145 169 103
144 168 107
145 169 105
142 166 107
138 162 115
139 163 114
136 161 118
141 165 108
136 162 115
140 166 111
143 167 111
137 162 116
142 167 111
139 164 111
149 173 99
154 178 84
143 168 107
152 176 92
156 179 80
153 177 88
164 188 60
161 185 60
165 188 51
167 191 47
171 194 25
174 196 0
172 195 0
173 196 0
173 196 0
173 196 0
175 197 0
170 193 0
174 197 0
173 196 0
172 195 0
174 197 0
171 192 0
171 193 0
173 196 0
173 196 0
169 193 0
175 198 0
172 195 0
172 196 0
170 193 0
174 197 0
171 194 0
173 197 0
173 196 0
173 197 0
170 194 0
173 197 0
173 196 0
172 195 0
173 195 0
173 196 0
173 197 0
173 195 0
174 197 0
174 198 0
172 195 0
176 198 0
172 196 0
173 196 0
172 196 0
171 193 0
172 194 0
171 194 11
172 193 11
171 194 22
168 188 25
168 186 36
165 184 28
164 181 37
166 182 36
160 173 45
154 164 49
155 165 53
159 167 62
153 160 59
150 152 63
145 149 67
150 149 76
143 142 75
143 141 77
143 139 81
139 134 76
141 136 84
140 135 82
143 139 84
146 141 86
153 147 92
147 142 90
151 146 92
159 154 95
153 149 94
149 145 92
157 152 95
153 149 97
153 148 96
152 149 98
160 155 99
135 131 85
155 152 99
156 152 98
165 160 106
150 148 96
153 150 99
157 153 101
157 155 103
162 158 105
157 153 101
161 158 106
158 154 102
162 160 105
164 160 106
159 156 103
156 154 103
160 157 104
162 159 106
159 156 104
165 161 107
160 158 106
163 161 107
165 162 108
161 158 107
161 158 106
169 166 110
163 160 106
164 162 109
163 160 107
166 163 109
162 159 107
168 165 110
166 164 110
165 161 108
167 164 110
162 159 106
169 166 110
166 164 110
168 165 110
166 164 109
170 167 112
169 166 110
166 163 109
165 163 109
166 164 110
167 164 109
164 163 109
166 163 109
167 164 110
166 163 109
165 163 109
168 166 111
160 157 105
168 164 109
168 166 111
163 161 108
162 159 106
166 164 109
166 163 109
170 167 111
167 165 110
163 161 107
169 166 110
167 164 110
161 158 104
161 159 106
165 162 108
160 156 104
168 164 109
165 161 106
165 162 107
163 160 106
159 155 102
166 163 108
165 162 107
165 162 108
161 157 102
166 162 108
161 158 104
164 160 105
164 161 106
169 164 106
167 163 106
166 161 104
166 162 104
159 155 100
164 160 104
164 160 104
161 157 102
158 153 99
161 157 100
161 157 101
162 157 100
166 161 101
157 152 95
165 159 101
152 147 95
158 154 97
156 150 97
160 154 97
154 149 93
151 146 90
150 144 87
144 139 87
150 144 87
146 140 82
139 134 82
145 139 79
136 132 76
146 145 73
152 155 71
142 145 65
152 158 61
146 152 56
158 167 57
157 169 49
159 172 44
167 183 44
167 183 45
164 183 25
172 194 16
172 194 19
173 196 0
175 197 0
175 198 0
174 196 0
174 197 0
174 196 0
173 196 0
174 197 0
174 197 0
175 198 0
175 198 0
173 196 0
172 196 0
175 198 0
172 196 0
175 198 0
173 196 0
174 197 0
174 197 0
174 197 0
173 197 0
175 198 0
174 197 0
174 197 0
174 197 0
172 196 0
173 196 0
174 197 0
175 198 0
173 196 0
172 196 0
173 197 0
172 195 0
172 196 0
175 198 0
174 197 0
175 198 0
174 197 0
173 196 0
172 196 0
174 198 0
173 197 0
176 199 0
174 198 0
175 198 0
174 198 0
174 198 0
175 198 0
173 197 0
173 196 0
174 197 0
173 196 0
174 197 0
173 197 0
173 196 0
169 193 0
172 196 0
173 197 0
173 196 0
172 196 0
174 198 0
175 198 0
175 198 0
174 197 0
173 197 0
174 197 0
174 197 0
172 196 0
172 194 0
173 197 0
174 197 0
175 198 0
174 197 0
173 196 0
174 197 0
173 196 0
172 194 0
173 197 0
175 198 0
173 197 0
171 195 0
174 197 0
173 196 0
172 196 0
174 197 0
171 195 0
173 196 0
174 197 0
171 195 0
174 197 0
176 199 0
172 195 0
173 197 0
171 194 0
173 196 0
174 196 0
174 197 0
172 196 0
173 197 0
173 197 0
174 197 0
172 195 0
174 197 0
174 198 0
173 197 0
172 196 0
173 196 0
172 195 0
174 198 0
172 196 0
174 198 0
173 196 0
174 197 0
174 197 0
172 196 0
171 194 0
171 194 0
173 196 0
173 196 0
172 195 0
173 196 0
174 197 0
174 197 0
173 197 0
174 197 0
173 196 0
173 196 0
172 195 0
176 198 0
174 197 0
174 197 0
172 196 0
173 197 0
174 198 0
173 197 0
170 194 0
173 196 0
173 196 0
171 195 0
170 195 0
173 196 0
172 195 0
172 195 0
174 197 0
173 196 0
172 196 0
173 196 0
172 195 0
172 195 0
172 194 0
174 198 0
173 197 0
173 196 0
172 195 0
174 197 0
172 195 0
174 197 0
171 195 0
173 197 0
174 197 0
171 195 18
172 196 0
170 194 31
165 189 51
161 185 62
161 185 70
148 173 95
149 173 99
142 167 111
134 159 121
137 162 118
122 148 138
121 148 136
122 148 136
103 132 153
101 130 155
100 129 156
95 124 159
103 132 155
85 117 166
87 118 166
90 120 165
87 118 166
77 110 173
84 116 168
92 122 162
93 123 163
92 122 163
93 123 162
100 129 156
109 136 151
115 141 143
123 150 134
117 144 142
123 149 135
135 161 119
127 152 133
137 163 113
142 167 107
154 177 92
156 181 80
157 181 79
164 188 63
171 194 36
173 195 0
172 195 18
169 192 18
173 196 0
174 197 0
173 196 0
171 195 0
169 194 0
173 197 0
174 197 0
174 197 0
174 197 0
173 196 0
169 192 0
174 197 0
173 196 0
174 196 0
174 197 0
173 196 0
170 193 0
172 195 0
171 195 0
174 196 0
170 193 0
174 197 0
173 197 0
173 197 0
172 196 0
171 194 0
173 196 0
173 195 0
171 194 0
174 197 0
172 195 0
174 197 0
174 197 0
174 197 0
173 196 0
173 196 0
172 195 0
166 188 0
170 191 19
166 186 28
165 184 22
166 182 41
162 178 36
162 174 47
165 177 55
155 166 57
147 157 49
154 163 53
146 153 60
155 159 68
136 135 66
143 145 68
149 148 76
139 134 75
145 140 83
150 143 86
143 138 87
146 142 88
151 146 92
145 140 89
149 144 90
146 141 87
155 149 94
161 156 97
150 146 95
149 145 93
149 145 94
159 154 99
145 142 94
142 140 93
157 152 96
163 159 103
157 153 102
158 155 102
159 155 102
160 157 105
166 162 107
163 158 103
155 152 102
154 150 98
156 154 101
162 159 105
164 161 107
160 156 104
161 158 103
164 160 105
160 157 104
156 153 103
166 162 107
159 157 105
157 155 104
163 160 107
163 160 107
166 163 108
159 156 104
164 161 108
166 163 109
162 159 106
167 163 108
166 163 109
166 164 109
167 164 110
171 168 112
164 161 108
169 166 111
164 162 108
166 163 109
163 161 108
163 161 108
171 167 111
163 160 107
167 163 108
167 165 110
167 164 109
169 166 110
161 158 106
170 168 112
169 167 111
168 166 111
168 165 110
169 167 111
170 167 111
164 162 108
170 167 112
165 162 108
169 166 110
166 164 109
167 165 110
166 164 109
164 161 108
170 167 111
171 168 112
168 165 109
164 161 108
170 166 110
164 162 109
166 164 109
163 160 105
165 162 108
168 165 110
166 163 108
162 159 106
168 165 109
167 164 109
167 164 109
165 160 105
169 165 110
159 156 104
172 167 109
163 161 106
163 158 104
169 164 108
164 161 106
159 155 100
162 158 103
160 156 101
164 160 104
161 157 103
165 161 105
167 162 103
161 157 102
166 161 103
158 153 99
160 155 99
163 157 97
148 144 92
156 151 97
154 149 95
165 159 99
156 152 96
159 154 98
157 150 92
159 153 97
157 151 95
157 151 93
159 152 93
150 143 87
147 142 87
152 146 84
151 146 86
145 142 74
153 152 77
161 160 80
162 164 75
154 159 66
151 161 54
161 172 53
168 181 51
161 175 48
170 187 36
165 183 30
166 185 28
170 191 22
171 193 16
174 197 0
175 198 0
174 197 0
173 196 0
174 197 0
173 196 0
175 198 0
173 196 0
174 198 0
174 198 0
174 197 0
174 196 0
174 197 0
174 198 0
172 196 0
175 198 0
173 197 0
174 197 0
175 198 0
176 198 0
174 197 0
172 196 0
173 197 0
173 196 0
172 196 0
173 197 0
173 197 0
175 198 0
172 195 0
174 197 0
175 198 0
171 195 0
174 197 0
171 194 0
176 199 0
175 198 0
172 196 0
172 195 0
172 196 0
171 195 0
173 197 0
174 198 0
173 197 0
175 198 0
176 199 0
173 197 0
173 197 0
174 198 0
172 195 0
174 198 0
173 197 0
174 197 0
175 198 0
173 196 0
173 196 0
173 196 0
172 196 0
172 195 0
171 194 0
173 197 0
176 198 0
174 197 0
173 196 0
170 194 0
174 197 0
173 196 0
172 196 0
174 197 0
174 196 0
171 194 0
173 197 0
173 196 0
172 196 0
174 197 0
173 196 0
174 196 0
171 194 0
176 199 0
175 198 0
172 195 0
174 197 0
173 196 0
174 197 0
173 196 0
174 198 0
172 196 0
174 197 0
173 196 0
174 196 0
172 196 0
173 197 0
174 197 0
172 195 0
171 195 0
173 196 0
169 193 0
173 197 0
170 194 0
173 196 0
174 198 0
171 195 0
173 196 0
175 198 0
173 197 0
173 196 0
174 198 0
173 196 0
174 197 0
172 195 0
174 197 0
171 195 0
173 196 0
172 195 0
172 196 0
173 196 0
173 196 0
170 193 0
173 196 0
174 197 0
174 197 0
175 198 0
174 197 0
173 196 0
172 195 0
172 196 0
171 195 0
171 194 0
175 198 0
173 197 0
174 197 0
173 196 0
173 197 0
173 196 0
172 195 0
174 197 0
173 196 0
172 194 0
174 197 0
173 196 0
174 197 0
172 196 0
172 196 0
173 196 0
170 194 0
172 196 0
174 198 0
171 195 0
172 195 0
172 195 0
172 196 0
175 198 0
173 196 0
174 197 0
174 198 0
172 195 0
172 196 0
173 196 18
168 191 40
162 186 67
166 188 51
157 181 78
155 180 80
144 168 108
131 157 125
131 156 125
111 139 145
110 138 150
97 125 160
85 117 167
88 119 164
70 105 176
67 103 176
66 102 179
64 100 180
62 99 181
62 99 181
62 99 181
61 98 181
61 98 181
61 98 180
62 99 181
62 99 180
62 99 178
62 99 181
62 99 181
61 99 181
62 99 180
62 99 180
61 98 180
61 99 181
66 101 176
66 102 179
71 105 174
83 115 169
74 107 173
92 123 163
90 121 163
104 133 154
110 138 147
126 153 128
127 153 128
138 163 111
143 168 108
155 179 78
149 173 86
162 185 62
162 186 60
168 191 36
172 194 18
172 194 0
171 195 0
173 195 0
173 197 0
173 196 0
172 196 0
173 195 0
171 194 0
172 195 0
174 197 0
172 195 0
174 197 0
172 196 0
170 194 0
172 196 0
174 197 0
174 197 0
172 196 0
176 198 0
172 195 0
171 194 0
173 196 0
170 194 0
175 197 0
176 198 0
173 196 0
173 196 0
172 195 0
174 197 0
172 195 0
173 197 0
173 196 0
171 195 0
168 190 11
170 190 25
165 185 25
166 185 28
168 188 25
163 178 44
162 175 42
163 178 41
152 162 52
159 170 52
156 162 63
157 165 54
146 150 63
150 152 69
146 148 74
144 141 77
150 147 76
150 145 84
144 140 83
137 132 81
148 142 83
152 147 89
155 151 90
147 142 87
153 148 93
159 154 97
154 149 93
156 151 95
155 152 96
142 138 90
158 153 97
161 157 100
160 156 101
152 150 97
153 150 97
161 156 101
153 149 96
167 162 105
158 155 102
148 145 97
148 146 94
154 152 102
168 163 108
165 162 106
153 151 100
156 153 101
159 156 104
162 159 104
155 153 104
160 157 104
164 160 106
157 155 103
166 163 108
161 158 105
162 160 107
158 156 104
164 162 108
155 154 104
166 163 108
166 164 110
165 163 109
170 167 111
159 158 105
164 162 109
164 161 108
166 164 110
163 161 108
165 163 109
168 166 111
166 164 110
166 164 110
166 164 110
171 167 111
163 161 108
166 164 110
166 163 109
168 165 110
168 166 111
170 167 111
165 163 109
163 160 106
167 164 109
169 166 111
167 165 110
171 169 112
171 168 113
164 161 107
173 169 112
166 164 109
169 166 110
167 165 110
169 166 110
170 167 111
165 162 107
169 167 111
168 164 109
168 166 110
168 164 109
170 167 111
164 161 108
165 162 108
167 163 109
167 163 108
170 166 110
170 167 110
166 162 108
164 161 106
161 158 104
170 165 109
164 160 105
168 163 107
165 161 103
162 157 102
170 166 106
162 157 102
166 162 108
163 160 103
164 160 103
163 160 104
161 156 101
167 162 104
166 161 103
161 158 104
166 161 103
164 159 101
162 157 101
155 151 96
159 153 98
162 157 99
158 154 99
159 154 97
159 155 97
155 150 95
157 151 93
153 148 94
156 150 94
157 151 93
154 149 90
152 147 88
156 150 90
155 149 89
163 156 97
150 144 82
145 140 83
149 145 82
152 149 84
155 154 79
140 141 62
149 153 67
154 163 61
155 164 53
155 165 53
156 170 44
158 174 39
165 183 32
171 190 36
171 191 28
174 195 16
172 193 19
174 197 0
171 195 0
174 196 0
175 198 0
173 196 0
174 197 0
174 197 0
174 197 0
173 197 0
173 197 0
173 197 0
174 197 0
173 196 0
174 197 0
175 198 0
175 198 0
173 197 0
174 198 0
173 196 0
172 195 0
172 196 0
173 197 0
174 198 0
174 197 0
174 197 0
174 197 0
174 197 0
174 197 0
174 197 0
174 197 0
174 198 0
175 198 0
174 197 0
174 197 0
172 196 0
174 198 0
173 197 0
175 198 0
173 196 0
172 196 0
173 197 0
173 196 0
173 197 0
175 198 0
173 197 0
172 196 0
170 195 0
174 197 0
171 195 0
172 195 0
173 196 0
175 198 0
174 198 0
173 196 0
172 196 0
174 197 0
174 197 0
173 197 0
172 196 0
174 197 0
174 198 0
174 196 0
173 197 0
173 197 0
173 196 0
175 198 0
174 197 0
176 199 0
171 195 0
173 196 0
175 197 0
173 197 0
172 196 0
174 197 0
172 196 0
169 193 0
173 196 0
174 198 0
174 197 0
172 196 0
174 197 0
173 197 0
174 197 0
172 195 0
173 196 0
173 196 0
173 196 0
173 197 0
174 197 0
174 197 0
169 194 0
173 196 0
173 196 0
175 198 0
169 192 0
173 197 0
174 198 0
174 197 0
174 197 0
172 195 0
174 197 0
174 198 0
174 197 0
172 195 0
172 196 0
174 197 0
175 198 0
173 197 0
173 197 0
173 197 0
173 196 0
172 195 0
173 197 0
173 196 0
174 197 0
172 196 0
173 197 0
173 196 0
173 197 0
171 195 0
173 196 0
171 194 0
174 197 0
175 198 0
175 198 0
173 197 0
174 197 0
174 197 0
173 196 0
172 195 0
174 197 0
175 198 0
175 198 0
174 196 0
172 195 0
173 197 0
173 196 0
173 197 0
174 197 0
171 195 0
173 196 0
172 195 0
171 195 0
170 193 0
174 196 0
172 195 0
171 194 0
173 196 0
174 196 0
175 198 0
173 196 0
171 195 0
169 191 25
169 192 44
166 189 54
156 180 84
156 180 78
146 170 108
125 151 130
119 146 140
114 141 145
97 126 160
77 110 173
74 108 174
73 107 174
67 103 178
62 99 181
61 98 181
61 99 181
62 99 180
62 99 181
61 99 181
61 99 180
61 99 181
61 99 181
61 99 181
61 99 181
61 99 180
62 99 181
62 99 181
61 98 180
62 99 181
61 98 180
61 99 181
62 99 181
61 98 179
61 99 181
62 99 181
62 99 180
62 99 181
61 99 180
62 99 180
61 99 180
62 99 180
62 99 180
61 98 180
62 99 181
64 100 178
76 110 173
85 117 168
93 122 161
103 131 154
120 146 136
131 156 123
128 154 129
144 168 108
147 170 97
162 184 63
162 186 54
168 190 47
171 194 31
172 195 0
171 195 0
174 197 0
171 194 0
171 195 0
173 197 0
174 197 0
172 195 0
172 195 0
171 195 0
172 194 0
172 196 0
174 196 0
174 197 0
173 197 0
171 194 0
172 196 0
170 193 0
171 195 0
173 196 0
173 196 0
173 196 0
173 196 0
174 196 0
171 195 0
172 195 0
173 195 0
172 194 0
172 195 11
172 194 0
169 192 16
171 191 30
170 189 34
165 185 19
161 178 28
162 176 44
166 178 49
153 165 44
158 171 44
160 166 62
150 159 57
142 149 54
145 148 63
156 156 71
137 137 67
146 143 73
144 140 78
138 135 75
142 138 86
142 138 79
142 136 81
152 147 93
154 150 91
148 143 87
148 143 88
151 147 92
154 150 95
152 148 94
153 148 95
149 146 92
148 144 93
160 156 100
152 149 97
151 147 95
151 147 97
153 150 97
150 146 95
148 145 94
161 156 100
149 147 98
153 150 98
152 149 100
159 157 104
158 154 102
156 154 103
159 155 103
159 156 104
158 156 104
164 160 107
168 164 108
156 154 105
159 157 105
163 159 106
161 160 107
162 160 109
156 154 103
159 157 106
164 161 107
168 164 110
167 164 109
159 157 106
164 161 107
171 167 111
158 156 106
161 158 106
168 166 111
165 163 109
164 162 109
163 160 108
167 165 110
169 166 110
168 165 110
173 170 113
169 166 110
169 166 111
167 165 110
171 168 112
169 167 111
166 164 110
170 169 113
173 169 112
167 165 110
169 166 111
169 166 111
169 167 111
166 164 109
173 169 111
167 164 109
167 165 110
167 165 110
169 166 111
170 167 112
172 169 112
169 166 111
167 165 110
167 164 109
168 165 109
168 165 109
168 165 110
165 162 108
168 165 110
162 159 106
170 167 111
160 156 103
170 167 110
167 163 108
170 166 110
164 161 105
165 161 106
166 163 106
161 158 105
161 158 104
169 166 109
161 158 104
164 160 105
167 163 107
172 167 110
167 162 104
163 158 103
165 162 105
163 159 104
162 158 103
169 164 105
159 154 99
163 158 101
163 158 103
164 160 103
155 150 93
158 153 95
163 158 99
160 154 97
164 159 101
155 150 95
165 159 100
157 152 95
164 159 99
154 149 93
149 144 87
150 146 91
148 141 87
157 151 94
153 148 90
153 148 85
143 138 83
141 135 80
143 138 77
143 144 67
144 146 66
156 161 71
157 162 64
160 168 58
155 168 44
165 179 52
158 169 53
163 178 41
163 182 34
166 185 28
172 194 16
173 196 0
172 194 11
172 196 0
172 195 0
175 198 0
174 198 0
174 197 0
173 197 0
173 196 0
174 197 0
173 197 0
174 197 0
175 198 0
176 198 0
175 198 0
174 197 0
173 196 0
173 197 0
172 196 0
174 198 0
173 196 0
176 198 0
173 196 0
171 196 0
174 198 0
174 197 0
174 197 0
174 197 0
174 197 0
173 197 0
175 197 0
173 197 0
173 197 0
172 196 0
172 196 0
173 197 0
174 197 0
173 196 0
172 196 0
173 197 0
171 194 0
173 197 0
173 197 0
174 197 0
173 196 0
174 197 0
175 198 0
174 197 0
171 195 0
175 197 0
174 197 0
173 197 0
173 197 0
173 197 0
173 197 0
175 198 0
172 195 0
172 195 0
173 196 0
176 199 0
172 196 0
173 197 0
173 196 0
171 195 0
172 195 0
174 197 0
173 196 0
175 198 0
173 197 0
172 196 0
171 195 0
173 197 0
174 197 0
174 197 0
173 196 0
173 196 0
173 196 0
176 198 0
169 194 0
173 196 0
173 196 0
173 197 0
172 196 0
172 195 0
171 195 0
171 195 0
173 196 0
175 198 0
173 197 0
173 197 0
173 196 0
175 198 0
175 198 0
173 196 0
174 198 0
173 197 0
171 195 0
171 195 0
174 196 0
173 196 0
172 196 0
173 197 0
172 195 0
173 197 0
172 195 0
173 197 0
172 195 0
173 196 0
172 195 0
174 197 0
173 196 0
172 196 0
171 195 0
169 193 0
171 195 0
171 194 0
172 195 0
173 196 0
173 196 0
172 195 0
172 195 0
174 198 0
172 196 0
173 197 0
173 197 0
173 196 0
173 196 0
174 197 0
176 199 0
171 194 0
173 196 0
174 197 0
172 195 0
170 193 0
172 195 0
172 196 0
174 197 0
173 197 0
170 193 0
173 196 0
173 197 0
173 196 0
175 198 0
173 196 0
173 196 0
172 195 0
173 196 0
170 194 0
173 197 0
172 194 0
169 193 25
168 192 47
162 184 67
158 182 76
153 176 92
142 167 111
130 155 125
115 141 144
101 130 156
78 111 171
69 104 176
62 99 181
62 99 181
62 99 180
62 99 181
62 99 181
62 99 180
61 99 180
62 99 181
61 98 181
62 99 180
61 99 181
62 99 181
62 99 181
62 99 181
62 99 181
61 99 181
61 98 181
61 99 181
62 99 181
61 99 180
61 99 181
61 99 181
62 99 181
61 99 181
62 99 181
61 99 181
61 98 180
61 98 179
61 98 180
62 99 181
61 98 180
62 99 181
61 99 181
61 98 180
62 99 181
61 98 181
61 99 181
62 99 181
61 98 178
61 98 179
61 98 179
67 103 177
75 109 174
73 107 171
91 121 162
109 137 148
122 148 134
130 156 123
143 168 108
159 183 75
156 180 82
163 187 57
166 189 44
170 193 31
173 197 0
170 193 0
173 196 0
173 196 0
174 196 0
171 194 0
173 197 0
170 193 0
172 195 0
171 193 0
172 194 0
173 196 0
172 196 0
172 195 0
172 196 0
172 195 0
170 192 0
173 197 0
172 194 0
171 194 0
172 195 0
170 194 0
174 197 0
171 193 0
172 196 0
170 192 11
170 192 11
171 193 11
167 187 19
165 184 32
160 175 37
161 178 30
162 175 50
158 171 42
151 162 45
157 168 55
148 156 57
149 155 63
145 152 52
149 150 71
140 141 68
139 137 72
149 148 80
145 139 82
142 137 80
149 144 87
143 138 80
143 139 84
140 136 81
133 130 79
147 142 89
156 151 95
148 143 92
159 154 97
156 151 98
154 149 96
151 147 93
154 150 95
149 145 96
144 141 93
148 143 94
154 151 99
149 145 96
152 149 98
155 151 101
149 146 97
155 152 101
161 157 104
163 160 104
161 157 102
155 152 101
157 154 103
162 158 105
166 162 107
164 160 106
168 163 108
154 152 101
158 155 104
163 160 106
165 162 108
166 164 109
166 163 109
164 161 108
161 158 107
164 162 108
164 162 109
165 163 109
162 159 107
161 158 105
161 160 108
165 163 109
163 160 108
165 162 108
167 165 110
164 161 108
166 163 108
166 163 108
166 164 110
172 168 112
167 164 110
166 163 108
168 166 110
170 167 111
169 167 111
168 165 110
170 168 112
165 163 109
171 167 111
172 170 113
169 166 110
172 169 112
165 163 109
170 167 111
168 164 109
170 166 110
169 166 110
170 167 111
167 164 109
171 169 111
170 167 111
172 168 111
167 164 109
169 165 110
173 169 112
167 164 109
166 163 109
172 169 112
170 167 111
168 165 109
168 165 109
166 163 108
170 167 110
160 157 104
167 163 108
166 163 108
166 164 108
164 160 105
165 160 106
170 165 109
168 164 107
162 158 102
166 162 106
170 166 109
170 165 107
163 160 104
166 161 103
160 156 102
168 163 104
164 160 103
163 159 102
161 155 102
160 156 98
165 159 99
160 155 99
164 159 100
160 156 101
162 157 100
156 152 95
157 152 96
164 158 97
160 155 97
155 149 93
162 157 99
151 146 92
160 154 93
159 152 94
154 148 90
145 141 87
154 149 93
151 144 85
156 150 90
150 144 87
151 145 87
160 158 83
152 152 78
153 154 75
151 155 60
148 153 62
149 161 45
157 169 51
160 175 37
168 184 41
169 186 32
166 187 22
168 189 11
171 192 19
173 196 0
172 195 0
174 198 0
173 196 0
174 198 0
173 196 0
176 198 0
174 197 0
173 196 0
175 198 0
174 198 0
173 197 0
173 197 0
173 196 0
175 198 0
172 196 0
175 198 0
173 197 0
173 197 0
172 196 0
173 196 0
173 197 0
173 197 0
175 198 0
173 196 0
174 197 0
172 195 0
173 197 0
173 197 0
174 197 0
173 197 0
173 197 0
174 197 0
175 198 0
174 197 0
173 196 0
172 196 0
174 197 0
175 198 0
171 195 0
172 196 0
173 197 0
172 196 0
173 197 0
173 196 0
173 197 0
174 197 0
175 198 0
173 197 0
174 197 0
173 197 0
172 196 0
173 197 0
174 197 0
173 196 0
174 198 0
172 195 0
173 197 0
174 196 0
174 197 0
171 195 0
173 197 0
172 197 0
173 196 0
173 196 0
172 196 0
173 197 0
174 197 0
172 196 0
175 198 0
175 198 0
173 196 0
172 196 0
174 198 0
174 197 0
169 192 0
175 198 0
174 198 0
172 196 0
173 196 0
172 196 0
171 196 0
172 195 0
175 198 0
173 196 0
173 197 0
174 197 0
170 194 0
171 194 0
173 196 0
173 196 0
175 198 0
173 196 0
170 194 0
173 197 0
173 197 0
172 196 0
174 197 0
174 197 0
172 195 0
172 195 0
172 195 0
171 194 0
172 196 0
172 196 0
172 196 0
173 197 0
172 196 0
171 195 0
175 198 0
172 196 0
171 194 0
173 195 0
170 194 0
174 197 0
174 197 0
172 195 0
172 196 0
172 196 0
173 197 0
174 197 0
173 197 0
174 196 0
172 195 0
172 195 0
172 195 0
172 196 0
172 196 0
174 197 0
173 197 0
174 197 0
173 196 0
173 196 0
169 193 0
174 197 0
172 196 0
173 196 0
173 195 0
172 195 0
174 197 0
175 198 0
174 197 0
174 197 0
170 194 0
172 196 0
173 196 0
174 197 0
169 192 40
167 191 40
163 186 65
144 169 105
139 164 115
126 152 126
108 136 148
86 117 165
71 106 175
64 100 180
61 98 180
62 99 181
61 99 180
62 99 180
62 99 181
62 99 181
61 98 181
61 98 181
62 99 181
62 99 181
61 99 181
61 99 181
62 99 181
62 99 181
62 99 181
62 99 181
61 99 181
62 99 181
62 99 181
61 99 181
61 98 181
62 99 181
61 99 181
62 99 181
62 99 181
61 98 181
61 98 181
61 98 181
62 99 181
62 99 181
61 99 181
62 99 181
62 99 181
62 99 180
61 99 181
61 98 179
61 99 180
61 98 180
62 99 181
61 98 181
61 98 180
62 99 181
61 98 179
61 98 180
62 99 180
61 98 180
62 99 180
61 98 180
64 100 177
78 111 170
94 123 158
105 133 150
117 143 142
137 162 114
141 166 111
154 178 86
154 177 79
162 185 65
170 194 36
170 193 18
173 196 0
172 194 0
173 196 0
173 196 0
172 195 0
173 197 0
172 195 0
173 196 0
170 194 0
172 195 0
167 190 0
173 196 0
171 194 0
170 194 0
174 196 0
173 196 0
168 191 0
173 195 0
173 196 0
174 197 0
172 196 0
169 191 0
171 194 0
170 190 25
163 182 22
169 188 32
165 184 32
163 181 32
160 176 43
160 176 36
162 176 42
148 156 53
156 165 59
157 165 56
149 153 63
143 147 60
143 142 76
144 144 73
140 138 73
141 136 80
144 139 80
149 144 86
144 139 81
149 144 86
135 131 77
149 144 84
151 146 93
152 147 94
156 151 94
153 148 94
143 139 88
155 151 95
148 144 94
159 154 98
146 143 94
153 149 98
157 153 102
153 150 97
146 143 95
151 147 96
154 150 97
157 155 104
155 152 101
157 154 101
152 149 99
162 158 105
155 153 102
163 160 107
164 160 106
161 158 106
159 156 105
161 158 105
160 157 105
161 158 105
163 159 105
159 158 106
165 162 109
164 160 106
171 167 110
163 159 105
161 159 107
166 163 109
166 162 107
165 162 109
160 158 106
162 160 108
166 163 109
165 162 108
167 165 110
170 168 113
166 164 110
166 163 109
163 161 108
164 162 108
166 163 109
172 168 111
170 168 112
165 163 108
171 167 111
172 168 112
169 166 111
165 163 109
172 168 112
167 165 110
168 165 110
169 166 110
168 165 110
168 165 110
167 164 109
167 165 110
171 167 111
168 165 110
166 163 108
168 165 110
170 167 110
170 167 111
170 166 110
168 164 109
168 165 110
171 168 112
165 162 108
164 161 106
169 166 110
168 165 109
169 165 110
172 168 111
168 164 109
168 164 108
163 161 107
166 163 108
166 163 108
165 161 104
166 162 107
167 164 108
168 165 109
163 160 105
165 162 106
167 162 106
163 158 103
162 158 99
164 159 103
161 158 103
165 160 103
167 162 105
167 162 104
162 158 103
165 159 103
166 161 101
166 161 104
160 157 99
166 162 102
164 159 102
160 156 99
160 154 99
163 157 101
158 152 95
157 152 95
166 160 99
156 150 93
157 151 96
151 146 88
148 143 89
153 148 93
151 146 87
157 152 95
158 152 93
163 157 93
143 139 83
148 144 88
142 137 75
144 141 78
153 150 80
149 149 75
161 162 80
150 154 62
155 165 53
155 165 51
160 171 51
154 167 44
162 178 32
172 192 28
171 191 25
171 193 22
172 194 0
175 198 0
173 196 0
173 197 0
175 198 0
173 196 0
172 196 0
174 197 0
172 196 0
173 196 0
175 198 0
174 197 0
174 197 0
174 198 0
172 196 0
171 195 0
174 197 0
174 197 0
175 198 0
173 196 0
174 197 0
173 197 0
172 196 0
172 196 0
173 196 0
173 197 0
174 198 0
172 195 0
173 196 0
176 198 0
176 198 0
175 198 0
171 195 0
172 196 0
175 198 0
174 197 0
173 197 0
173 197 0
173 196 0
173 197 0
174 197 0
175 198 0
173 197 0
172 196 0
172 195 0
172 195 0
175 198 0
174 197 0
173 196 0
173 197 0
173 195 0
174 197 0
172 196 0
173 197 0
174 198 0
176 198 0
173 196 0
173 197 0
172 195 0
172 196 0
171 194 0
174 197 0
177 199 0
171 195 0
172 196 0
175 198 0
174 197 0
171 195 0
175 198 0
175 198 0
174 197 0
175 198 0
174 198 0
175 198 0
173 196 0
174 197 0
173 197 0
174 197 0
175 198 0
170 193 0
172 195 0
173 197 0
173 197 0
174 198 0
173 197 0
173 196 0
172 196 0
173 196 0
174 198 0
171 194 0
172 195 0
174 197 0
173 196 0
171 195 0
173 196 0
173 196 0
171 194 0
171 195 0
174 197 0
172 196 0
172 195 0
173 197 0
173 196 0
173 197 0
173 197 0
170 193 0
172 195 0
175 198 0
174 198 0
173 196 0
172 195 0
171 195 0
171 195 0
173 196 0
173 196 0
173 197 0
175 198 0
173 196 0
172 195 0
173 197 0
172 196 0
173 197 0
175 198 0
175 198 0
172 195 0
175 198 0
175 198 0
175 198 0
175 198 0
174 197 0
174 196 0
171 195 0
173 196 0
171 195 0
170 193 0
174 196 0
171 195 0
171 195 0
171 195 0
171 195 0
172 195 0
172 195 0
174 197 0
173 196 18
171 195 18
171 195 36
160 184 72
150 174 99
148 172 99
132 157 125
106 133 151
83 115 168
69 104 175
66 102 179
62 99 180
62 99 181
61 98 180
62 99 181
62 99 180
61 98 180
61 98 180
61 99 181
62 99 181
61 99 181
62 99 181
62 99 180
62 99 181
62 99 181
61 98 181
61 98 181
61 99 181
61 98 181
62 99 181
61 99 181
61 98 181
61 99 181
61 99 181
62 99 181
61 99 181
62 99 181
61 99 181
61 99 181
62 99 181
61 99 181
62 99 181
61 99 181
61 99 181
61 99 181
62 99 181
61 99 181
62 99 181
61 99 181
61 99 181
62 99 181
61 99 181
61 99 181
61 98 181
62 99 181
62 99 181
61 98 180
62 99 179
61 99 180
62 99 179
61 98 180
62 99 178
62 99 181
62 99 180
62 99 181
63 100 179
67 102 173
77 110 168
105 133 150
119 145 139
141 166 108
145 168 103
151 176 85
161 184 67
164 187 47
169 192 18
172 195 0
171 193 0
169 193 0
170 192 0
173 195 0
172 195 0
171 195 0
174 196 0
170 195 0
171 194 0
170 194 0
170 194 0
171 194 0
173 197 0
174 196 0
172 194 0
172 194 0
172 195 0
171 193 0
170 192 0
171 193 0
169 188 32
169 190 19
175 194 32
163 180 37
166 182 37
161 178 37
150 161 47
156 169 41
153 162 51
147 154 49
147 153 57
148 152 64
151 155 69
150 151 68
148 146 76
140 138 73
136 132 71
138 133 77
139 134 83
139 134 79
146 141 87
137 133 84
146 142 91
149 144 92
139 135 82
143 138 85
152 146 91
154 150 99
156 152 98
144 140 91
152 148 97
152 149 98
154 150 99
156 152 100
148 145 95
152 149 97
158 154 100
157 154 103
155 152 100
155 152 98
144 143 97
151 149 97
158 155 103
161 158 105
155 152 100
160 158 107
152 149 100
157 155 104
161 157 105
160 156 104
157 155 105
163 159 104
162 158 104
157 155 104
167 164 108
166 163 108
165 161 107
162 159 107
161 158 106
166 164 109
161 159 107
169 165 110
168 164 110
155 152 103
161 159 107
163 161 108
165 162 108
166 163 109
165 163 109
165 162 108
165 163 109
170 167 112
169 166 111
170 167 112
159 157 106
165 163 110
168 166 111
172 169 113
171 167 110
166 163 109
169 166 111
167 165 109
169 166 110
168 166 111
171 169 112
170 167 111
168 166 111
165 162 108
164 162 108
167 165 109
170 167 112
169 167 110
170 166 110
169 166 110
172 167 110
170 167 109
167 164 109
170 166 110
169 164 108
171 166 110
169 167 110
160 158 104
164 161 108
173 168 110
172 168 112
171 167 110
167 163 108
171 167 110
160 156 101
171 168 111
166 162 108
168 165 109
170 165 108
168 163 104
164 160 105
164 161 104
153 149 96
162 157 102
167 163 107
162 157 103
165 161 103
157 153 98
165 161 104
165 161 104
165 160 102
165 160 101
166 161 104
163 159 103
163 158 102
159 155 100
164 159 100
156 151 95
161 157 101
155 150 97
160 155 97
160 155 95
158 152 96
154 150 93
158 152 97
151 145 90
156 151 91
153 148 87
145 139 86
150 145 85
153 147 90
153 147 84
139 134 79
144 140 78
145 142 77
153 152 75
142 141 70
158 161 68
148 155 62
153 160 56
155 168 49
161 173 47
166 181 41
159 175 41
173 192 30
171 193 19
172 195 0
173 197 11
173 196 0
173 196 0
174 197 0
175 198 0
173 196 0
172 196 0
173 197 0
174 197 0
173 196 0
173 197 0
175 197 0
172 195 0
172 196 0
173 197 0
173 197 0
174 197 0
173 196 0
172 196 0
171 195 0
175 198 0
173 196 0
173 197 0
173 197 0
172 196 0
173 197 0
173 196 0
170 194 0
173 197 0
175 198 0
174 197 0
175 198 0
173 196 0
173 196 0
174 197 0
174 197 0
173 196 0
173 197 0
174 197 0
174 197 0
174 197 0
175 198 0
172 195 0
175 198 0
171 195 0
174 197 0
173 197 0
174 197 0
175 198 0
174 198 0
175 198 0
173 196 0
173 197 0
174 197 0
172 195 0
171 194 0
173 197 0
174 197 0
172 195 0
172 196 0
174 197 0
174 197 0
172 196 0
174 197 0
174 197 0
173 197 0
174 197 0
174 197 0
170 194 0
172 196 0
172 195 0
173 197 0
172 196 0
174 198 0
173 196 0
174 198 0
173 197 0
174 197 0
171 195 0
171 195 0
172 196 0
173 196 0
173 197 0
172 196 0
171 195 0
173 197 0
173 197 0
174 197 0
173 197 0
173 197 0
173 196 0
174 198 0
171 194 0
174 197 0
173 197 0
173 195 0
172 196 0
173 197 0
173 197 0
174 197 0
173 197 0
172 195 0
173 197 0
173 196 0
171 194 0
173 196 0
171 194 0
173 196 0
173 195 0
173 196 0
175 198 0
175 198 0
171 194 0
171 194 0
174 197 0
174 197 0
172 196 0
172 196 0
172 196 0
174 196 0
176 199 0
173 196 0
175 198 0
171 195 0
174 198 0
176 198 0
172 195 0
175 197 0
172 195 0
172 196 0
172 196 0
173 197 0
175 197 0
171 195 0
173 196 0
172 195 0
171 195 0
173 197 0
173 197 0
173 197 0
172 196 0
173 196 25
166 189 54
163 186 67
148 172 102
136 161 118
120 147 140
90 120 164
78 111 171
67 103 177
62 99 179
61 98 181
62 99 181
61 99 179
61 99 180
62 99 180
62 99 181
61 99 181
62 99 181
62 99 181
61 98 180
61 99 181
61 99 181
62 99 181
61 99 181
62 99 181
62 99 181
61 99 181
61 99 181
61 99 181
61 98 181
61 99 181
62 99 181
61 98 181
62 99 181
62 99 181
61 99 181
61 98 181
61 98 181
62 99 181
61 99 181
61 98 181
62 99 181
61 99 181
62 99 181
61 99 181
61 98 181
62 99 181
61 99 181
62 99 181
61 99 181
61 98 181
62 99 180
62 99 181
61 99 181
61 98 180
61 99 181
62 99 181
61 98 180
62 99 181
61 98 180
62 99 180
61 98 179
62 99 180
62 99 181
62 98 179
61 98 180
62 99 180
61 98 180
62 98 177
66 102 179
65 101 176
83 114 168
110 136 145
129 154 129
140 165 114
155 180 85
160 185 65
163 187 60
173 197 0
172 195 0
172 194 0
171 194 0
174 196 0
173 196 0
171 196 0
171 195 0
174 197 0
172 196 0
173 195 0
171 194 0
170 193 0
172 196 0
174 196 0
171 194 0
171 194 0
171 194 0
173 195 0
170 191 11
169 189 19
169 189 30
160 178 28
169 187 36
166 181 42
159 174 42
154 165 45
169 178 62
155 160 58
155 161 64
151 158 57
156 156 68
146 148 68
138 138 71
143 144 68
148 143 80
145 141 84
150 144 88
145 140 88
144 139 85
148 142 86
140 136 86
144 140 90
151 146 94
148 144 92
144 139 88
145 141 89
152 148 96
148 145 91
144 141 88
149 144 93
151 148 96
151 148 97
154 149 97
153 150 97
149 146 95
161 157 101
156 152 101
151 148 96
162 159 105
151 148 98
153 151 99
159 155 103
154 151 101
154 151 102
163 158 104
161 158 106
152 149 98
159 157 105
156 153 102
156 154 103
157 155 104
165 162 108
160 157 106
155 153 103
166 163 109
168 164 109
162 160 108
164 161 108
165 162 108
166 162 108
165 162 108
170 167 111
164 162 108
158 157 105
165 163 109
169 167 111
161 159 107
160 158 106
163 161 108
167 164 109
169 167 112
170 166 110
165 162 108
169 166 111
167 164 109
166 164 110
169 167 111
166 163 108
165 162 109
170 167 111
170 167 110
174 171 114
169 167 111
165 162 108
171 168 111
173 168 111
173 169 112
173 169 112
171 168 112
173 170 113
169 166 110
172 169 112
169 166 110
172 169 113
167 164 109
170 167 109
170 166 110
171 168 110
169 165 110
167 164 108
166 163 108
165 163 109
167 164 109
170 166 109
170 166 110
166 162 106
171 167 109
166 164 108
166 163 108
169 165 108
173 168 110
165 161 106
166 163 108
170 166 108
163 159 104
163 159 103
164 160 103
160 157 102
161 157 102
160 155 100
170 166 109
166 161 103
165 160 103
156 151 97
168 162 104
164 159 100
169 164 103
161 157 101
167 161 104
164 160 102
156 152 95
165 158 99
158 153 95
163 158 99
158 152 95
159 153 93
155 150 94
159 153 96
154 148 92
149 144 89
149 142 83
156 151 92
160 154 94
144 139 80
144 138 81
139 134 80
148 143 82
142 137 77
146 143 75
150 149 72
152 155 65
153 158 66
156 163 57
165 174 57
162 177 41
162 176 48
162 179 32
167 185 37
172 193 19
164 184 16
173 195 16
175 198 0
175 198 0
174 197 0
170 193 0
174 197 0
174 197 0
173 196 0
172 196 0
173 196 0
174 197 0
175 198 0
171 195 0
174 197 0
175 198 0
174 197 0
172 196 0
174 197 0
175 198 0
173 197 0
174 196 0
174 197 0
175 198 0
173 197 0
173 197 0
172 195 0
174 197 0
173 196 0
174 198 0
173 197 0
173 197 0
171 195 0
173 196 0
173 197 0
173 196 0
171 196 0
173 197 0
170 194 0
174 197 0
171 195 0
172 196 0
170 195 0
172 195 0
173 197 0
172 196 0
174 198 0
174 197 0
172 196 0
174 197 0
173 196 0
172 196 0
174 197 0
175 198 0
174 197 0
171 195 0
170 194 0
172 195 0
172 196 0
173 196 0
173 196 0
171 194 0
172 196 0
171 195 0
172 196 0
173 196 0
174 196 0
173 196 0
172 195 0
172 196 0
173 196 0
173 196 0
172 196 0
172 196 0
172 196 0
172 196 0
175 197 0
172 195 0
175 198 0
174 197 0
173 196 0
173 196 0
173 197 0
172 195 0
175 198 0
172 195 0
170 193 0
174 198 0
171 195 0
174 197 0
172 195 0
174 197 0
175 198 0
171 194 0
173 197 0
172 196 0
173 196 0
172 195 0
176 199 0
173 197 0
173 197 0
173 197 0
173 197 0
171 195 0
172 196 0
173 196 0
173 196 0
173 196 0
175 197 0
174 197 0
176 198 0
174 198 0
171 194 0
174 197 0
172 196 0
169 193 0
173 196 0
171 194 0
173 197 0
173 196 0
174 197 0
175 198 0
174 197 0
174 197 0
171 193 0
173 196 0
175 197 0
173 196 0
173 195 0
173 196 0
173 196 0
171 195 0
173 197 0
174 197 0
172 195 0
172 196 0
172 195 0
174 196 0
174 198 0
174 198 0
171 194 31
169 193 40
157 182 78
140 165 110
125 151 130
104 132 155
79 112 172
70 105 177
62 99 179
62 99 179
61 98 179
62 99 180
62 99 181
62 99 181
62 99 181
62 99 180
61 99 181
62 99 181
62 99 180
62 99 181
61 99 181
62 99 180
62 99 181
61 99 181
62 99 181
62 99 181
62 99 181
62 99 181
61 98 181
61 98 181
61 98 181
61 99 181
61 98 181
61 99 181
61 98 181
62 99 181
61 98 181
61 98 181
61 99 181
62 99 181
61 99 181
61 99 181
61 99 181
61 99 181
61 98 181
62 99 181
62 99 181
61 98 181
61 99 181
61 99 181
61 98 180
62 99 181
61 98 181
61 98 180
61 99 181
61 99 181
61 98 181
61 98 181
61 99 181
62 99 179
62 99 181
62 99 181
62 99 180
61 99 181
62 99 181
62 98 178
62 99 179
61 97 176
62 99 181
61 98 179
61 98 178
62 98 177
61 98 180
62 99 179
76 109 172
83 114 168
112 139 147
118 144 141
137 163 114
149 173 97
157 180 73
165 189 54
170 192 18
170 193 0
172 196 0
173 196 0
173 196 0
172 195 0
172 195 0
173 196 0
171 195 0
172 194 0
169 191 0
170 194 0
172 194 0
173 196 0
173 195 0
171 194 11
171 194 0
171 193 11
168 187 25
161 178 34
164 181 37
158 173 35
159 174 34
163 176 48
156 170 37
156 165 58
158 165 60
151 160 53
159 164 69
142 141 72
148 146 76
149 147 80
144 141 75
148 144 84
144 139 81
147 141 86
143 137 82
149 145 89
149 144 88
144 140 88
141 137 85
149 144 91
147 143 92
151 147 94
153 148 92
151 147 94
150 147 94
154 150 97
150 147 97
152 148 96
151 148 94
142 139 91
150 146 94
150 146 94
151 147 97
157 153 99
156 152 101
156 153 100
163 159 105
155 153 102
155 153 102
162 159 107
159 156 105
153 150 100
159 156 105
158 155 103
164 160 105
162 159 106
164 162 108
164 161 107
159 156 104
165 162 108
157 155 104
160 158 107
167 163 109
164 161 108
162 158 106
165 163 109
163 161 107
170 166 110
164 161 108
165 162 107
165 162 108
167 165 110
171 168 112
166 164 110
164 162 109
166 164 110
170 167 111
165 163 109
166 163 109
172 169 113
165 163 109
170 167 111
166 164 109
171 168 112
165 163 108
168 165 110
170 167 111
170 167 111
163 160 106
171 168 112
173 169 112
172 169 112
170 167 110
172 169 112
172 169 113
169 166 110
168 165 108
173 169 112
168 166 110
169 166 110
174 170 112
175 170 112
169 165 108
173 169 112
167 163 108
171 168 110
170 167 110
166 163 108
163 160 106
170 167 110
170 166 110
167 165 109
173 170 110
168 164 109
168 164 106
169 164 108
170 166 109
163 160 105
166 162 105
167 164 106
164 159 103
164 161 106
170 166 106
162 157 101
169 164 107
160 156 99
165 161 104
166 160 104
173 168 106
169 163 104
169 164 106
166 161 103
169 164 103
159 155 98
167 161 103
158 153 95
164 159 97
161 155 97
168 162 104
163 158 98
164 159 99
162 157 97
150 144 84
154 149 95
151 145 87
148 143 90
162 156 95
155 149 93
158 153 94
154 149 88
148 143 84
141 135 80
152 146 87
138 132 77
143 137 80
140 139 68
150 147 80
146 144 73
152 154 70
150 160 49
150 159 49
158 170 49
165 180 48
161 179 34
166 183 36
164 185 16
169 190 16
174 197 11
172 196 0
173 196 0
175 198 0
173 196 0
173 196 0
170 195 0
174 197 0
175 198 0
173 196 0
173 197 0
173 197 0
173 197 0
174 197 0
173 197 0
172 196 0
174 197 0
175 198 0
173 197 0
174 198 0
171 194 0
174 197 0
174 197 0
173 197 0
174 197 0
175 198 0
173 196 0
172 196 0
174 198 0
175 198 0
173 196 0
173 197 0
174 197 0
174 198 0
175 198 0
173 197 0
174 198 0
174 197 0
174 197 0
172 196 0
172 196 0
172 196 0
172 196 0
174 197 0
172 196 0
173 196 0
175 198 0
173 196 0
173 196 0
174 197 0
173 197 0
174 197 0
172 195 0
170 194 0
174 196 0
174 197 0
174 198 0
174 197 0
173 197 0
175 198 0
172 195 0
173 197 0
175 197 0
173 197 0
173 196 0
173 196 0
173 196 0
172 195 0
169 193 0
169 193 0
175 197 0
172 195 0
173 195 0
172 196 0
173 197 0
174 197 0
172 195 0
173 197 0
175 198 0
174 197 0
173 197 0
173 196 0
174 197 0
174 197 0
173 196 0
175 198 0
174 198 0
173 196 0
174 197 0
173 196 0
173 197 0
173 197 0
173 197 0
173 197 0
173 197 0
172 195 0
172 196 0
172 195 0
174 197 0
175 198 0
172 196 0
173 197 0
173 196 0
173 197 0
174 197 0
171 194 0
174 197 0
175 197 0
174 198 0
173 196 0
175 196 0
173 196 0
172 195 0
175 198 0
171 194 0
170 193 0
171 194 0
173 196 0
174 198 0
173 196 0
172 196 0
173 196 0
175 198 0
171 194 0
173 196 0
172 196 0
173 196 0
172 195 0
173 196 0
172 195 0
172 196 0
174 196 0
172 196 0
171 195 0
172 195 0
173 196 0
173 197 0
170 193 36
168 190 47
153 178 86
142 166 114
123 149 134
99 128 153
86 118 166
65 101 178
62 99 180
62 99 181
62 99 180
61 99 180
62 99 181
62 99 181
62 99 181
61 98 181
61 99 181
61 99 181
62 99 181
62 99 181
62 99 181
62 99 180
62 99 181
61 99 181
62 99 181
62 99 181
62 99 181
61 99 181
61 98 181
62 99 181
61 98 181
61 98 181
62 99 181
62 99 181
61 99 181
61 98 181
61 99 181
62 99 181
62 99 181
62 99 181
62 99 181
61 98 181
61 99 181
61 98 181
62 99 181
61 99 181
61 98 181
61 99 181
61 99 181
61 99 181
60 98 181
61 98 181
61 99 181
61 99 181
62 99 181
61 99 181
62 99 181
61 99 181
61 99 181
62 99 181
61 98 180
62 99 181
61 98 180
62 99 181
61 99 181
61 98 179
62 99 181
62 99 181
61 98 178
61 99 181
61 99 180
62 99 180
61 99 180
62 99 180
61 98 178
61 98 177
62 99 178
62 98 178
64 100 176
77 110 171
97 126 154
126 151 126
133 159 120
148 171 94
156 180 75
168 191 47
172 195 18
170 193 0
171 193 0
172 195 0
172 194 0
175 197 0
169 192 0
171 193 0
173 195 0
173 196 0
174 197 0
172 195 0
174 196 0
174 197 11
173 194 19
168 189 19
170 190 19
164 184 28
165 184 19
155 168 44
164 178 39
159 174 40
155 165 54
149 157 54
151 159 58
151 156 67
141 144 64
139 138 66
152 153 73
142 140 73
132 128 68
134 130 78
134 130 78
148 143 86
127 124 70
142 138 83
149 145 90
148 143 85
141 137 85
152 148 95
140 136 88
147 143 87
147 143 92
144 140 89
150 147 97
152 149 95
160 156 102
155 150 99
146 143 96
150 146 96
160 157 103
158 154 101
156 153 102
156 153 101
144 143 96
157 154 103
156 154 103
158 155 104
150 147 98
158 155 101
150 147 99
154 152 102
157 154 102
154 152 103
157 155 104
157 155 105
156 153 103
166 162 108
153 150 102
158 155 104
162 159 107
157 155 104
168 164 109
164 161 108
166 163 109
162 159 107
159 157 105
157 156 107
159 156 105
159 156 104
168 166 111
167 164 109
167 164 110
166 163 109
165 163 108
166 163 109
167 164 109
163 160 107
165 163 108
170 167 111
167 164 109
167 165 109
168 165 110
165 162 108
166 163 109
174 170 113
167 165 110
165 162 107
173 169 112
170 166 110
169 166 110
169 166 110
172 168 111
168 165 109
169 166 110
170 166 110
171 167 111
169 166 109
172 169 111
170 166 110
169 166 110
168 165 109
170 166 110
166 163 108
169 165 108
175 170 112
171 166 108
174 170 112
169 164 108
173 168 109
168 165 109
164 160 106
169 165 108
166 163 108
167 164 106
170 165 109
173 168 108
166 162 104
168 164 108
165 161 105
167 162 106
168 164 108
163 159 104
165 161 106
164 160 102
166 162 102
163 159 102
168 163 104
167 162 104
161 156 103
163 158 100
166 161 100
167 162 102
166 161 104
170 164 101
157 152 94
162 157 100
155 149 93
152 148 94
166 160 101
159 154 95
157 152 96
162 157 99
157 151 94
154 149 87
157 151 94
158 153 92
154 148 91
152 146 89
159 153 90
153 147 89
148 143 85
144 139 80
137 133 74
144 138 80
147 142 80
149 147 70
152 154 73
146 148 65
149 154 58
153 164 48
151 162 48
158 173 32
159 173 37
162 180 28
166 188 25
172 192 30
171 193 19
173 196 11
174 197 0
174 198 0
175 198 0
174 198 0
170 195 0
173 196 0
173 197 0
174 197 0
172 196 0
172 197 0
176 199 0
174 198 0
173 197 0
173 196 0
173 197 0
174 198 0
172 196 0
175 197 0
173 196 0
173 196 0
173 196 0
175 198 0
174 197 0
172 195 0
173 197 0
172 196 0
172 195 0
174 197 0
175 198 0
174 197 0
172 196 0
174 198 0
174 197 0
174 197 0
173 197 0
173 196 0
174 198 0
175 198 0
173 197 0
174 197 0
175 198 0
174 197 0
175 198 0
174 197 0
173 197 0
173 196 0
174 197 0
173 197 0
173 197 0
172 197 0
174 197 0
174 198 0
173 197 0
174 196 0
174 197 0
173 196 0
174 198 0
171 195 0
173 197 0
172 196 0
174 197 0
174 196 0
175 197 0
173 196 0
174 197 0
173 197 0
175 198 0
173 197 0
174 197 0
172 195 0
173 196 0
172 195 0
174 197 0
172 195 0
173 197 0
173 196 0
174 197 0
174 197 0
173 197 0
176 198 0
174 198 0
173 196 0
173 197 0
174 197 0
170 193 0
176 199 0
169 193 0
172 196 0
174 198 0
174 197 0
174 198 0
173 196 0
174 198 0
175 197 0
173 197 0
172 196 0
173 197 0
172 195 0
173 196 0
173 197 0
174 197 0
174 197 0
171 194 0
173 196 0
173 196 0
173 196 0
172 195 0
173 197 0
172 196 0
174 198 0
173 196 0
172 196 0
174 197 0
172 196 0
174 196 0
172 194 0
172 195 0
173 195 0
174 198 0
175 198 0
174 197 0
174 197 0
174 198 0
172 195 0
172 196 0
174 197 0
172 196 0
171 195 0
173 195 0
173 196 0
173 196 0
172 195 0
172 195 0
171 195 25
167 190 51
156 179 76
133 159 122
115 142 140
103 132 152
75 108 171
62 99 180
62 99 179
62 99 181
61 99 180
61 98 177
61 99 180
62 99 181
61 98 181
62 99 181
61 99 180
62 99 181
61 99 181
61 99 181
61 99 181
62 99 181
62 99 181
62 99 181
62 99 181
61 99 181
62 99 181
61 98 181
62 99 181
61 99 181
62 99 181
61 98 181
61 99 181
61 99 181
61 99 181
61 99 181
62 99 181
62 99 181
61 99 181
61 98 181
61 99 181
61 99 181
61 98 181
61 98 181
62 99 181
61 98 181
61 98 181
62 99 181
62 99 181
62 99 181
61 98 181
61 99 181
62 99 181
61 99 181
61 99 181
61 99 181
62 99 181
61 98 180
61 99 181
62 99 181
62 99 181
62 99 181
61 99 181
62 99 181
61 99 181
62 99 181
62 99 181
61 99 181
61 98 181
61 98 180
61 98 178
61 98 180
62 99 180
62 99 179
62 99 181
62 99 180
62 99 178
61 98 179
61 98 177
62 99 178
62 99 179
61 98 179
64 99 176
73 107 172
93 123 161
124 150 133
127 152 122
147 171 94
160 184 67
167 190 47
173 195 0
173 196 0
173 196 0
173 197 0
171 194 0
171 194 0
171 195 0
171 194 0
172 195 0
172 195 0
172 194 0
168 191 0
170 191 11
167 186 25
166 185 25
166 185 30
163 180 28
159 175 37
158 169 47
163 172 56
150 165 32
148 156 53
145 150 65
155 156 68
145 146 66
135 136 62
140 140 71
144 141 75
143 139 82
138 134 76
140 136 83
146 142 89
143 139 84
141 137 84
143 139 87
145 140 89
140 136 86
138 134 85
153 149 95
143 141 92
148 144 90
144 140 92
147 143 91
151 147 96
149 146 96
146 145 97
153 150 100
151 148 96
150 148 98
150 148 97
156 152 99
148 146 96
152 149 99
145 143 95
155 152 100
159 156 105
152 149 100
151 148 99
154 151 102
159 156 103
148 146 97
159 156 103
164 160 106
155 152 102
158 155 104
163 161 108
165 162 108
166 163 109
154 153 103
156 154 104
165 161 107
168 165 111
166 163 109
168 165 110
170 166 110
158 157 106
166 164 110
160 158 108
170 167 111
168 165 109
164 161 107
167 164 110
167 165 110
166 163 109
163 160 107
165 163 109
171 167 111
170 167 111
174 170 112
172 168 111
170 167 111
169 166 110
167 165 110
171 168 112
169 166 111
169 166 111
169 165 109
172 169 112
166 164 108
176 172 114
172 169 113
168 164 109
171 168 112
171 167 110
172 169 112
172 169 112
172 169 111
170 167 111
171 167 110
171 167 109
171 167 110
172 168 110
172 168 111
171 168 110
172 168 110
169 166 110
173 168 110
172 168 110
167 164 109
173 169 112
172 168 110
168 165 108
171 166 109
169 164 108
171 167 110
171 166 108
168 164 106
169 165 106
169 166 108
168 164 107
175 170 109
165 161 105
169 165 106
170 166 108
162 158 102
167 162 104
165 161 101
166 161 102
163 159 103
166 161 103
164 160 101
162 157 99
164 159 102
162 158 98
161 155 97
164 159 101
170 164 104
159 153 96
158 153 94
157 151 93
158 152 90
160 154 95
167 161 101
160 155 93
156 150 89
155 150 90
157 151 95
155 149 92
144 138 84
155 149 90
152 146 88
156 149 85
141 135 77
146 141 75
146 144 71
153 152 71
147 147 64
146 149 64
152 158 63
160 169 54
155 168 48
154 168 37
158 176 30
168 186 34
169 189 19
166 188 16
172 194 0
172 196 0
173 196 0
174 198 0
174 197 0
175 198 0
173 196 0
173 197 0
175 197 0
170 193 0
172 196 0
174 197 0
173 197 0
173 196 0
175 197 0
174 197 0
175 198 0
173 197 0
175 198 0
172 196 0
172 195 0
172 195 0
173 197 0
173 196 0
170 195 0
173 196 0
173 196 0
174 197 0
173 196 0
173 196 0
176 198 0
175 197 0
174 197 0
174 198 0
172 196 0
171 195 0
173 196 0
176 199 0
173 196 0
175 198 0
174 198 0
175 197 0
173 196 0
173 197 0
173 196 0
174 197 0
173 196 0
173 197 0
174 197 0
173 196 0
173 197 0
175 198 0
173 196 0
173 197 0
172 196 0
173 197 0
173 197 0
172 195 0
174 197 0
173 197 0
173 196 0
172 196 0
175 198 0
172 196 0
175 198 0
175 198 0
173 196 0
173 196 0
174 197 0
172 195 0
173 197 0
172 196 0
174 197 0
173 196 0
173 196 0
172 196 0
172 196 0
173 196 0
173 197 0
173 197 0
173 196 0
172 195 0
174 198 0
172 196 0
175 198 0
174 197 0
171 195 0
173 196 0
174 197 0
171 194 0
174 197 0
173 196 0
173 196 0
169 192 0
171 195 0
172 196 0
170 194 0
172 196 0
175 198 0
172 195 0
175 197 0
174 197 0
173 196 0
171 194 0
167 190 0
171 195 0
174 198 0
175 198 0
170 194 0
173 196 0
171 195 0
171 196 0
172 196 0
172 195 0
171 194 0
173 197 0
173 196 0
172 195 0
174 198 0
172 196 0
175 197 0
172 196 0
173 196 0
171 195 0
172 195 0
173 197 0
173 196 0
170 193 0
171 195 0
172 196 0
174 198 0
171 195 0
172 196 0
168 191 47
168 191 47
146 171 95
111 138 144
101 129 155
79 111 169
62 99 181
62 99 180
62 99 178
62 99 180
61 99 180
62 99 179
62 99 180
62 99 181
62 99 178
62 99 179
62 99 181
62 99 181
61 99 181
62 99 181
61 98 181
61 99 180
62 99 181
61 99 181
61 99 181
62 99 181
62 99 181
62 99 181
61 99 181
61 99 181
61 98 181
62 99 181
61 98 181
62 99 181
61 99 181
62 99 181
61 99 181
62 99 181
61 99 181
62 99 181
61 98 181
61 98 181
61 98 181
61 98 181
61 99 181
60 98 181
62 99 181
61 98 181
61 99 181
62 99 181
62 99 181
61 99 181
61 98 181
61 99 181
62 99 181
61 99 181
62 99 181
61 99 181
62 99 181
61 99 181
61 99 181
61 98 179
61 99 181
62 99 181
62 99 181
61 99 180
61 98 179
61 99 180
61 99 180
62 99 179
62 99 180
62 99 180
62 99 181
62 99 181
61 99 181
61 98 179
61 98 179
61 98 178
61 98 177
61 99 180
61 98 178
62 99 180
62 98 177
61 98 178
62 98 176
64 100 178
70 104 174
97 126 158
110 136 141
145 169 103
150 175 90
159 183 72
168 190 36
172 195 0
171 194 0
171 193 0
172 195 0
170 194 0
173 196 0
173 196 0
171 194 0
173 196 0
170 192 19
169 191 16
166 187 22
162 179 28
168 185 36
160 176 30
160 175 45
156 168 49
161 170 56
156 166 53
155 160 63
153 161 57
148 151 67
145 149 64
155 151 77
144 141 72
134 131 73
144 139 75
141 137 81
143 138 82
124 120 75
140 136 83
152 147 87
147 143 89
139 134 88
154 150 95
148 144 91
136 133 83
148 143 93
141 138 88
148 145 95
155 151 97
144 141 92
144 142 93
149 147 97
142 140 93
148 145 96
153 150 99
152 149 99
150 148 99
146 144 94
155 152 100
160 156 104
159 157 102
153 150 99
143 143 97
160 157 105
158 155 103
156 153 102
154 152 103
156 154 105
150 148 101
158 156 105
156 154 104
161 158 106
158 156 105
163 159 105
162 159 107
164 160 107
160 157 106
163 160 108
161 158 105
160 158 106
158 155 105
167 164 110
161 159 107
166 163 109
163 161 108
162 159 107
171 167 110
164 161 107
168 166 111
169 167 112
168 165 110
167 164 109
164 162 109
167 165 110
167 165 110
168 165 110
166 163 108
168 165 109
167 164 109
168 165 110
167 165 110
166 164 108
169 166 110
167 163 108
173 170 113
172 169 112
171 168 112
170 168 112
171 168 111
171 168 112
172 169 111
172 168 112
167 164 108
167 164 108
174 170 113
173 169 110
171 169 112
175 170 112
168 165 108
176 171 112
169 165 109
169 165 107
166 162 106
169 165 108
169 166 109
166 163 108
167 164 108
171 167 108
171 166 108
168 165 107
171 167 108
170 166 109
167 163 106
169 164 106
168 164 108
168 163 105
173 167 109
171 167 108
165 162 105
170 165 106
164 159 101
170 166 108
161 157 99
158 153 97
162 157 98
157 153 95
164 159 103
169 163 101
164 159 99
157 152 93
156 152 97
161 156 97
166 160 100
158 153 94
160 155 97
162 156 97
155 149 90
157 151 91
160 155 94
159 152 93
157 152 95
154 149 87
155 149 90
156 151 92
152 146 87
159 153 90
154 148 90
153 146 84
144 139 79
142 137 77
145 141 77
142 139 72
151 153 71
158 161 66
150 158 49
158 167 54
155 170 37
164 178 42
166 179 45
166 185 25
166 184 32
171 191 19
171 193 11
172 195 0
173 197 0
173 197 0
172 195 0
172 196 0
174 198 0
172 196 0
172 196 0
174 197 0
175 198 0
174 198 0
172 196 0
174 197 0
173 197 0
175 198 0
175 198 0
174 197 0
171 195 0
173 197 0
172 196 0
174 198 0
174 197 0
173 197 0
173 197 0
173 196 0
174 198 0
172 196 0
175 198 0
174 197 0
173 196 0
173 196 0
172 196 0
174 197 0
174 196 0
175 198 0
173 197 0
174 198 0
173 195 0
174 197 0
173 196 0
175 198 0
174 197 0
172 195 0
173 196 0
173 197 0
174 197 0
173 197 0
172 196 0
173 197 0
173 196 0
174 198 0
173 197 0
173 196 0
173 196 0
174 197 0
173 197 0
174 198 0
172 197 0
173 197 0
173 196 0
174 197 0
173 197 0
173 196 0
172 196 0
175 198 0
172 196 0
173 196 0
175 198 0
175 197 0
173 197 0
172 195 0
173 196 0
170 194 0
171 194 0
172 197 0
173 197 0
172 195 0
171 195 0
174 197 0
171 195 0
175 197 0
172 195 0
174 196 0
173 196 0
174 196 0
173 197 0
173 196 0
173 196 0
174 197 0
173 196 0
172 194 0
172 196 0
173 196 0
171 195 0
171 195 0
173 196 0
171 196 0
172 195 0
172 196 0
172 196 0
173 196 0
173 196 0
171 194 0
175 198 0
170 194 0
173 196 0
169 192 0
172 195 0
173 196 0
174 196 0
170 193 0
172 195 0
174 197 0
174 197 0
173 197 0
171 194 0
175 198 0
172 196 0
173 197 0
173 196 0
173 196 0
174 198 0
173 196 0
174 197 0
172 195 0
173 197 0
172 195 0
172 196 0
171 194 0
170 194 0
170 194 36
164 187 60
141 165 102
128 154 122
104 132 153
81 112 164
62 99 178
62 99 180
62 99 179
62 99 181
62 99 178
61 99 177
61 99 180
62 99 179
61 99 181
62 99 180
61 98 180
61 99 181
62 99 181
62 99 179
62 99 181
62 99 181
61 99 180
61 99 181
62 99 181
62 99 181
62 99 181
62 99 181
61 98 181
62 99 181
61 99 181
61 98 181
61 99 181
61 99 181
61 99 181
62 99 181
62 99 181
61 99 181
61 99 181
61 99 181
61 99 181
61 98 181
61 98 181
61 99 181
61 98 181
62 99 181
61 99 181
62 99 181
61 99 181
61 99 181
62 99 181
61 98 181
61 99 181
61 99 181
61 99 181
61 98 181
62 99 181
62 99 181
61 99 181
61 98 181
61 99 181
61 99 181
61 98 181
62 99 180
62 99 181
62 99 181
62 99 181
62 99 181
61 98 181
61 99 181
61 99 180
62 99 181
61 98 179
62 99 181
62 99 181
62 99 180
61 98 179
62 99 179
61 98 179
61 98 179
62 99 180
62 99 178
61 98 180
61 98 175
62 98 178
61 97 175
61 98 177
61 97 174
63 99 178
62 98 178
76 108 164
111 138 146
128 153 125
137 160 110
152 176 92
162 185 54
169 191 31
170 193 18
173 196 0
172 195 0
173 196 0
173 195 0
170 192 0
173 195 0
171 192 28
171 192 25
162 182 16
166 184 22
162 178 34
162 178 32
161 173 43
158 169 48
152 161 51
152 161 48
151 155 60
143 146 58
130 134 51
143 141 76
145 145 74
139 136 73
141 138 74
136 132 77
135 130 77
142 137 81
138 135 77
145 140 86
146 141 88
148 143 92
148 143 89
152 147 93
139 137 90
139 136 84
139 135 87
141 139 91
147 143 90
148 145 93
142 140 91
146 144 93
150 146 96
154 151 98
145 142 94
149 147 96
149 147 100
153 149 98
148 146 97
148 146 99
155 152 103
156 153 102
160 157 104
150 147 98
152 150 100
161 158 106
154 151 103
153 151 103
145 143 96
157 154 103
157 153 102
162 159 107
165 162 108
157 155 103
157 154 104
163 159 107
164 161 107
161 159 107
162 159 106
167 164 109
163 161 108
168 164 110
165 162 108
168 165 110
164 162 108
170 166 110
166 163 109
166 163 108
169 167 111
171 167 111
168 165 110
168 165 110
171 168 112
168 165 111
167 164 109
169 165 109
168 165 110
170 167 111
171 169 112
172 168 111
173 168 111
169 165 110
170 166 110
172 168 110
173 170 113
171 168 112
171 168 111
171 167 111
169 165 109
172 168 110
173 168 111
170 166 109
170 167 110
170 166 110
176 171 112
169 166 108
166 163 109
172 168 110
172 169 112
174 169 110
173 169 112
172 167 110
165 162 107
176 171 111
173 168 110
174 170 110
171 166 109
177 172 112
173 169 110
173 168 109
168 164 107
168 165 105
171 167 109
167 162 105
169 163 106
168 164 107
166 163 107
166 161 104
171 166 106
163 160 106
163 160 101
167 163 104
162 158 101
170 165 105
167 162 102
165 160 101
164 159 100
160 156 97
166 162 102
158 154 97
166 160 97
161 157 99
166 161 99
161 156 98
162 155 97
165 159 100
164 158 98
154 149 90
155 150 88
159 153 92
159 154 90
154 148 89
157 151 92
163 157 95
159 153 90
151 146 86
147 143 80
154 148 86
151 145 84
150 143 84
146 140 78
146 142 78
151 149 80
149 148 75
154 158 67
159 163 68
164 174 53
156 166 57
148 161 39
159 173 39
167 181 42
167 186 22
170 191 16
171 193 0
170 193 0
173 196 0
175 198 0
171 195 0
174 197 0
173 197 0
173 196 0
173 196 0
173 197 0
173 196 0
171 195 0
174 197 0
171 194 0
173 197 0
174 198 0
174 197 0
172 196 0
173 197 0
174 197 0
174 197 0
174 197 0
174 197 0
173 196 0
171 195 0
173 196 0
175 198 0
173 197 0
171 195 0
173 197 0
172 196 0
172 196 0
173 196 0
172 196 0
173 196 0
174 197 0
173 196 0
174 198 0
172 196 0
175 198 0
173 196 0
174 198 0
173 197 0
173 196 0
173 197 0
173 196 0
173 197 0
172 196 0
174 197 0
172 196 0
170 194 0
175 198 0
173 197 0
174 198 0
175 198 0
174 197 0
173 197 0
173 196 0
170 194 0
173 197 0
172 196 0
173 196 0
174 197 0
172 195 0
175 198 0
174 197 0
173 196 0
171 194 0
174 198 0
171 195 0
174 198 0
173 195 0
173 197 0
172 195 0
172 196 0
174 198 0
172 195 0
174 198 0
169 192 0
173 196 0
173 196 0
173 196 0
174 198 0
172 196 0
174 197 0
173 196 0
171 195 0
173 196 0
173 196 0
172 196 0
172 196 0
176 199 0
173 196 0
172 196 0
174 197 0
174 197 0
172 194 0
175 197 0
173 196 0
173 197 0
175 198 0
170 194 0
173 197 0
173 196 0
173 196 0
172 196 0
173 197 0
173 197 0
173 197 0
174 197 0
172 196 0
173 196 0
171 196 0
173 197 0
173 196 0
175 198 0
175 197 0
170 193 0
170 194 0
172 195 0
171 194 0
171 195 0
174 197 0
173 196 0
174 197 0
171 194 0
171 194 0
171 194 0
174 197 0
171 194 25
163 186 62
155 179 78
136 160 114
116 143 143
85 116 167
62 99 179
62 99 180
62 99 179
62 99 180
61 99 179
62 99 179
62 99 181
62 99 179
62 99 181
62 99 181
61 99 181
62 99 180
61 99 180
62 99 181
62 99 181
62 99 181
62 99 181
62 99 181
62 99 179
61 99 181
62 99 181
62 99 181
62 99 181
61 99 181
62 99 181
62 99 181
61 99 181
62 99 181
62 99 181
62 99 181
62 99 181
61 99 181
61 98 181
61 98 181
61 99 181
61 99 181
62 99 181
61 99 181
62 99 181
61 99 181
61 99 181
61 99 181
62 99 181
61 98 181
62 99 181
61 98 181
62 99 181
61 99 181
61 99 181
61 98 181
61 99 181
61 99 181
62 99 181
62 99 181
61 99 181
61 99 181
61 99 181
62 99 181
61 99 181
61 99 181
61 99 180
61 99 181
61 98 181
62 99 181
62 99 181
61 98 180
61 99 181
62 99 180
61 98 179
61 98 178
62 99 180
61 99 180
62 99 180
60 98 179
61 98 179
61 99 179
61 98 178
62 99 179
61 98 179
62 99 179
62 99 179
62 99 180
62 99 180
61 98 175
62 98 175
61 98 176
61 97 174
61 98 176
79 111 168
103 130 148
126 151 118
146 169 99
157 181 80
165 189 47
170 193 36
172 194 0
173 196 0
170 193 0
173 195 0
167 189 0
167 189 16
172 192 19
168 187 16
169 189 25
161 180 25
163 178 42
161 178 37
164 176 48
148 159 44
156 164 53
152 158 60
144 149 62
146 148 69
140 139 74
136 134 68
131 128 76
142 138 83
135 131 75
127 124 78
146 141 86
140 136 81
142 138 86
143 139 88
145 142 89
150 146 89
142 138 85
143 140 87
138 135 87
152 147 94
151 147 95
149 146 95
154 149 97
150 147 97
145 143 95
136 134 88
143 141 95
151 147 96
139 137 93
145 142 95
148 145 97
140 139 95
151 149 100
143 140 95
157 154 103
147 146 99
151 149 99
153 151 102
153 150 101
164 161 108
158 156 105
159 157 105
160 157 106
163 160 106
158 154 104
158 156 106
160 157 106
160 157 106
165 162 108
161 159 108
166 162 108
170 166 110
160 158 106
165 162 108
165 162 108
168 165 110
160 158 105
171 168 112
164 161 108
164 161 107
165 162 107
166 163 108
166 163 109
169 166 109
169 167 111
167 163 108
165 162 108
170 167 111
170 167 111
173 170 113
170 166 110
170 168 111
171 169 112
169 166 109
167 163 108
170 167 109
176 172 114
173 169 111
175 171 113
172 168 110
173 170 112
171 167 109
167 163 107
171 167 110
173 169 112
172 168 111
171 168 112
172 169 112
175 170 112
168 165 109
168 165 110
170 166 109
171 167 109
172 168 109
173 169 110
173 168 110
171 167 110
171 168 110
174 169 110
172 168 109
170 166 109
173 168 109
169 165 106
172 168 110
168 163 106
167 163 106
171 166 108
169 165 106
161 156 99
171 166 109
168 162 104
166 163 107
171 167 108
170 164 104
168 163 106
166 161 103
165 160 100
163 159 103
166 161 102
168 163 104
164 159 102
162 157 100
153 149 94
168 163 103
161 155 95
161 156 98
163 157 97
163 158 96
162 156 95
162 156 95
158 152 93
157 152 93
152 148 90
157 152 93
153 148 90
154 149 87
142 137 81
149 145 88
143 138 84
140 135 80
147 141 81
144 138 84
139 134 75
147 141 80
147 141 79
148 144 80
145 146 72
147 151 60
152 156 64
163 172 62
162 171 60
152 166 42
160 174 47
166 183 37
166 184 30
168 190 16
173 195 11
173 196 0
173 196 0
173 197 0
176 198 0
174 197 0
172 196 0
172 196 0
172 196 0
171 195 0
174 197 0
173 196 0
174 197 0
174 197 0
172 196 0
174 197 0
172 196 0
172 196 0
174 197 0
174 198 0
172 195 0
174 197 0
173 197 0
174 198 0
175 197 0
175 198 0
173 197 0
174 198 0
174 198 0
172 195 0
173 197 0
173 197 0
175 198 0
174 197 0
173 197 0
172 195 0
174 197 0
172 196 0
173 196 0
173 195 0
173 197 0
172 195 0
172 196 0
172 195 0
173 196 0
174 198 0
175 198 0
172 196 0
173 197 0
172 195 0
174 197 0
171 194 0
171 195 0
174 198 0
172 196 0
173 196 0
172 195 0
175 198 0
173 196 0
172 196 0
174 198 0
174 198 0
172 196 0
169 193 0
174 198 0
173 196 0
173 197 0
173 196 0
171 195 0
173 197 0
173 196 0
171 194 0
172 196 0
171 195 0
174 198 0
173 196 0
175 198 0
173 197 0
173 196 0
172 196 0
171 194 0
174 196 0
172 196 0
175 198 0
173 197 0
173 197 0
171 195 0
174 197 0
172 196 0
169 193 0
173 197 0
173 196 0
173 197 0
170 194 0
171 195 0
173 196 0
174 196 0
171 195 0
172 196 0
168 191 0
171 194 0
173 196 0
174 197 0
172 196 0
175 197 0
173 196 0
173 196 0
172 196 0
173 196 0
171 195 0
171 195 0
173 197 0
173 196 0
174 197 0
174 196 0
172 196 0
173 196 0
169 193 0
171 195 0
172 195 0
174 196 0
172 195 0
173 195 0
170 194 0
174 198 0
172 196 0
172 196 0
172 195 0
169 193 40
162 186 65
145 170 100
121 148 135
86 117 164
72 106 175
62 99 179
62 99 181
62 99 178
62 99 180
62 99 177
62 99 181
62 99 180
62 99 181
62 99 181
62 99 181
62 99 179
62 99 180
61 99 180
61 98 179
62 99 181
61 99 181
61 98 181
62 99 180
61 99 181
61 99 181
62 99 181
62 99 181
61 99 181
61 99 181
61 99 181
62 99 181
61 98 181
61 99 181
61 99 181
61 98 181
61 99 181
62 99 181
62 99 181
62 99 181
61 98 181
61 98 181
61 99 181
61 99 181
61 99 181
62 99 181
61 99 181
62 99 181
61 99 181
62 99 181
62 99 181
61 98 181
61 99 181
62 99 181
62 99 181
61 99 181
61 98 181
61 98 181
62 99 181
61 98 181
61 99 181
61 99 181
62 99 181
62 99 181
61 99 181
61 99 181
61 99 180
61 98 181
62 99 181
62 99 181
62 99 181
61 99 181
61 99 181
62 99 181
62 99 181
62 99 181
62 99 181
61 98 179
61 98 179
62 99 180
61 99 181
61 99 181
62 98 179
61 98 178
62 99 180
62 99 180
61 98 178
61 98 177
62 99 180
61 98 178
62 99 178
62 98 177
61 97 175
61 97 177
61 98 175
61 97 174
61 98 174
83 114 161
110 137 141
137 162 109
142 166 96
164 187 54
169 192 36
171 194 0
172 196 0
172 194 0
167 189 0
173 196 0
164 184 19
165 185 23
165 181 38
162 179 30
161 176 39
155 171 31
153 163 51
162 170 60
152 160 56
144 150 59
148 150 67
149 152 66
150 148 78
140 139 72
154 149 86
140 135 80
134 131 73
142 137 80
140 135 79
147 142 87
148 143 84
138 134 84
138 134 86
139 136 83
135 132 84
139 136 87
133 130 82
147 144 95
141 138 89
135 134 89
139 137 92
154 150 99
143 140 93
146 144 95
152 148 96
148 146 98
155 151 100
148 144 96
146 144 96
153 150 98
149 146 101
147 144 96
155 152 102
153 150 100
152 149 100
150 148 99
159 155 105
149 147 99
148 145 97
153 151 102
158 156 104
157 155 105
160 156 104
153 151 103
164 160 106
156 154 105
161 159 107
166 162 108
157 155 105
160 157 106
163 160 108
167 164 109
165 161 108
170 167 111
167 163 109
159 156 105
162 159 106
170 167 112
161 158 105
169 165 109
167 163 108
166 163 109
167 165 110
168 165 110
170 167 111
171 168 112
167 164 109
170 167 111
169 165 108
172 168 112
169 166 111
168 164 109
175 170 112
169 166 111
170 166 110
174 170 112
172 169 113
170 167 110
175 171 112
171 168 111
170 166 109
173 168 110
170 166 109
170 167 109
170 166 109
175 171 112
171 168 110
170 166 109
173 169 111
171 167 108
173 168 111
174 169 112
172 168 110
171 168 109
170 166 107
170 166 108
172 168 109
168 164 106
167 164 108
171 165 106
169 165 104
172 168 108
168 164 106
172 167 109
173 168 109
172 167 106
166 162 104
163 159 101
170 165 106
173 168 108
174 169 108
167 162 103
164 160 100
164 160 101
166 161 104
173 167 104
162 158 100
160 155 97
162 157 99
166 160 99
167 161 99
165 160 101
165 159 99
166 161 102
163 157 98
169 163 101
161 156 97
163 157 99
161 156 97
157 152 92
155 149 91
156 151 91
156 150 93
153 147 89
160 154 93
151 145 89
155 149 88
154 148 88
152 146 87
152 145 83
150 144 85
156 149 91
155 149 85
151 147 79
150 150 74
152 152 73
151 159 54
149 154 59
161 168 58
157 169 44
162 176 42
161 177 44
168 184 37
165 183 28
168 190 0
171 193 0
171 194 0
174 196 0
173 195 0
175 198 0
175 198 0
172 196 0
170 194 0
175 197 0
173 196 0
174 198 0
175 198 0
173 196 0
172 196 0
171 196 0
173 196 0
174 197 0
173 196 0
171 195 0
176 199 0
175 198 0
175 198 0
173 196 0
171 195 0
171 195 0
174 197 0
174 197 0
174 198 0
174 197 0
175 197 0
172 196 0
170 194 0
173 197 0
173 196 0
173 197 0
175 198 0
173 197 0
173 196 0
173 197 0
173 196 0
172 196 0
173 196 0
173 196 0
172 195 0
173 197 0
175 198 0
172 196 0
172 195 0
174 197 0
174 197 0
173 197 0
174 197 0
172 196 0
173 197 0
175 198 0
173 196 0
172 195 0
171 196 0
173 195 0
174 197 0
173 197 0
173 197 0
173 196 0
171 194 0
173 196 0
174 198 0
174 197 0
172 196 0
172 196 0
171 195 0
174 197 0
174 197 0
171 195 0
173 196 0
169 192 0
172 195 0
174 197 0
172 196 0
172 196 0
172 196 0
171 194 0
173 196 0
173 197 0
175 198 0
172 195 0
172 195 0
173 197 0
171 195 0
174 196 0
171 195 0
171 194 0
170 193 0
175 197 0
173 197 0
171 194 0
173 197 0
174 197 0
173 196 0
170 194 0
174 197 0
170 193 0
172 196 0
173 196 0
172 195 0
172 196 0
172 196 0
172 195 0
174 198 0
173 196 0
172 195 0
172 196 0
170 194 0
171 195 0
171 195 0
173 197 0
171 194 0
173 197 0
174 198 0
171 194 0
173 196 0
174 197 0
173 197 0
171 194 0
173 197 0
173 197 0
172 194 18
163 187 54
156 179 82
130 155 125
105 133 152
67 103 174
63 99 176
61 99 177
62 99 180
62 99 175
62 99 180
62 99 179
62 99 179
62 99 181
62 99 180
62 99 180
62 99 181
62 99 181
62 99 181
62 99 180
62 99 181
62 99 181
62 99 180
62 99 181
61 99 181
62 99 181
62 99 181
61 98 181
61 99 181
62 99 181
61 99 181
61 98 180
62 99 181
62 99 181
61 99 181
62 99 181
62 99 181
61 98 181
62 99 181
61 98 181
62 99 181
62 99 181
62 99 181
61 99 181
61 99 181
61 99 181
61 99 181
61 98 181
61 98 181
62 99 181
61 99 181
62 99 181
62 99 181
62 99 181
61 99 181
61 98 181
62 99 181
62 99 181
61 98 181
61 99 181
62 99 181
61 98 181
61 99 181
61 98 181
61 99 181
62 99 181
62 99 181
62 99 181
62 99 181
61 98 180
62 99 181
61 99 180
61 98 180
62 99 181
61 99 181
61 98 180
61 99 180
62 99 181
62 99 181
61 98 180
62 99 181
61 98 179
62 99 180
62 99 181
62 99 180
61 98 180
61 98 180
62 98 178
62 99 179
61 99 180
62 99 179
61 99 179
62 99 179
62 99 179
62 98 178
61 98 178
61 98 179
62 98 176
62 99 179
61 98 176
68 102 170
85 116 162
120 145 127
134 159 117
151 176 92
165 189 45
170 194 0
169 190 0
171 192 0
168 187 22
167 187 19
162 180 25
163 182 25
160 174 41
162 177 39
152 165 41
150 159 56
143 153 51
151 156 60
147 151 61
138 140 61
137 140 64
145 146 67
140 138 78
144 139 80
129 125 70
137 133 82
142 137 82
140 136 85
151 146 89
141 137 82
142 139 84
146 142 91
141 138 85
152 148 93
126 124 78
143 139 88
141 137 90
144 141 90
141 138 92
143 140 93
143 140 92
148 145 95
142 139 93
140 139 92
138 136 92
148 145 96
150 147 98
150 146 98
147 145 95
145 142 94
153 151 102
157 153 102
147 145 98
151 148 97
158 156 105
151 148 98
155 152 103
150 148 101
157 154 104
157 155 104
158 155 105
156 154 104
152 150 103
154 153 103
158 156 105
161 158 106
158 156 105
159 157 105
156 154 103
161 159 106
167 163 108
168 164 109
159 158 106
164 160 106
164 162 108
169 164 109
167 164 110
164 162 109
166 163 109
168 165 109
163 161 108
166 164 110
167 165 110
169 165 110
167 164 110
170 167 110
166 163 110
172 169 112
168 165 109
172 168 111
171 167 110
171 168 111
171 168 111
173 169 112
173 169 111
172 168 110
174 170 112
171 167 109
173 169 111
172 168 109
172 168 109
170 166 109
171 168 110
174 170 112
170 167 108
170 167 110
171 167 109
174 169 109
173 169 110
174 170 112
170 167 109
174 170 111
171 167 110
172 167 109
172 167 108
169 166 108
173 169 112
175 171 110
169 165 106
170 166 107
173 168 109
173 169 110
168 163 104
169 164 107
172 167 108
170 166 106
163 160 103
161 157 100
164 159 102
171 166 108
168 163 106
170 165 104
169 165 106
164 160 101
171 166 104
164 159 101
162 157 99
162 158 103
169 163 104
162 157 99
166 160 99
163 157 101
162 157 99
166 161 99
165 159 97
158 152 94
158 152 92
161 156 95
157 151 93
159 154 96
160 153 93
155 150 89
154 149 90
155 149 90
153 147 90
157 150 90
150 145 82
143 137 75
149 143 82
149 144 83
148 143 76
137 132 73
142 138 73
146 143 70
151 148 76
148 151 63
146 150 61
149 156 57
153 162 51
156 169 42
160 173 42
163 181 30
164 185 19
168 189 16
172 194 16
172 195 0
174 196 0
174 197 0
172 196 0
175 198 0
174 197 0
175 198 0
173 196 0
174 198 0
173 197 0
173 197 0
171 195 0
173 196 0
173 196 0
174 197 0
174 198 0
172 196 0
175 198 0
173 196 0
174 197 0
175 198 0
170 195 0
173 197 0
173 197 0
176 198 0
172 196 0
173 196 0
172 196 0
173 197 0
174 197 0
172 196 0
173 197 0
174 198 0
171 195 0
174 197 0
174 197 0
175 198 0
170 194 0
173 196 0
173 196 0
174 196 0
172 195 0
175 197 0
175 198 0
171 195 0
175 198 0
174 197 0
175 198 0
172 196 0
172 196 0
173 196 0
173 196 0
171 195 0
173 196 0
175 198 0
175 197 0
172 196 0
175 198 0
172 194 0
174 197 0
174 197 0
175 198 0
175 198 0
172 196 0
171 194 0
174 197 0
173 196 0
174 196 0
174 198 0
173 196 0
172 196 0
173 197 0
172 195 0
175 198 0
175 198 0
173 196 0
174 198 0
173 196 0
173 197 0
173 196 0
176 198 0
171 194 0
174 197 0
173 196 0
172 196 0
172 196 0
172 195 0
171 195 0
174 197 0
174 197 0
174 198 0
171 195 0
174 197 0
173 196 0
173 197 0
168 193 0
173 196 0
173 196 0
173 196 0
173 197 0
172 195 0
172 194 0
172 196 0
171 194 0
172 195 0
175 198 0
173 197 0
172 196 0
172 195 0
177 199 0
171 195 0
173 197 0
172 195 0
172 196 0
172 196 0
175 197 0
172 196 0
173 196 0
172 194 0
173 196 0
174 197 0
173 196 0
174 197 0
168 192 36
160 184 72
140 164 107
122 148 131
89 120 162
61 98 175
62 99 179
62 99 176
61 98 177
61 98 178
62 99 180
62 99 181
62 99 180
62 99 178
62 99 178
62 99 180
62 99 181
62 99 179
61 99 180
61 99 180
62 99 181
61 99 181
61 99 180
62 99 180
61 99 181
62 99 181
63 100 181
61 99 181
62 99 181
61 99 181
62 99 181
61 99 181
62 99 181
61 99 181
61 98 181
61 99 181
61 99 181
61 98 181
62 99 180
61 99 181
61 99 181
62 99 181
62 99 181
62 99 181
62 99 181
61 98 181
62 99 181
62 99 181
61 99 181
60 98 181
61 99 181
61 99 181
62 99 181
61 99 181
61 98 181
62 99 181
61 99 181
61 99 181
62 99 181
61 98 181
62 99 181
62 99 181
61 99 181
61 98 181
61 99 181
62 99 181
61 99 181
62 99 181
61 99 181
62 99 181
62 99 181
62 99 181
62 99 181
61 98 180
61 98 180
62 99 180
62 99 180
62 99 180
62 99 181
62 99 181
62 99 180
61 99 180
62 99 180
61 98 177
62 99 180
61 98 179
61 98 179
62 99 178
62 99 180
61 99 181
63 100 180
62 99 179
63 99 177
61 98 177
61 98 176
61 98 178
62 98 176
61 98 177
61 97 175
61 98 176
61 97 175
62 98 177
69 103 171
69 103 169
115 141 142
126 152 128
156 180 76
166 189 36
168 190 30
169 191 11
161 181 19
163 182 19
160 178 30
160 176 39
163 179 43
156 166 44
155 167 51
156 164 49
148 156 57
152 161 53
144 148 59
139 144 59
147 148 74
144 146 64
131 130 68
141 135 76
138 133 74
131 127 77
137 133 78
142 139 81
139 135 84
144 139 86
143 139 86
144 140 87
142 139 89
142 139 89
139 136 89
149 145 91
149 144 93
140 137 88
147 143 92
143 140 92
144 141 92
142 139 92
143 141 93
135 133 92
151 149 98
139 137 91
145 143 97
129 128 86
147 145 96
144 143 97
159 157 105
149 147 101
153 151 101
152 149 100
149 147 100
145 144 98
149 147 100
155 152 102
155 153 104
153 150 102
161 159 106
155 153 103
154 153 104
160 157 105
157 155 104
158 156 105
154 152 102
165 162 109
160 158 106
163 160 108
166 162 108
164 161 106
159 157 105
163 160 108
167 165 110
168 166 111
166 164 108
171 167 111
170 167 111
172 168 112
169 165 109
165 162 108
169 166 111
165 163 107
169 166 111
172 168 111
171 168 111
169 166 110
168 166 111
169 165 109
169 166 110
171 167 109
169 165 109
172 169 111
175 170 112
176 171 113
172 168 109
169 165 110
174 170 111
172 169 110
174 170 110
170 167 110
173 169 111
173 169 110
170 167 109
172 168 109
166 163 108
173 169 109
176 171 110
173 168 110
174 170 110
174 169 110
174 169 110
167 163 106
170 166 108
171 167 109
169 165 106
172 167 108
175 169 110
172 167 109
167 162 104
168 163 106
173 168 109
174 168 109
170 165 106
167 162 105
167 162 104
170 165 106
174 168 108
167 161 102
167 163 105
172 166 106
165 160 101
164 158 100
166 162 103
171 166 108
160 156 100
169 164 104
171 166 104
165 159 101
168 162 103
165 160 101
162 156 96
162 157 97
157 151 93
165 159 99
161 156 95
169 163 101
165 158 96
162 156 93
157 151 94
160 155 93
156 150 86
154 148 89
160 154 90
152 147 87
162 155 94
154 148 87
144 138 80
145 138 74
150 144 84
135 131 66
144 138 80
148 143 76
143 142 68
159 161 66
159 163 65
155 162 57
160 169 57
156 169 48
165 182 34
170 188 36
169 188 28
168 187 25
171 192 16
171 193 0
173 196 0
175 198 0
173 196 0
172 196 0
173 196 0
172 197 0
174 198 0
174 197 0
174 197 0
174 197 0
174 197 0
175 198 0
172 195 0
173 197 0
173 197 0
174 197 0
174 197 0
174 197 0
173 197 0
174 197 0
174 198 0
172 195 0
173 197 0
173 196 0
174 198 0
175 198 0
174 197 0
175 198 0
173 196 0
171 195 0
174 197 0
173 197 0
171 195 0
173 196 0
173 197 0
170 195 0
173 196 0
172 195 0
172 196 0
171 194 0
175 198 0
171 196 0
171 195 0
175 197 0
173 196 0
174 197 0
173 196 0
171 195 0
173 197 0
171 195 0
173 197 0
174 196 0
173 196 0
172 195 0
173 197 0
170 194 0
174 197 0
172 195 0
173 197 0
175 198 0
174 197 0
171 194 0
174 198 0
171 195 0
172 195 0
172 195 0
173 196 0
175 198 0
172 196 0
173 197 0
174 198 0
170 194 0
171 194 0
171 195 0
174 198 0
174 198 0
174 198 0
173 197 0
175 198 0
174 197 0
170 194 0
171 195 0
174 197 0
172 195 0
171 194 0
172 195 0
174 198 0
173 196 0
174 197 0
170 193 0
172 195 0
174 198 0
174 197 0
173 197 0
174 197 0
172 195 0
172 195 0
172 195 0
173 196 0
172 196 0
172 195 0
171 195 0
170 193 0
173 197 0
173 197 0
169 192 0
170 195 0
175 198 0
172 196 0
171 195 0
172 196 0
172 195 0
172 195 0
171 195 0
171 195 0
171 195 0
170 194 0
173 197 0
172 195 0
173 196 0
172 195 18
166 190 47
147 172 95
143 168 107
114 140 142
81 114 166
63 99 177
62 99 176
62 99 177
62 99 179
62 99 179
62 99 180
62 99 179
61 99 179
62 99 180
62 99 181
61 99 179
62 99 179
62 99 181
62 99 181
62 99 181
61 98 180
62 99 179
62 99 181
62 99 180
62 99 181
62 99 181
62 99 181
62 99 180
62 99 180
62 99 181
61 99 181
61 99 181
61 99 181
62 99 181
61 99 181
61 98 181
61 98 181
61 99 181
61 99 181
62 99 181
61 99 181
61 99 181
62 99 181
61 99 181
61 99 181
62 99 181
61 99 181
61 98 181
61 98 181
61 98 181
61 98 181
61 99 181
61 99 181
61 99 181
62 99 181
62 99 181
61 98 181
62 99 181
61 99 181
62 99 181
62 99 181
62 99 181
61 99 181
62 99 181
62 99 181
61 99 181
62 99 181
61 99 181
61 99 181
62 99 181
62 99 181
61 99 181
61 99 181
62 99 181
62 99 181
62 99 181
62 99 181
61 98 180
62 99 180
62 99 181
62 98 179
62 99 181
62 99 180
61 99 180
62 99 180
61 99 181
61 98 180
62 99 180
61 98 179
62 99 180
61 98 180
61 98 176
61 98 177
62 99 178
61 99 180
62 98 176
62 99 178
61 98 177
61 98 175
61 98 176
62 99 176
61 98 177
62 99 178
61 97 172
61 96 169
73 106 166
105 133 147
124 148 119
138 162 108
158 181 68
164 183 51
168 188 26
168 188 30
162 179 25
158 174 34
160 176 34
161 169 60
155 166 45
149 158 56
144 152 59
150 157 61
149 152 63
138 140 66
140 137 76
138 136 70
138 134 76
132 129 74
130 127 75
142 137 81
145 141 87
147 142 85
124 122 78
138 134 83
134 131 83
136 133 83
134 131 85
136 133 86
146 143 92
135 133 87
147 143 92
135 132 85
139 137 89
138 136 89
143 140 93
139 136 90
148 146 96
139 138 93
139 138 93
138 138 96
150 148 100
142 141 95
148 145 96
148 146 99
148 146 99
158 155 102
149 148 99
148 146 100
150 148 101
156 154 103
150 148 99
152 150 101
151 149 100
160 157 105
160 158 105
158 155 105
148 146 99
155 152 102
163 160 107
152 150 102
166 163 109
158 155 104
159 158 105
166 163 109
157 154 104
164 161 107
161 158 105
167 164 109
167 164 109
164 161 108
159 157 106
166 165 110
167 164 109
160 159 107
164 161 106
166 163 108
168 165 110
170 167 110
171 167 111
172 168 112
168 165 109
173 169 110
173 169 111
172 169 109
173 169 111
170 167 110
170 166 108
171 168 111
172 168 110
170 167 109
172 169 111
172 169 111
173 168 110
171 167 110
172 169 111
176 171 113
172 168 110
171 167 108
170 166 108
170 166 109
175 170 109
174 170 111
170 166 109
174 170 110
173 168 110
174 169 109
174 171 110
173 167 109
171 168 109
171 167 106
167 163 102
172 167 108
168 164 108
169 165 105
171 165 107
170 166 108
170 165 107
173 169 110
169 165 103
168 164 102
169 163 104
168 164 106
167 163 101
166 162 104
173 168 107
166 161 102
166 162 102
171 167 108
158 154 97
164 160 102
174 167 103
169 163 101
167 162 101
170 165 101
166 160 97
161 156 97
168 161 100
157 152 93
166 159 96
166 160 97
169 162 101
164 159 102
164 157 97
160 155 92
159 153 90
161 156 93
157 152 94
157 150 88
153 148 87
152 146 87
155 148 82
159 153 93
154 147 85
157 150 86
158 152 86
152 146 83
146 141 75
144 140 66
150 149 68
146 146 63
147 149 60
152 158 61
162 172 53
162 174 53
161 174 44
163 179 34
166 183 28
168 189 16
170 191 22
174 196 11
173 196 0
173 195 0
174 198 0
174 197 0
173 197 0
174 198 0
171 196 0
172 196 0
174 197 0
173 197 0
175 198 0
173 197 0
173 196 0
173 196 0
173 196 0
174 198 0
173 197 0
173 197 0
174 197 0
174 197 0
172 196 0
173 197 0
173 197 0
173 196 0
173 197 0
172 195 0
173 196 0
174 197 0
172 196 0
172 195 0
174 197 0
171 195 0
172 195 0
174 197 0
172 196 0
175 198 0
173 197 0
172 195 0
174 197 0
173 196 0
173 197 0
172 196 0
173 195 0
174 197 0
170 193 0
174 197 0
173 196 0
171 194 0
170 193 0
174 197 0
173 196 0
175 198 0
174 197 0
172 195 0
174 197 0
171 194 0
171 194 0
173 196 0
172 196 0
175 198 0
174 197 0
174 197 0
171 194 0
173 197 0
174 197 0
171 194 0
174 196 0
172 195 0
173 196 0
171 195 0
173 197 0
173 196 0
174 197 0
172 196 0
174 196 0
173 196 0
172 196 0
175 198 0
173 197 0
174 197 0
172 195 0
174 197 0
173 197 0
173 197 0
172 196 0
174 198 0
174 197 0
174 197 0
172 195 0
174 197 0
173 196 0
175 198 0
172 195 0
172 195 0
173 197 0
173 197 0
172 195 0
174 197 0
173 196 0
171 194 0
169 193 0
172 196 0
172 196 0
171 195 0
174 197 0
172 195 0
174 196 0
172 195 0
172 195 0
173 197 0
173 197 0
173 196 0
169 193 0
171 195 0
174 197 0
170 194 0
172 195 0
170 194 0
173 196 0
171 195 31
165 188 60
156 179 84
131 157 122
94 124 158
66 101 169
62 99 176
62 99 179
62 99 175
62 99 178
62 99 178
62 99 176
62 99 181
61 98 179
63 100 180
62 99 179
62 99 180
62 99 179
61 99 180
62 99 181
61 99 180
62 99 181
62 99 181
61 98 181
62 99 181
62 99 181
61 99 181
62 99 181
62 99 181
61 99 181
62 99 181
61 99 181
62 99 181
61 99 181
62 99 181
62 99 180
61 99 180
61 99 181
61 99 181
61 99 181
61 98 181
61 98 181
62 99 181
61 99 181
61 99 181
62 99 181
62 99 181
62 99 181
61 99 181
61 98 181
61 99 181
62 99 181
62 99 181
62 99 181
61 99 181
62 99 181
62 99 181
61 99 181
62 99 181
61 99 181
62 99 181
62 99 181
61 99 181
61 99 181
61 99 181
62 99 181
61 99 180
61 99 181
62 99 181
61 98 181
62 99 181
61 99 181
61 99 181
61 99 180
61 99 181
62 99 181
62 99 181
61 99 181
62 99 180
62 99 181
62 99 181
61 99 181
62 99 181
62 99 180
62 99 181
61 98 179
62 99 180
62 99 179
62 99 181
62 99 179
61 98 179
62 99 180
61 98 179
62 99 180
62 99 177
61 98 178
62 99 179
61 98 178
62 99 180
62 98 177
61 98 175
62 99 179
61 97 177
62 98 174
61 97 175
62 98 175
61 97 176
61 97 176
69 103 174
91 121 162
115 140 134
139 161 94
140 161 104
160 179 57
169 189 25
165 180 37
159 173 42
159 172 41
152 165 37
155 164 54
152 161 49
144 149 54
143 145 62
136 140 60
139 140 68
139 138 69
148 145 77
144 140 80
139 134 81
134 130 80
138 134 74
144 140 85
138 135 83
135 132 79
126 123 81
128 125 79
135 133 83
136 133 87
140 136 86
130 129 83
138 136 88
135 133 87
149 146 95
133 130 84
145 142 95
133 130 87
142 139 92
129 129 88
139 137 90
138 137 94
139 136 90
137 136 92
149 146 97
140 138 92
138 138 96
153 151 101
143 142 95
150 148 101
145 143 98
143 141 96
154 151 101
156 153 102
154 151 102
150 148 101
146 145 101
153 151 103
157 153 103
159 157 103
160 158 107
154 152 102
160 158 107
158 156 105
156 154 104
162 159 107
161 159 108
157 155 105
159 157 106
158 156 105
163 160 107
167 164 108
167 164 108
168 163 106
162 160 108
166 162 107
169 166 110
169 166 110
169 166 108
172 168 111
170 167 110
166 164 108
170 167 110
169 165 109
168 165 110
173 170 113
172 169 111
171 167 108
171 167 110
173 169 111
172 169 110
172 168 110
172 168 110
174 170 112
175 170 112
174 169 111
171 167 109
174 170 113
174 169 110
173 169 112
176 171 111
174 169 110
173 168 108
173 169 109
174 170 110
174 170 110
174 170 111
174 170 111
170 165 107
176 171 112
170 166 106
172 167 107
175 170 111
174 169 109
171 167 107
170 166 107
170 165 106
176 171 111
168 164 104
174 169 109
167 163 104
171 167 108
168 163 102
170 167 107
170 165 104
171 167 109
168 163 103
172 166 105
168 164 103
174 169 104
168 163 103
166 162 103
169 163 103
171 165 104
165 160 101
167 162 101
155 150 93
163 158 99
162 156 93
165 160 98
164 159 98
161 155 95
163 158 99
168 161 97
155 150 95
163 157 98
163 157 96
159 154 93
159 153 93
157 152 89
165 158 93
158 151 89
161 154 95
150 145 84
154 148 88
150 143 81
148 143 81
149 142 84
152 146 79
149 143 78
154 150 77
147 143 74
141 141 63
150 154 64
153 158 57
155 164 48
164 173 54
155 169 42
165 182 36
158 176 28
168 186 32
171 193 11
169 192 11
172 196 0
173 197 0
174 198 0
170 194 0
172 196 0
171 195 0
174 197 0
173 196 0
172 196 0
172 195 0
171 194 0
173 197 0
172 196 0
175 197 0
173 196 0
175 198 0
171 194 0
171 195 0
174 197 0
174 197 0
173 196 0
174 197 0
171 195 0
175 198 0
175 197 0
174 197 0
172 196 0
174 197 0
173 196 0
173 197 0
172 196 0
173 196 0
172 196 0
174 197 0
174 197 0
174 197 0
173 197 0
174 196 0
173 197 0
174 196 0
172 196 0
173 196 0
172 196 0
173 196 0
174 197 0
169 194 0
173 197 0
172 195 0
171 195 0
174 198 0
171 195 0
173 196 0
173 196 0
170 194 0
173 197 0
173 196 0
175 198 0
173 196 0
175 198 0
174 197 0
174 197 0
171 195 0
173 196 0
171 194 0
171 194 0
172 196 0
174 197 0
174 197 0
173 196 0
170 194 0
174 197 0
174 197 0
173 196 0
173 196 0
170 194 0
171 194 0
173 196 0
172 196 0
171 195 0
175 197 0
174 197 0
171 195 0
171 194 0
171 195 0
169 192 0
171 194 0
174 197 0
170 194 0
174 197 0
172 195 0
172 195 0
172 196 0
174 197 0
173 196 0
170 194 0
173 197 0
175 197 0
172 195 0
172 195 0
173 196 0
174 197 0
172 196 0
174 197 0
172 195 0
170 194 0
172 196 0
174 198 0
173 196 0
171 194 0
174 198 0
171 194 0
172 197 0
171 194 0
172 195 0
172 195 0
170 194 0
172 195 0
173 196 0
169 193 25
159 183 74
149 172 94
105 133 149
78 111 169
62 99 174
62 99 178
62 99 176
62 99 178
62 99 178
62 99 180
62 99 178
62 99 180
62 99 180
62 99 179
61 99 179
62 99 181
61 98 178
62 99 180
62 99 180
62 99 179
62 99 180
62 99 181
62 99 180
62 99 180
62 99 181
61 99 180
62 99 180
62 99 181
62 99 181
62 99 180
62 99 181
62 99 181
61 99 181
62 99 181
62 99 181
61 99 181
61 99 181
61 99 181
62 99 181
61 99 181
62 99 181
61 99 181
62 99 181
61 98 181
61 98 181
61 98 181
62 99 181
62 99 181
61 99 181
61 99 181
62 99 181
61 99 181
61 98 181
62 99 181
61 99 181
61 99 181
62 99 181
61 99 181
61 99 181
61 98 181
61 98 181
62 99 181
62 99 181
62 99 181
61 99 181
61 98 181
62 99 181
61 99 181
61 99 181
62 99 180
62 99 181
62 99 181
61 99 181
61 99 181
61 99 181
61 99 180
62 99 181
62 99 181
61 99 181
62 99 181
62 99 181
61 99 181
61 98 179
62 99 181
62 99 181
61 98 178
61 99 180
61 98 180
62 99 181
61 99 180
62 99 179
61 98 180
62 99 180
62 99 179
62 99 180
62 99 180
62 99 181
62 98 176
62 99 177
61 98 176
62 99 180
61 98 177
61 97 176
61 98 176
61 98 176
62 98 177
61 97 174
61 98 176
62 99 177
62 98 175
72 104 164
100 127 152
125 147 113
144 164 92
154 172 60
160 177 28
155 172 34
161 176 42
158 171 40
155 168 47
150 162 45
148 152 57
147 150 58
144 148 65
131 130 58
135 134 72
133 130 72
125 122 67
136 131 76
130 127 79
141 136 78
135 132 80
133 130 80
141 138 86
137 134 87
139 136 84
130 128 78
134 132 84
135 133 88
144 141 90
135 133 86
131 130 87
127 126 83
139 136 90
141 139 93
141 139 93
135 133 88
139 137 89
146 144 96
135 133 89
147 145 99
146 144 96
141 140 96
138 137 94
138 138 94
158 155 103
151 149 101
153 150 100
151 148 99
137 137 95
152 150 100
153 150 100
152 149 101
158 155 103
145 145 100
158 155 103
157 154 102
163 160 107
150 148 100
159 157 106
158 155 105
158 156 103
154 153 104
157 154 103
161 160 108
164 161 107
160 158 106
164 160 106
163 159 106
162 160 105
165 162 108
164 162 108
165 162 109
160 158 107
169 166 109
166 163 108
167 164 108
169 166 110
166 163 108
170 166 110
169 166 110
169 165 109
164 162 108
169 165 111
170 167 111
171 167 109
169 166 108
172 168 110
170 166 109
170 167 109
173 168 109
171 167 111
173 168 109
172 168 109
173 169 110
172 169 111
171 167 109
174 170 110
173 169 109
171 168 110
168 165 109
170 166 107
175 169 109
171 167 108
173 170 111
172 168 111
175 170 110
171 168 109
173 168 108
170 165 107
169 164 106
172 167 108
171 167 108
171 166 108
171 166 106
171 167 108
169 165 108
171 166 108
170 165 103
173 168 108
167 163 106
165 161 101
169 165 105
171 166 106
170 164 102
166 161 100
165 160 103
170 165 102
166 161 101
171 165 106
169 163 103
169 163 103
167 162 101
160 156 96
163 158 99
165 160 101
165 160 97
164 159 95
165 159 95
163 157 96
162 156 95
155 150 93
162 156 97
166 160 95
162 156 97
153 148 88
156 151 88
154 149 90
160 154 92
158 152 87
162 156 89
155 149 86
156 149 84
155 149 90
151 145 83
151 145 83
152 145 81
138 133 69
149 144 84
145 144 68
146 146 62
147 149 64
144 149 56
153 162 51
158 169 51
155 167 49
166 182 37
162 178 36
164 182 30
166 186 16
171 194 0
173 195 0
172 196 0
174 198 0
173 196 0
173 196 0
174 197 0
172 196 0
173 197 0
172 196 0
175 198 0
172 196 0
173 197 0
173 196 0
173 197 0
169 194 0
171 195 0
171 195 0
172 195 0
174 197 0
172 196 0
173 197 0
171 195 0
172 196 0
173 197 0
172 196 0
173 196 0
173 197 0
171 196 0
174 197 0
173 196 0
173 197 0
171 195 0
174 197 0
173 197 0
174 198 0
173 197 0
173 196 0
175 197 0
172 195 0
173 196 0
170 194 0
174 198 0
175 198 0
173 196 0
172 197 0
174 197 0
173 196 0
175 198 0
173 196 0
174 198 0
173 197 0
172 196 0
175 198 0
172 196 0
170 194 0
173 196 0
173 196 0
172 196 0
173 197 0
173 196 0
171 194 0
173 196 0
172 196 0
173 197 0
173 197 0
171 195 0
173 196 0
174 197 0
172 195 0
173 197 0
174 197 0
172 195 0
171 195 0
171 195 0
172 196 0
173 197 0
172 196 0
173 196 0
173 197 0
173 196 0
174 197 0
172 195 0
174 197 0
175 198 0
174 197 0
171 194 0
172 195 0
173 196 0
172 196 0
174 197 0
171 194 0
172 196 0
173 197 0
170 194 0
173 196 0
171 194 0
168 193 0
173 196 0
174 196 0
172 196 0
171 195 0
173 196 0
173 196 0
172 195 0
169 192 0
173 196 0
172 196 0
174 197 0
171 194 0
170 193 0
170 193 0
170 194 0
172 196 0
173 197 0
173 196 0
170 194 0
172 195 0
167 190 40
157 181 76
137 162 113
106 134 150
66 102 175
62 98 172
62 99 174
63 99 179
63 100 179
62 99 179
62 99 179
62 99 178
61 98 176
62 99 179
61 99 181
62 99 181
62 99 179
61 99 179
62 99 181
62 99 181
62 99 180
62 99 180
62 99 181
61 99 180
62 99 180
62 99 179
61 99 181
61 98 181
62 99 180
62 99 180
62 99 180
61 98 179
62 99 181
62 99 181
62 99 181
61 99 181
62 99 181
61 99 181
62 99 181
61 99 181
61 99 181
62 99 181
61 99 181
62 99 181
62 99 181
61 98 181
62 99 181
62 99 181
62 99 181
61 98 181
61 99 181
61 98 181
61 99 181
61 99 181
62 99 181
62 99 181
61 99 181
61 99 180
61 99 181
61 99 181
61 98 181
61 99 181
61 98 181
61 99 181
62 99 181
61 98 181
61 98 180
61 98 181
61 98 181
62 99 181
62 99 181
62 99 180
62 99 181
61 99 179
61 99 181
61 99 181
61 98 181
61 99 181
62 99 180
61 98 180
61 99 181
62 99 181
61 99 180
62 99 180
62 99 181
62 99 181
61 98 180
62 99 181
61 98 177
61 98 179
62 99 181
62 99 178
61 98 179
61 98 176
62 99 179
61 98 177
62 99 181
62 99 180
62 99 181
62 99 177
61 98 178
62 99 179
62 99 178
61 98 179
62 99 178
62 98 176
61 97 175
61 98 178
62 99 177
61 98 175
61 98 173
60 96 172
61 97 172
74 105 158
97 121 143
129 150 122
134 153 102
150 166 77
160 176 29
160 173 45
155 166 48
142 149 55
145 152 53
139 144 53
143 147 57
143 145 62
131 133 60
136 135 62
140 135 75
133 129 75
120 117 72
134 131 77
139 135 85
139 135 84
137 132 84
143 140 88
140 136 88
124 122 78
128 126 79
130 128 85
135 133 88
131 129 80
133 131 86
126 126 84
135 133 86
134 132 88
138 136 91
136 134 89
149 147 98
145 144 96
141 138 92
136 134 90
143 141 95
144 142 97
152 150 101
136 135 92
145 143 98
144 142 97
142 140 95
144 143 98
145 143 98
145 143 97
142 141 96
143 142 97
158 156 104
152 150 101
146 145 98
154 152 104
155 153 104
159 156 105
158 156 106
160 158 107
157 155 105
157 154 104
156 155 104
164 161 107
157 154 104
162 160 107
163 160 108
161 159 107
164 161 106
168 165 109
168 164 108
169 165 110
163 161 107
159 157 104
168 164 108
166 163 108
168 166 111
171 168 112
172 168 111
171 168 111
170 166 109
167 164 107
172 168 111
171 167 110
170 166 109
167 165 109
175 170 111
174 170 110
172 168 109
170 166 108
171 167 109
170 166 107
173 169 110
173 169 110
171 167 108
173 168 108
175 170 112
176 171 111
171 167 108
171 166 108
168 164 108
175 170 110
173 168 110
175 170 109
174 169 109
173 168 109
172 169 110
173 168 108
172 167 108
171 166 109
171 167 106
171 167 108
174 169 106
175 170 109
171 168 108
176 170 108
173 167 109
167 163 104
169 164 104
171 166 103
170 165 102
171 165 104
173 168 108
166 161 100
171 165 106
165 159 101
169 164 103
170 165 104
165 160 100
171 166 104
170 165 106
167 162 102
169 164 104
163 158 99
167 163 100
165 159 97
167 162 100
164 159 99
161 156 97
168 162 101
165 159 95
164 158 95
160 154 96
157 152 92
159 153 93
166 159 95
160 152 93
164 158 92
158 152 90
153 148 85
160 154 90
160 153 93
144 140 77
151 145 84
149 143 78
149 143 80
140 135 73
143 137 77
140 135 74
147 143 74
143 142 62
147 147 66
147 153 59
157 159 68
152 161 53
156 166 42
163 177 44
159 177 25
167 186 22
169 190 22
170 189 25
173 196 19
172 195 0
174 197 0
175 198 0
173 196 0
175 198 0
173 196 0
173 197 0
173 197 0
174 196 0
175 198 0
174 197 0
174 197 0
173 196 0
172 195 0
173 197 0
173 196 0
173 196 0
174 197 0
174 197 0
173 196 0
174 197 0
173 197 0
171 195 0
173 196 0
172 196 0
173 196 0
173 196 0
172 195 0
172 196 0
172 196 0
173 196 0
171 195 0
171 194 0
173 196 0
173 196 0
174 197 0
173 196 0
175 198 0
174 197 0
172 196 0
174 197 0
171 195 0
174 197 0
174 198 0
173 197 0
173 197 0
173 196 0
174 197 0
170 194 0
172 196 0
172 195 0
175 198 0
169 192 0
173 197 0
173 196 0
174 197 0
172 195 0
172 196 0
174 197 0
172 195 0
175 198 0
170 194 0
173 197 0
171 195 0
172 195 0
170 194 0
173 196 0
172 196 0
174 197 0
172 195 0
173 196 0
172 195 0
171 196 0
175 197 0
174 197 0
174 197 0
172 195 0
172 196 0
173 196 0
172 196 0
172 195 0
171 195 0
170 194 0
172 195 0
173 197 0
175 198 0
172 196 0
172 195 0
172 196 0
171 195 0
175 198 0
171 195 0
174 198 0
173 197 0
170 193 0
170 194 0
173 197 0
173 196 0
171 194 0
173 196 0
172 195 0
173 196 0
172 196 0
172 196 0
171 194 0
174 197 0
171 194 0
173 196 0
173 196 0
171 195 0
172 196 0
170 192 0
170 194 0
174 197 0
170 194 18
168 192 36
150 175 92
132 158 117
83 114 155
62 99 173
62 99 178
62 99 177
63 99 175
62 99 179
62 99 178
61 99 177
62 99 178
62 99 180
62 99 181
61 98 180
61 98 177
62 99 178
62 99 179
63 99 179
62 99 178
62 99 181
62 99 179
61 99 179
62 99 180
62 99 180
62 99 180
62 99 180
61 98 178
62 99 181
61 99 181
61 99 181
62 99 181
62 99 181
61 99 180
61 99 181
62 99 180
61 99 180
62 99 181
61 99 181
62 99 181
61 99 180
61 99 181
62 99 181
62 99 181
61 98 181
62 99 180
61 99 181
62 99 181
61 98 181
62 99 181
62 99 181
62 99 181
62 99 181
61 99 181
61 99 181
61 99 181
62 99 181
61 98 181
61 99 181
62 99 181
62 99 181
62 99 181
62 99 181
62 99 181
61 98 181
62 99 181
62 99 181
61 98 181
62 99 181
61 99 181
62 99 181
62 99 181
62 99 181
61 99 181
61 98 181
62 99 181
62 99 181
61 99 180
62 99 180
61 99 181
61 99 180
61 99 180
61 98 180
62 99 181
62 99 181
62 99 181
61 99 180
62 99 179
61 98 181
63 100 181
62 99 181
62 99 181
61 98 181
62 99 181
61 98 179
62 99 181
62 99 180
62 99 181
62 99 178
62 98 177
62 99 180
61 98 176
61 98 177
62 98 177
61 98 176
62 99 177
61 97 176
61 97 175
62 99 176
61 98 173
62 99 178
62 98 175
62 98 176
61 97 175
62 99 177
67 101 168
82 113 159
120 139 127
126 142 106
141 153 84
147 159 58
153 164 51
148 156 61
146 153 58
146 152 63
151 154 62
129 131 57
138 135 73
128 127 69
128 125 69
136 131 77
144 139 81
134 130 79
132 128 73
133 130 78
135 133 82
136 133 82
136 133 83
135 132 83
132 130 86
138 135 87
118 117 76
136 134 88
130 129 88
139 137 92
137 135 89
143 141 90
140 137 91
136 135 88
137 136 92
143 141 94
134 133 92
133 133 94
152 150 100
146 144 98
139 137 94
143 142 96
148 146 98
136 136 95
141 139 94
135 135 94
146 145 98
146 145 99
148 146 100
145 144 98
143 142 97
151 149 102
150 148 100
154 152 101
154 153 103
149 148 101
159 157 105
157 155 105
155 153 103
158 155 105
156 154 104
154 152 103
158 156 102
162 159 107
160 158 106
158 156 105
160 158 105
166 163 109
165 161 106
160 158 106
167 163 108
166 162 108
170 166 109
169 165 107
168 165 109
165 162 106
170 166 110
167 164 107
169 166 110
170 166 109
171 167 110
170 166 108
171 168 109
174 169 109
166 162 104
174 169 108
173 169 110
176 171 113
175 170 109
169 165 108
173 169 108
175 170 111
175 170 110
175 171 111
172 169 108
172 168 110
173 169 110
173 169 109
173 168 108
171 167 110
174 169 109
175 170 109
172 168 109
172 168 109
172 168 109
171 167 106
174 169 108
174 168 109
175 171 109
173 169 109
171 167 109
175 170 109
175 169 108
175 170 107
171 166 107
173 168 109
167 163 106
168 164 105
176 170 109
169 165 103
174 169 107
171 166 106
167 162 104
174 168 107
173 167 106
164 159 96
172 167 106
168 163 99
169 164 101
162 157 97
160 156 96
167 161 100
167 162 96
166 160 100
163 158 97
165 160 100
159 154 90
165 158 93
158 153 90
163 158 99
160 154 94
155 149 89
167 160 97
164 158 93
165 159 95
156 151 88
158 151 87
155 149 86
150 145 81
159 154 92
151 146 86
152 146 84
155 149 79
143 138 75
145 139 77
155 148 83
126 122 62
152 149 80
157 153 74
151 151 67
142 145 54
150 156 60
156 163 52
158 172 41
158 172 44
158 175 28
165 181 36
163 181 25
166 188 0
171 193 11
174 196 11
173 197 0
174 198 0
174 197 0
175 197 0
173 197 0
174 197 0
176 198 0
174 198 0
173 196 0
171 195 0
174 197 0
173 196 0
173 197 0
172 195 0
174 198 0
172 196 0
171 195 0
173 196 0
172 195 0
173 197 0
173 196 0
172 194 0
173 196 0
174 197 0
173 196 0
173 195 0
172 195 0
174 198 0
174 198 0
172 196 0
173 196 0
170 193 0
173 197 0
173 196 0
172 195 0
171 195 0
174 197 0
170 194 0
173 197 0
176 198 0
173 197 0
170 194 0
171 196 0
173 196 0
173 197 0
173 197 0
172 194 0
172 196 0
172 196 0
173 196 0
174 197 0
174 198 0
174 197 0
172 196 0
175 198 0
174 197 0
172 195 0
173 197 0
173 197 0
172 196 0
173 197 0
169 194 0
175 197 0
174 197 0
174 197 0
173 196 0
173 196 0
173 196 0
173 195 0
174 197 0
173 196 0
171 195 0
170 195 0
174 197 0
170 194 0
172 196 0
173 197 0
172 195 0
173 197 0
173 197 0
172 195 0
170 193 0
170 194 0
172 195 0
173 196 0
174 197 0
173 196 0
174 197 0
175 198 0
171 195 0
174 196 0
171 196 0
170 194 0
172 196 0
173 197 0
172 196 0
171 194 0
172 196 0
174 197 0
172 195 0
169 193 0
173 197 0
173 196 0
172 196 0
171 194 0
174 197 0
173 196 0
170 195 0
173 196 0
171 194 0
171 194 0
168 191 0
170 194 25
167 192 40
153 177 92
124 149 125
99 128 152
61 98 175
62 99 175
63 100 179
61 99 177
62 99 179
62 99 178
62 99 180
62 99 180
62 99 179
62 99 179
61 99 177
61 99 179
61 98 175
62 99 181
61 98 180
62 99 180
61 98 180
62 99 180
62 99 179
62 99 180
61 99 180
62 99 179
61 99 180
61 99 181
61 99 181
61 99 180
62 99 181
61 99 181
62 99 180
62 99 181
62 99 181
61 99 181
62 99 181
62 99 181
61 99 181
61 99 181
61 99 181
61 99 181
61 98 181
62 99 181
61 99 180
61 99 181
62 99 181
62 99 181
62 99 181
61 99 181
62 99 181
61 99 181
61 99 181
61 99 181
61 98 181
61 99 181
62 99 181
62 99 181
62 99 181
61 98 181
61 99 181
62 99 180
62 99 181
61 99 181
61 99 181
61 99 181
61 99 181
62 99 181
62 99 181
62 99 181
61 99 181
61 99 181
61 99 181
62 99 181
62 99 181
62 99 181
62 99 181
62 99 181
62 99 180
62 99 181
61 98 181
61 98 180
62 99 181
62 99 181
62 99 180
62 99 180
61 99 180
62 99 179
62 99 180
61 98 180
61 99 178
61 98 178
61 99 181
62 99 179
62 99 180
62 99 179
62 99 181
61 98 179
61 98 179
62 99 180
62 99 181
61 99 179
61 98 176
61 98 174
62 98 174
62 99 179
61 98 176
61 98 176
62 99 179
61 98 176
62 99 176
61 98 173
61 97 175
61 97 174
62 98 175
61 98 175
61 97 174
69 103 168
80 109 155
112 132 139
119 137 117
136 152 83
140 153 58
141 150 51
156 162 65
143 147 58
133 135 56
145 146 64
136 135 63
126 125 68
137 132 77
136 131 75
134 130 74
128 126 77
128 126 75
141 138 85
130 128 81
134 131 81
133 131 83
131 129 82
136 134 82
145 141 92
130 127 85
126 124 83
124 123 82
130 128 86
140 137 89
135 134 92
134 134 91
127 126 87
133 132 89
126 126 85
143 141 92
139 138 95
132 132 91
147 146 97
145 144 99
137 136 92
138 137 96
141 141 98
154 151 101
149 148 100
148 147 100
141 140 96
148 146 100
142 143 99
153 150 103
147 146 99
155 152 102
158 155 104
152 150 102
145 144 98
151 150 101
158 155 104
161 159 108
157 155 104
162 159 107
164 161 108
158 156 105
161 158 106
161 159 108
163 161 107
164 160 107
165 162 108
164 161 108
160 157 105
168 164 108
163 162 109
165 162 108
166 162 107
167 164 107
170 166 108
165 161 106
169 166 110
165 161 106
168 165 108
170 167 110
170 167 111
172 169 112
170 166 109
172 168 110
171 168 111
169 166 108
174 169 110
176 170 110
174 170 111
174 169 111
175 170 109
168 165 107
173 168 109
173 168 108
173 168 108
172 168 110
173 169 109
175 170 109
172 167 107
173 169 110
175 170 109
174 170 109
174 169 110
175 170 110
174 169 109
172 168 106
171 166 106
172 168 108
169 165 106
172 168 109
174 169 108
173 168 108
171 167 108
171 167 106
177 171 112
170 166 107
172 167 106
171 166 104
170 165 106
174 169 108
171 166 106
167 162 105
161 157 95
172 166 103
164 159 99
164 160 99
162 157 98
164 159 97
167 161 100
170 164 100
171 165 103
167 161 99
171 164 101
163 158 99
166 161 101
163 158 95
165 158 95
164 158 95
167 161 94
164 158 95
164 159 97
166 160 98
160 155 97
152 147 84
152 148 85
159 153 89
160 154 90
157 151 86
154 148 86
159 153 85
146 139 81
154 148 83
138 133 75
143 137 78
145 139 75
144 138 71
151 146 77
146 143 70
152 152 71
144 148 61
148 155 56
147 157 51
159 169 49
162 176 42
164 183 32
165 183 28
164 185 25
170 190 22
170 192 16
175 198 0
176 199 0
172 196 0
174 198 0
174 198 0
171 195 0
175 198 0
173 196 0
174 197 0
174 197 0
174 198 0
174 198 0
174 197 0
174 197 0
175 198 0
173 196 0
174 197 0
169 192 0
173 197 0
173 196 0
173 195 0
175 198 0
173 197 0
172 195 0
174 197 0
174 197 0
173 195 0
173 196 0
171 195 0
173 197 0
172 196 0
174 197 0
171 194 0
173 197 0
174 198 0
174 197 0
175 198 0
171 194 0
174 197 0
173 196 0
174 197 0
174 197 0
173 195 0
173 197 0
174 197 0
171 195 0
173 196 0
168 192 0
172 196 0
170 194 0
173 197 0
174 197 0
172 195 0
173 196 0
173 195 0
173 196 0
171 194 0
172 195 0
173 197 0
172 196 0
172 196 0
174 197 0
172 195 0
173 197 0
172 196 0
171 194 0
173 196 0
174 197 0
172 195 0
171 194 0
175 198 0
173 197 0
173 196 0
172 196 0
171 195 0
169 192 0
174 197 0
172 196 0
171 194 0
173 196 0
173 197 0
174 197 0
171 195 0
171 195 0
173 196 0
174 197 0
170 194 0
174 197 0
172 195 0
173 197 0
171 193 0
170 193 0
172 194 0
173 196 0
172 195 0
173 196 0
173 197 0
171 194 0
173 195 0
171 195 0
173 196 0
172 196 0
172 195 0
169 194 0
170 195 0
169 192 0
173 195 0
170 194 0
172 195 0
169 193 0
170 193 0
173 196 0
172 196 0
164 187 54
155 179 80
126 151 125
77 110 163
64 100 177
61 98 173
63 100 176
62 99 179
62 99 177
62 99 176
63 100 181
62 99 179
63 99 180
62 99 179
62 99 178
62 99 180
62 99 180
62 99 178
61 98 181
62 99 179
62 99 180
62 99 180
62 99 181
62 99 181
62 99 179
62 99 180
62 99 179
62 99 181
62 99 181
61 99 181
62 99 180
61 99 180
61 99 181
62 99 180
62 99 181
62 99 181
62 99 181
62 99 181
62 99 181
62 99 181
63 100 180
62 99 181
61 98 181
62 99 181
62 99 181
62 99 181
61 99 181
62 99 181
62 99 181
62 99 181
62 99 181
61 99 181
61 99 180
61 99 181
62 99 181
61 98 181
61 98 181
61 99 181
62 99 181
61 98 181
61 99 181
62 99 180
61 99 181
61 99 181
62 99 181
62 99 181
61 98 181
62 99 180
62 99 180
62 99 181
62 99 180
61 99 181
62 99 181
61 98 181
62 99 181
62 99 181
61 99 180
61 99 180
61 99 181
62 99 181
62 99 180
62 99 181
61 99 181
61 99 180
61 98 180
61 99 181
61 99 181
61 99 179
62 99 181
61 98 180
62 99 179
62 99 180
63 100 181
62 99 180
62 99 181
61 98 178
62 99 181
62 99 181
61 98 177
61 98 177
61 98 178
62 99 179
62 99 178
62 99 178
62 99 179
61 98 178
62 98 176
61 98 176
61 99 177
62 99 177
62 98 177
61 98 175
62 98 175
61 98 174
62 97 171
61 97 174
61 97 173
62 98 175
61 97 170
62 99 177
80 106 160
95 114 142
122 136 117
136 148 79
140 147 60
152 158 58
132 138 44
136 137 63
129 130 62
130 128 67
137 133 76
140 136 66
124 122 70
139 134 80
142 137 83
130 126 78
131 128 78
129 127 83
113 113 76
131 128 80
132 130 82
130 127 81
124 122 81
128 127 83
130 129 84
121 121 80
133 131 85
134 132 88
131 131 88
136 135 89
134 132 87
126 126 88
133 132 90
144 142 95
136 134 91
138 137 94
144 143 98
132 133 91
143 142 97
145 144 97
142 140 96
144 143 96
143 141 97
141 140 95
149 146 99
145 145 98
153 151 103
142 140 95
150 149 101
158 154 100
151 149 100
153 151 100
150 149 101
156 154 104
149 149 102
155 153 104
160 157 105
158 155 105
157 154 101
161 159 105
164 160 105
158 156 102
166 163 109
161 159 107
159 156 104
166 163 108
166 163 109
170 166 110
166 163 109
168 164 107
165 162 106
167 163 107
171 168 110
164 161 105
164 161 104
172 169 110
168 165 109
169 165 109
173 168 111
170 166 108
169 166 110
168 165 108
172 168 108
176 171 112
173 169 111
169 166 107
171 167 107
170 167 109
172 168 107
176 171 109
173 169 108
171 167 107
172 169 109
171 167 108
177 172 110
171 167 108
175 170 109
171 167 106
170 165 106
170 166 108
172 168 107
172 167 108
173 168 108
174 169 109
177 170 108
173 168 109
171 167 108
174 169 108
176 170 108
169 164 103
176 170 109
172 168 106
171 166 106
172 167 105
168 163 103
174 169 108
171 166 104
175 169 108
169 164 101
165 160 101
171 165 103
168 162 101
168 163 101
170 165 104
171 166 105
162 157 95
170 164 99
171 165 101
168 162 97
163 158 99
162 156 97
164 158 98
165 160 97
163 157 96
159 154 95
157 152 91
163 156 93
164 159 97
160 155 93
171 165 101
162 155 91
160 154 93
166 158 95
163 157 89
159 153 91
144 139 80
148 142 84
154 147 82
153 147 83
155 150 91
153 147 87
155 148 84
156 150 84
129 124 65
148 144 76
143 141 67
147 146 68
144 146 60
148 153 58
156 164 57
153 165 41
157 169 42
165 181 37
168 186 32
168 187 22
170 191 11
169 191 0
173 196 11
175 198 0
175 197 0
172 195 0
173 196 0
175 198 0
174 198 0
173 197 0
172 196 0
174 197 0
173 197 0
172 195 0
172 196 0
174 197 0
173 196 0
170 194 0
174 198 0
174 198 0
173 196 0
172 196 0
172 196 0
172 196 0
172 196 0
174 197 0
171 195 0
175 198 0
173 196 0
173 197 0
170 194 0
173 196 0
173 197 0
172 195 0
169 193 0
175 198 0
172 196 0
174 197 0
174 197 0
172 195 0
170 193 0
173 197 0
172 195 0
174 197 0
170 195 0
172 196 0
173 197 0
175 198 0
170 194 0
168 192 0
172 195 0
173 196 0
173 196 0
174 196 0
172 195 0
171 195 0
173 196 0
173 196 0
172 196 0
175 198 0
174 197 0
174 197 0
169 192 0
172 195 0
173 196 0
172 195 0
173 196 0
170 195 0
173 197 0
174 197 0
174 197 0
172 196 0
172 196 0
173 195 0
170 193 0
171 194 0
173 197 0
171 195 0
173 196 0
174 197 0
171 195 0
174 197 0
172 195 0
172 195 0
168 192 0
169 193 0
173 196 0
173 196 0
173 196 0
174 198 0
170 193 0
174 197 0
173 196 0
172 195 0
171 195 0
172 196 0
169 192 0
171 195 0
170 195 0
173 197 0
173 196 0
173 196 0
173 196 0
168 192 0
172 195 0
174 197 0
171 194 0
173 195 0
172 195 0
171 194 0
170 193 0
168 190 0
173 196 0
173 195 25
161 185 62
145 169 107
122 148 133
75 108 166
61 98 175
63 99 176
62 99 178
63 100 180
62 99 177
62 99 177
61 99 178
62 99 179
62 99 177
62 99 176
61 98 176
61 98 176
62 99 179
62 99 180
62 99 178
61 98 179
62 99 177
62 99 180
61 99 179
61 99 180
61 99 180
62 99 180
62 99 180
61 99 181
62 99 179
62 99 181
62 99 181
61 98 180
62 99 179
61 99 180
61 99 181
62 99 180
62 99 181
62 99 181
62 99 181
61 99 181
61 98 180
62 99 181
61 99 181
62 99 181
62 99 180
62 99 180
62 99 181
62 99 181
61 99 180
62 99 181
61 99 181
62 99 181
62 99 181
61 99 180
61 99 181
61 99 181
61 99 181
61 99 181
62 99 181
61 98 181
61 98 181
61 99 181
61 99 181
61 99 181
62 99 181
61 98 181
62 99 181
61 99 180
61 98 181
61 98 181
62 99 181
61 99 181
62 99 181
61 99 180
61 99 181
62 99 181
62 99 181
61 99 181
62 99 180
62 99 181
61 99 181
61 99 181
62 99 180
62 99 181
62 99 181
62 99 180
62 99 181
61 98 181
62 99 180
62 99 179
62 99 180
61 99 181
62 99 180
61 99 181
61 99 181
62 99 180
61 98 178
62 99 180
62 99 178
62 99 179
62 99 180
62 99 181
62 99 177
62 99 179
62 99 179
62 98 176
62 99 177
62 99 176
61 98 177
62 99 179
62 99 178
63 99 179
62 99 179
62 98 176
61 98 174
61 98 176
62 98 175
61 96 169
61 97 173
61 97 173
61 98 177
60 96 170
71 101 164
92 111 147
114 129 131
129 137 97
144 150 78
142 145 66
137 140 60
142 141 65
142 140 72
138 133 78
126 122 71
124 119 67
130 127 77
125 122 75
127 125 81
129 127 77
135 131 81
126 123 79
121 120 79
129 127 85
122 120 77
124 122 80
138 137 90
130 128 82
124 123 81
140 137 90
142 140 91
124 123 81
138 136 90
138 136 89
140 138 93
126 125 84
127 127 88
129 130 90
132 131 89
137 136 91
136 136 94
141 140 94
141 141 98
137 137 95
137 137 94
142 141 97
150 148 100
140 139 96
152 150 102
153 150 103
152 150 103
150 148 101
150 149 100
155 153 102
147 145 98
151 150 102
139 138 94
149 148 101
152 151 101
157 155 104
155 153 104
156 153 102
161 158 104
162 159 106
166 163 107
164 161 107
163 160 105
167 163 108
162 158 104
166 162 109
161 159 104
164 160 106
169 166 110
169 165 109
166 163 106
170 166 109
166 163 108
170 166 106
170 166 110
170 167 109
170 166 106
164 161 107
171 167 109
170 167 108
170 167 109
172 167 108
173 169 110
172 168 108
173 169 109
174 170 110
176 171 111
173 169 112
174 169 110
176 171 112
173 169 108
175 170 110
176 171 111
177 171 110
171 167 107
172 167 105
174 169 107
174 169 110
175 171 110
176 170 109
172 167 103
170 165 106
175 170 109
174 169 108
172 167 106
177 172 110
174 169 108
175 169 108
166 163 104
172 168 108
167 163 104
168 163 104
171 166 107
171 166 104
169 165 104
173 169 108
173 167 106
170 165 103
171 166 103
165 161 101
166 161 102
169 164 101
170 165 105
171 165 104
162 156 97
164 158 97
164 159 93
163 158 96
173 166 104
172 165 104
165 160 103
167 161 99
169 163 99
159 154 93
160 154 94
165 160 95
160 155 93
166 160 99
154 149 91
159 152 87
161 153 86
157 152 90
165 158 95
156 150 85
158 152 87
153 147 83
148 142 76
156 150 86
154 148 83
148 142 75
148 142 82
145 140 76
157 151 82
141 136 72
152 149 76
161 156 86
145 147 52
156 160 63
151 158 56
159 172 44
158 170 45
158 172 44
166 184 25
168 186 32
171 191 19
172 195 11
174 196 0
174 198 0
174 198 0
172 196 0
172 196 0
173 197 0
173 197 0
174 197 0
173 197 0
174 197 0
172 196 0
173 197 0
176 199 0
173 196 0
171 196 0
173 196 0
172 196 0
174 197 0
175 198 0
170 194 0
173 197 0
174 197 0
175 197 0
173 196 0
173 197 0
174 197 0
174 198 0
172 196 0
174 197 0
173 197 0
174 197 0
174 197 0
173 197 0
173 197 0
170 194 0
173 197 0
175 198 0
174 197 0
173 196 0
172 195 0
174 197 0
172 196 0
172 195 0
168 191 0
174 196 0
171 195 0
173 196 0
172 195 0
172 195 0
173 197 0
174 197 0
172 195 0
171 195 0
171 194 0
175 198 0
173 196 0
172 196 0
174 197 0
171 196 0
172 195 0
172 195 0
171 195 0
172 195 0
174 197 0
174 197 0
175 197 0
175 198 0
174 198 0
171 194 0
172 195 0
173 197 0
172 195 0
174 197 0
175 198 0
172 195 0
171 195 0
172 196 0
175 198 0
171 194 0
168 191 0
172 194 0
173 197 0
171 195 0
173 196 0
170 193 0
173 196 0
173 197 0
172 195 0
172 195 0
170 194 0
171 195 0
172 196 0
173 196 0
172 195 0
172 196 0
172 195 0
172 195 0
174 197 0
174 197 0
173 196 0
174 197 0
172 195 0
172 195 0
171 194 0
169 192 0
168 192 0
170 193 0
172 196 0
172 195 0
173 196 0
168 191 18
161 186 62
148 173 94
116 142 131
86 117 162
63 99 178
62 99 176
62 99 175
62 99 178
62 99 177
62 99 178
62 99 176
62 99 176
62 99 180
63 100 180
62 99 181
62 99 177
62 99 178
62 99 181
62 99 180
61 98 179
62 99 179
61 99 178
62 99 181
62 99 180
62 99 179
62 99 178
62 99 181
62 99 179
62 99 180
62 99 181
62 99 181
62 99 181
61 98 180
62 99 181
62 99 180
61 99 180
61 99 181
61 99 181
61 99 181
61 99 181
62 99 180
62 99 181
61 99 180
62 99 181
62 99 181
62 99 180
62 99 181
62 99 181
62 99 181
63 100 181
62 99 181
61 98 181
62 99 181
61 99 181
62 99 181
62 99 181
62 99 181
62 99 180
62 99 181
61 98 180
62 99 181
62 99 181
61 99 181
61 99 181
61 99 180
62 99 181
61 99 180
62 99 180
61 98 180
62 99 181
61 99 181
62 99 180
62 99 181
62 99 180
62 99 181
61 99 179
61 99 181
62 99 181
61 99 181
61 99 180
62 99 181
61 99 180
62 99 181
62 99 179
62 99 180
62 99 181
62 99 180
62 99 180
62 99 181
61 99 178
62 99 180
62 99 181
62 99 181
61 98 179
62 99 177
62 99 181
61 98 179
61 98 178
61 98 176
61 98 176
62 99 179
62 99 180
62 99 180
61 98 177
62 99 178
61 98 176
62 99 178
62 99 177
62 98 176
61 98 173
62 99 180
61 98 175
62 99 176
61 97 174
63 99 175
61 99 180
61 98 177
62 98 176
62 98 177
62 98 176
62 98 176
61 97 174
61 96 172
61 97 171
66 97 164
97 114 146
109 120 106
125 134 105
133 139 68
139 141 66
132 133 61
139 136 73
123 120 67
127 123 68
123 120 70
130 127 74
127 123 75
137 134 82
135 133 81
125 123 77
120 118 73
130 126 78
128 125 81
136 133 84
120 119 75
125 123 79
129 128 84
123 122 82
143 140 91
124 124 86
131 130 87
126 126 88
127 126 81
128 129 88
137 136 91
128 128 90
130 130 90
137 136 90
133 133 90
134 133 91
142 140 95
147 145 98
132 131 91
144 142 97
144 143 97
144 142 96
143 142 97
134 134 93
140 140 98
141 141 98
144 143 98
150 148 100
150 149 101
149 147 99
146 144 99
151 149 100
150 148 100
149 148 102
159 156 106
155 154 104
163 160 106
158 155 103
162 161 107
160 158 105
158 156 105
160 157 104
162 158 105
168 164 110
165 162 108
165 161 107
164 162 107
165 163 107
166 164 109
165 162 105
165 161 106
169 165 107
169 165 106
169 165 107
171 167 107
170 167 108
170 167 108
170 166 109
172 167 107
171 167 110
173 169 109
172 168 107
172 167 108
172 168 109
171 167 110
174 169 109
175 170 108
176 171 109
173 169 110
172 169 110
173 169 109
173 169 107
175 170 108
171 166 106
174 168 108
171 168 108
172 168 104
175 170 106
175 170 109
171 166 104
173 169 110
173 168 105
176 171 110
171 167 108
171 166 104
174 169 108
174 169 109
173 169 107
170 166 103
173 168 103
171 166 105
177 170 108
168 163 103
175 169 108
171 166 103
174 168 107
169 164 99
173 168 108
172 167 101
168 163 99
165 161 103
174 168 103
171 165 103
172 165 103
166 159 98
168 162 101
163 157 94
160 155 95
162 158 97
162 156 96
162 157 97
161 156 92
161 155 90
168 162 98
159 153 89
168 162 97
167 160 97
166 160 94
169 162 97
157 151 87
154 149 90
165 158 92
156 150 86
164 156 93
157 151 84
156 151 93
153 148 85
150 146 84
145 138 76
149 143 80
149 143 76
155 148 80
149 143 73
140 136 69
151 146 74
146 150 61
148 154 54
146 155 42
157 164 58
154 165 45
166 181 44
165 182 30
170 186 39
170 190 19
172 193 19
173 195 11
173 195 0
174 197 0
174 197 0
171 195 0
174 197 0
174 197 0
173 197 0
172 196 0
174 197 0
174 197 0
174 198 0
172 195 0
170 195 0
175 198 0
174 197 0
173 197 0
173 196 0
172 195 0
176 199 0
172 196 0
171 195 0
172 196 0
170 194 0
172 195 0
175 198 0
173 197 0
173 196 0
172 196 0
171 195 0
171 195 0
171 195 0
173 196 0
173 196 0
172 195 0
173 196 0
174 197 0
171 195 0
173 197 0
170 195 0
174 197 0
171 194 0
171 195 0
171 194 0
170 194 0
172 195 0
173 197 0
170 194 0
173 196 0
173 196 0
172 195 0
172 196 0
174 197 0
170 193 0
173 197 0
174 197 0
174 197 0
173 197 0
174 197 0
173 196 0
173 196 0
173 197 0
170 194 0
170 194 0
177 199 0
173 196 0
172 195 0
173 197 0
173 196 0
173 196 0
173 197 0
173 197 0
169 193 0
171 195 0
173 196 0
170 193 0
174 197 0
173 196 0
173 196 0
173 196 0
172 196 0
174 198 0
170 194 0
174 197 0
172 196 0
173 196 0
171 194 0
175 197 0
173 195 0
172 194 0
172 195 0
171 194 0
171 195 0
172 195 0
172 196 0
173 196 0
174 197 0
172 195 0
172 194 0
174 196 0
173 196 0
172 196 0
173 197 0
169 193 0
169 193 0
173 196 0
171 195 0
173 197 0
170 193 0
171 194 0
164 188 51
142 166 108
115 142 130
65 101 174
62 99 175
62 99 175
62 99 176
62 99 174
62 99 176
62 99 179
62 99 180
62 99 174
62 99 177
62 99 178
62 99 179
62 99 178
62 99 177
62 99 180
62 99 177
62 99 180
62 99 181
62 99 179
61 99 180
62 99 181
61 98 180
61 99 180
61 99 178
63 100 181
62 99 179
62 99 181
62 99 181
62 99 179
62 99 180
62 99 181
62 99 181
62 99 181
62 99 181
61 99 181
62 99 181
61 99 180
62 99 181
62 99 181
62 99 181
61 99 181
62 99 181
62 99 181
61 98 180
61 99 181
62 99 180
61 99 180
61 99 181
62 99 181
61 99 181
62 99 181
62 99 181
62 99 181
61 99 181
61 99 181
61 99 181
62 99 180
62 99 181
62 99 181
62 99 180
61 98 181
61 99 180
62 99 178
62 99 180
62 99 181
62 99 181
62 99 181
61 99 181
62 99 181
62 99 181
62 99 181
61 99 181
61 99 179
61 99 180
62 99 181
62 99 181
62 99 179
62 99 179
62 99 179
62 99 181
62 99 180
61 99 181
62 99 178
62 99 181
62 99 179
62 99 181
62 99 180
62 99 179
62 99 181
62 99 181
62 99 180
61 99 178
62 99 178
62 99 179
62 99 179
61 99 180
62 99 179
61 98 179
61 98 179
61 98 176
62 99 179
62 98 178
61 98 175
62 99 178
62 99 177
63 100 180
62 99 175
61 98 175
61 98 169
61 98 174
61 98 176
62 99 175
61 98 176
61 98 176
61 97 171
62 98 172
61 98 171
61 98 175
62 98 176
61 97 170
61 97 171
61 96 171
61 97 173
63 97 168
93 112 149
107 117 133
126 135 109
139 142 80
130 130 65
135 134 72
124 121 60
137 134 72
135 132 75
130 127 75
129 126 77
132 129 80
128 124 75
124 121 76
121 120 73
130 126 80
131 129 85
128 126 84
138 135 89
132 130 83
132 130 86
124 123 82
119 120 83
120 121 84
135 134 91
132 131 91
129 129 89
133 131 87
117 117 82
127 126 87
127 127 88
134 133 92
128 128 89
126 126 87
141 139 94
132 132 90
126 127 88
129 130 92
138 137 92
140 139 95
140 139 95
138 138 96
146 145 98
146 144 97
148 147 101
148 147 100
144 143 96
152 150 102
155 153 103
147 145 98
153 151 103
157 154 103
152 150 102
157 154 102
154 151 99
167 164 108
163 159 106
159 157 105
167 163 106
166 163 107
163 160 106
159 157 104
159 157 104
165 161 105
163 160 105
164 161 107
169 165 107
169 165 108
166 163 106
165 162 105
172 167 108
170 166 108
169 165 107
173 169 109
168 165 107
171 167 109
172 168 110
169 166 108
170 167 108
171 168 108
175 170 109
175 169 105
171 166 107
171 168 109
175 171 109
174 169 111
172 168 108
174 169 108
174 169 110
173 168 108
173 168 107
174 169 108
172 168 106
173 167 105
171 167 107
175 170 110
176 170 108
177 172 110
175 170 108
174 169 105
175 169 108
176 170 106
169 164 104
175 169 108
169 165 103
171 167 108
179 172 110
175 169 108
172 167 106
173 167 105
169 164 102
170 165 101
171 166 103
170 164 105
170 165 105
170 164 100
168 162 100
166 161 99
167 162 101
173 167 103
165 159 99
168 162 102
168 161 99
169 163 100
167 162 102
158 153 92
162 156 95
164 158 98
166 160 96
158 152 92
170 165 103
166 161 95
162 157 93
165 159 94
159 153 90
158 153 93
158 152 87
168 162 95
164 157 93
152 147 77
156 150 88
157 151 91
156 150 87
150 144 81
145 140 80
149 144 80
150 143 81
139 134 72
141 136 75
147 141 75
137 132 68
141 138 70
152 148 69
152 150 74
151 155 61
145 152 53
157 167 53
153 168 36
158 171 41
158 173 34
162 179 28
165 185 22
172 193 22
174 197 11
174 197 0
170 194 0
173 197 0
174 197 0
173 196 0
172 196 0
175 198 0
174 197 0
173 196 0
174 197 0
172 196 0
174 197 0
173 196 0
172 196 0
173 197 0
173 197 0
175 198 0
173 197 0
175 198 0
173 196 0
174 197 0
174 197 0
172 196 0
173 196 0
173 196 0
173 196 0
175 198 0
173 197 0
173 196 0
172 195 0
174 198 0
172 196 0
173 197 0
173 197 0
173 197 0
171 194 0
174 197 0
174 197 0
172 195 0
174 197 0
172 196 0
172 196 0
173 197 0
171 194 0
173 196 0
172 196 0
171 195 0
172 195 0
173 196 0
172 196 0
172 196 0
171 195 0
174 197 0
172 195 0
172 195 0
173 197 0
172 196 0
171 195 0
173 196 0
171 194 0
174 197 0
173 196 0
174 197 0
171 195 0
172 196 0
170 193 0
172 196 0
172 196 0
172 196 0
172 196 0
173 196 0
171 195 0
172 195 0
172 195 0
172 196 0
170 193 0
172 196 0
172 195 0
173 196 0
173 195 0
173 196 0
174 197 0
172 195 0
171 195 0
171 195 0
173 196 0
173 197 0
171 194 0
173 196 0
171 195 0
171 195 0
171 193 0
171 195 0
171 195 0
171 194 0
171 194 0
174 198 0
172 196 0
175 198 0
170 193 0
170 192 0
172 196 0
167 190 0
174 197 0
173 195 0
172 195 0
170 193 0
174 197 0
167 189 54
143 167 100
114 141 140
73 107 164
62 99 176
61 98 171
62 99 176
62 99 173
61 98 172
62 99 178
62 99 175
62 99 179
62 99 177
62 99 179
62 99 178
62 99 180
61 98 177
61 98 178
62 99 180
62 99 175
62 99 179
62 99 180
62 99 180
62 99 179
62 99 181
62 99 180
61 99 181
62 99 180
62 99 179
62 99 180
62 100 181
62 99 180
62 99 180
61 99 181
62 99 180
62 99 180
61 99 181
61 98 180
61 99 179
61 99 181
62 99 181
62 99 181
61 98 180
62 99 181
62 99 181
61 99 181
61 99 181
62 99 181
61 99 181
62 99 181
61 99 181
62 99 181
62 99 181
62 99 181
61 99 180
61 99 181
61 99 181
62 99 181
62 99 181
62 99 181
61 99 181
62 99 181
61 98 181
62 99 181
62 99 181
62 99 181
62 99 181
62 99 181
62 99 181
61 99 181
62 99 181
62 99 180
61 99 181
62 99 180
62 99 181
62 99 181
61 99 180
62 99 181
62 99 181
62 99 181
62 99 179
61 99 180
61 99 181
61 99 181
62 99 179
62 99 179
62 99 180
62 99 181
62 99 178
62 99 180
61 99 181
62 99 179
62 99 181
62 99 180
62 99 179
61 98 178
62 99 180
62 99 180
62 99 180
62 99 180
62 99 179
62 99 177
62 99 179
62 99 180
62 99 179
62 99 179
62 99 179
62 99 178
61 97 176
63 100 181
62 98 175
61 98 176
60 97 175
62 99 177
62 98 173
62 99 176
62 99 177
62 98 177
62 98 175
61 98 177
62 98 172
62 98 173
61 97 171
62 98 176
61 97 173
62 98 175
60 96 168
61 96 168
61 94 165
86 106 150
112 121 130
122 126 99
124 125 75
130 128 74
127 123 68
118 116 64
120 117 67
128 124 73
130 128 79
133 130 78
121 119 71
125 123 76
135 131 82
119 117 74
129 126 82
118 117 77
131 129 82
129 127 84
119 118 75
129 127 81
125 125 84
128 128 85
114 114 80
125 124 85
126 126 88
130 130 89
136 134 92
131 131 92
136 135 91
139 137 93
139 137 92
130 129 87
138 137 95
135 134 92
139 138 94
138 138 94
136 135 93
135 134 91
140 139 96
146 145 99
132 132 91
149 147 98
144 143 97
145 143 95
149 147 99
148 147 99
150 148 99
153 151 101
145 144 99
157 155 104
163 160 105
156 153 103
150 147 98
155 153 103
161 157 106
158 155 102
155 153 102
159 157 105
161 158 103
158 156 104
161 158 106
167 164 107
164 160 104
163 160 105
166 162 106
166 163 108
164 162 105
167 164 105
170 167 109
171 166 105
168 164 106
167 164 109
169 166 107
173 168 109
168 165 106
167 164 108
174 169 106
170 166 106
171 166 107
171 167 108
167 164 108
173 169 107
171 166 108
172 167 108
172 168 108
172 167 106
174 169 106
172 168 109
175 171 110
176 171 108
177 171 110
176 171 110
172 167 106
176 171 108
173 169 108
175 170 109
175 170 107
176 170 106
175 169 104
175 170 108
173 168 103
174 168 106
171 166 106
170 166 106
174 169 106
169 165 106
175 169 106
171 166 103
173 168 106
170 165 103
174 168 107
174 168 105
168 163 102
167 161 99
167 162 99
161 156 92
166 160 97
169 164 100
164 159 98
166 161 100
162 156 97
161 155 93
167 161 95
174 167 104
161 155 93
167 161 96
166 160 99
155 150 90
163 157 96
167 160 98
165 159 96
162 156 91
161 154 91
153 148 87
162 157 91
161 155 90
159 153 86
156 150 88
156 150 91
160 152 92
152 146 84
161 154 91
156 150 84
154 147 84
149 142 80
160 153 89
151 145 81
153 147 80
146 141 75
144 141 68
144 141 72
144 145 66
148 152 58
146 152 60
152 161 48
158 171 39
160 174 36
163 180 28
165 181 37
172 193 19
170 192 19
171 194 0
174 198 0
173 196 0
171 195 0
172 195 0
174 197 0
174 198 0
174 198 0
173 196 0
174 197 0
171 194 0
173 196 0
172 195 0
173 197 0
171 195 0
170 194 0
174 197 0
171 195 0
174 197 0
174 197 0
173 196 0
172 196 0
173 196 0
172 196 0
174 197 0
172 195 0
170 193 0
172 196 0
174 197 0
173 196 0
174 196 0
172 195 0
172 195 0
172 195 0
175 197 0
173 196 0
170 193 0
174 197 0
171 194 0
172 196 0
172 196 0
175 198 0
173 196 0
174 197 0
172 195 0
174 196 0
174 197 0
172 195 0
173 197 0
173 197 0
174 197 0
173 197 0
173 196 0
173 196 0
174 198 0
173 196 0
173 197 0
172 195 0
174 197 0
171 195 0
175 198 0
171 195 0
173 196 0
172 195 0
170 194 0
174 198 0
173 197 0
171 195 0
173 196 0
172 196 0
174 197 0
172 196 0
174 197 0
174 197 0
172 195 0
172 196 0
173 196 0
171 194 0
172 196 0
171 195 0
173 197 0
171 195 0
172 195 0
171 194 0
173 196 0
176 198 0
173 197 0
169 192 0
171 194 0
169 192 0
168 191 0
171 194 0
169 192 0
170 193 0
172 195 0
171 194 0
171 195 0
171 193 0
171 194 0
171 194 0
171 193 0
173 195 0
171 195 0
172 195 0
172 195 0
173 196 0
173 197 0
171 195 18
167 190 44
146 171 99
113 141 142
69 104 175
62 99 176
63 100 178
62 99 178
62 99 180
62 99 177
62 99 180
62 99 178
63 100 178
63 99 179
62 99 180
62 99 178
62 99 179
62 99 179
62 99 180
62 99 180
62 99 178
62 99 181
61 98 178
62 99 180
62 99 181
61 98 179
62 99 180
62 99 181
62 99 179
62 99 181
62 99 179
62 99 181
62 99 179
63 100 180
62 99 180
61 98 180
62 99 181
62 99 180
62 99 180
62 99 181
62 99 180
62 99 180
61 98 178
62 99 181
61 99 181
61 99 180
62 99 181
63 100 180
62 99 181
62 99 181
62 99 181
61 99 181
62 99 181
62 99 181
62 99 181
61 99 181
61 99 181
62 99 181
62 99 181
62 99 181
61 99 181
61 98 181
61 99 181
62 99 181
62 99 181
62 99 181
61 99 181
61 99 181
61 99 181
62 99 181
62 99 181
62 99 180
62 99 181
62 99 181
62 99 181
61 99 180
62 99 181
62 99 181
62 99 180
61 99 181
61 99 181
62 99 181
62 99 181
62 99 181
62 99 181
61 99 180
62 99 179
61 99 181
62 99 180
62 99 180
62 99 181
61 99 180
61 99 180
62 99 181
62 99 179
62 99 180
62 99 180
61 98 179
62 99 181
62 99 181
62 99 178
61 98 177
62 99 179
62 99 178
62 99 181
62 99 176
62 99 180
61 98 178
62 99 178
62 99 178
62 99 178
62 99 175
62 99 174
62 99 178
61 97 172
62 99 178
62 98 174
61 98 177
62 98 176
62 98 177
62 99 174
61 98 176
61 98 171
61 97 171
61 97 172
61 98 176
61 97 173
61 97 172
61 97 173
61 98 171
61 97 173
65 97 163
83 105 153
105 115 122
115 120 104
123 122 80
122 119 72
131 126 70
138 133 75
125 123 71
124 122 76
124 121 78
120 119 75
124 123 76
121 119 76
125 124 79
131 128 81
121 119 78
110 111 75
117 116 78
122 121 82
129 128 83
121 120 83
130 129 88
128 128 86
133 132 88
128 127 88
127 127 88
128 128 90
123 124 87
136 135 92
123 124 86
137 136 92
133 133 93
129 129 92
132 131 90
135 135 93
130 129 89
136 136 93
137 138 94
144 143 97
142 141 97
147 145 99
143 142 97
145 144 99
150 148 100
147 146 99
142 141 95
147 146 100
146 144 97
154 152 103
145 144 98
146 144 98
155 153 102
159 156 103
155 152 101
165 161 105
158 156 104
161 159 105
165 162 108
164 160 106
156 153 102
164 161 106
162 159 105
163 160 106
163 159 102
166 163 106
168 165 106
163 161 107
171 167 109
167 162 105
168 164 105
170 166 107
173 169 107
170 166 107
171 166 105
171 167 106
172 167 108
169 165 105
173 168 110
170 166 105
176 170 107
172 167 106
173 169 106
170 166 105
175 168 106
175 169 107
177 172 112
174 170 108
175 169 108
174 168 104
177 171 111
173 169 105
175 170 105
172 168 106
173 168 108
174 169 107
174 170 107
171 167 107
176 170 105
175 170 107
174 169 108
172 167 103
176 169 108
173 168 108
169 164 101
176 170 110
170 166 103
170 164 102
171 166 103
172 166 106
171 165 102
170 165 101
173 167 106
172 166 102
169 163 103
170 164 101
169 164 102
170 164 99
168 163 97
162 158 94
174 168 104
170 164 102
167 162 101
162 157 98
164 158 96
166 162 99
164 158 97
165 160 94
163 157 90
168 161 99
162 157 91
160 155 89
156 151 88
170 163 99
158 151 89
158 152 88
163 157 89
156 150 87
158 152 88
162 156 90
158 152 82
156 150 81
156 150 81
150 144 80
157 151 83
156 150 84
146 141 75
131 126 69
144 138 75
140 134 73
134 130 64
148 143 74
149 149 64
144 143 64
158 161 61
150 159 48
159 170 45
157 168 48
165 182 28
167 184 25
166 183 34
172 193 19
171 193 0
173 197 0
170 194 0
174 197 0
176 199 0
172 196 0
174 197 0
173 197 0
174 196 0
173 197 0
172 195 0
173 196 0
173 196 0
170 194 0
171 194 0
173 196 0
173 196 0
174 197 0
172 195 0
172 196 0
173 197 0
172 195 0
173 196 0
172 196 0
173 196 0
172 195 0
173 196 0
174 197 0
174 197 0
173 197 0
173 197 0
175 198 0
172 196 0
174 197 0
174 197 0
171 194 0
170 194 0
173 197 0
172 195 0
172 195 0
173 195 0
170 194 0
173 197 0
173 197 0
172 195 0
173 197 0
172 195 0
173 196 0
172 196 0
173 197 0
172 195 0
173 196 0
173 196 0
172 196 0
173 196 0
172 195 0
174 197 0
172 196 0
171 194 0
173 196 0
171 195 0
171 195 0
171 195 0
172 195 0
172 196 0
170 194 0
172 196 0
171 195 0
174 196 0
172 195 0
171 195 0
174 197 0
172 196 0
173 196 0
173 196 0
174 197 0
172 195 0
170 194 0
170 194 0
171 195 0
172 195 0
172 195 0
172 195 0
171 194 0
170 193 0
170 195 0
173 196 0
172 196 0
172 195 0
172 194 0
172 196 0
168 192 0
171 194 0
170 193 0
170 193 0
173 196 0
169 193 0
170 194 0
174 197 0
171 194 0
171 195 0
170 193 0
171 194 0
173 196 0
172 195 0
172 196 0
173 195 18
170 193 36
150 174 95
116 142 139
77 109 162
62 99 172
62 99 180
62 99 177
62 99 175
62 99 179
62 98 174
62 99 179
62 99 176
62 99 175
62 99 177
62 99 178
62 99 178
62 99 177
62 99 178
62 99 178
62 99 181
62 99 178
62 99 179
61 99 179
62 99 180
62 99 179
62 99 181
63 99 179
62 99 179
62 99 180
62 99 180
62 99 180
61 99 180
61 99 180
62 99 180
61 99 181
62 99 180
62 99 181
62 99 181
62 99 181
62 99 180
62 99 180
62 99 181
62 99 180
62 99 180
61 98 181
62 99 181
62 99 181
61 99 181
62 99 180
62 99 181
61 99 181
62 99 181
62 99 180
61 99 181
61 98 181
62 99 181
62 99 181
62 99 181
62 99 181
62 99 181
62 99 180
61 99 181
62 99 181
61 99 181
63 99 180
62 99 181
61 99 181
62 99 181
62 99 180
62 99 181
61 99 180
62 99 181
61 99 181
61 99 181
61 99 181
62 99 181
62 99 181
62 99 180
62 99 181
62 99 181
62 99 179
61 99 180
61 99 181
62 99 181
62 99 180
61 99 179
62 99 178
62 99 180
62 99 181
62 99 180
62 99 181
62 99 181
63 100 181
63 100 181
62 99 179
61 99 180
62 99 180
61 98 178
62 99 179
62 99 179
62 99 177
62 99 181
62 99 179
62 99 178
62 99 178
62 99 179
62 99 181
61 98 175
62 99 177
61 98 177
61 99 180
62 99 176
62 99 177
61 97 175
62 98 175
62 99 179
61 98 178
62 99 176
61 98 177
62 98 174
62 99 175
62 99 176
62 99 176
62 99 178
61 98 178
61 97 175
62 98 173
61 98 175
62 98 176
61 97 170
62 97 171
61 96 166
59 94 164
86 105 148
109 116 118
108 112 102
127 124 84
115 112 67
118 116 65
125 121 73
127 124 78
123 121 75
110 108 71
114 113 71
118 117 73
125 123 77
111 111 74
111 109 72
124 123 81
128 127 86
123 122 81
123 123 84
124 124 83
127 126 81
124 124 82
125 124 87
115 116 83
126 127 88
131 131 90
136 135 94
127 128 88
135 134 92
127 127 86
121 121 84
127 128 90
132 131 92
144 142 94
133 133 91
139 137 94
140 139 96
140 139 94
139 138 94
145 143 98
143 141 97
148 146 100
141 141 97
149 148 101
141 141 95
146 144 97
155 152 101
150 148 98
155 152 102
152 151 101
153 150 99
162 159 105
157 155 103
162 159 105
160 157 103
153 152 100
159 157 102
164 160 107
155 154 102
162 159 105
162 159 104
163 159 102
170 166 107
168 164 108
169 165 108
170 165 108
168 165 109
170 165 108
171 167 107
166 163 105
170 166 109
170 166 106
176 171 108
174 168 105
173 168 108
171 167 108
169 165 107
174 169 108
172 168 107
168 164 101
168 164 104
175 170 107
171 166 103
176 171 108
172 167 108
175 170 108
175 169 108
173 168 106
177 170 108
175 170 109
173 169 104
176 170 109
174 169 106
172 168 106
174 169 107
175 170 108
173 168 108
174 169 106
174 168 104
174 169 103
174 168 103
176 170 107
171 167 104
168 163 101
175 169 105
171 166 99
167 162 97
170 165 102
172 166 104
171 165 103
170 165 102
173 166 104
169 164 101
170 165 100
168 163 98
169 164 98
169 164 97
170 164 99
167 161 96
172 165 100
167 162 99
161 156 94
170 164 97
170 165 99
168 163 94
166 159 95
159 154 95
167 162 96
154 148 88
162 155 89
167 161 94
165 158 90
155 150 90
164 158 95
163 157 93
154 148 84
157 151 85
162 155 88
162 155 93
164 158 95
153 147 84
159 153 88
148 143 75
142 136 76
150 145 80
153 146 79
138 132 75
146 139 75
151 146 75
140 136 71
154 151 71
150 156 56
140 148 47
149 160 45
152 163 45
158 174 32
158 174 32
159 175 32
171 188 37
166 186 11
169 191 11
174 198 0
174 198 0
171 194 0
173 196 0
176 199 0
174 198 0
174 197 0
174 197 0
173 197 0
176 198 0
173 196 0
172 196 0
171 194 0
172 195 0
170 195 0
173 196 0
174 198 0
172 195 0
171 194 0
171 194 0
172 195 0
171 195 0
172 196 0
175 198 0
174 197 0
174 197 0
174 197 0
171 195 0
175 198 0
173 196 0
172 196 0
173 196 0
175 198 0
173 197 0
173 196 0
175 198 0
174 197 0
173 196 0
172 196 0
171 195 0
170 194 0
169 194 0
173 197 0
175 198 0
173 196 0
171 194 0
174 198 0
174 197 0
173 196 0
169 192 0
174 198 0
175 197 0
172 195 0
173 196 0
173 196 0
172 195 0
171 195 0
171 194 0
173 196 0
172 195 0
170 193 0
173 195 0
174 197 0
172 196 0
170 194 0
175 197 0
171 195 0
175 198 0
172 195 0
173 195 0
173 196 0
174 197 0
172 195 0
171 195 0
175 198 0
172 196 0
170 193 0
173 196 0
173 196 0
170 194 0
170 193 0
170 193 0
170 192 0
175 198 0
172 195 0
172 195 0
170 193 0
175 197 0
171 193 0
172 195 0
171 195 0
173 196 0
169 192 0
172 195 0
171 194 0
173 197 0
170 194 0
175 197 0
172 195 0
170 194 0
170 194 0
173 196 0
170 194 0
171 195 0
173 196 0
168 191 31
140 164 110
125 151 124
77 110 168
62 99 174
62 98 175
62 99 173
62 98 173
62 99 171
62 99 177
62 99 178
62 99 181
62 99 178
62 98 174
63 99 179
62 99 179
62 99 180
61 98 177
62 99 179
62 99 178
62 99 179
61 98 178
61 99 179
62 99 180
62 99 178
62 99 180
62 99 180
62 99 179
62 99 179
62 99 181
62 99 179
61 98 178
62 99 179
62 99 181
61 99 181
62 99 180
62 99 180
62 99 180
61 99 181
62 99 179
62 99 181
61 98 180
61 99 180
62 99 180
62 99 181
61 98 178
61 99 181
61 99 181
61 99 181
62 99 180
61 99 181
61 99 181
61 99 180
62 99 181
62 99 181
62 99 180
62 99 181
62 99 181
62 99 181
61 99 180
61 99 180
62 99 180
62 99 181
62 99 181
62 99 180
61 99 179
62 99 180
61 98 177
62 99 181
62 99 181
62 99 180
61 99 180
62 99 181
62 99 181
62 99 181
62 99 181
61 98 181
61 99 181
62 99 181
61 98 180
61 99 181
62 99 180
62 99 180
62 99 181
62 99 180
62 99 179
62 99 179
62 99 179
62 99 180
62 99 179
61 98 179
62 99 180
62 99 181
62 99 180
62 99 181
62 99 179
61 98 180
62 99 179
62 99 180
61 98 179
62 99 178
62 99 179
62 99 179
62 99 177
61 98 178
62 99 179
62 99 179
62 99 181
62 99 180
62 99 179
62 99 176
61 99 178
62 99 177
62 99 178
62 98 175
61 98 177
62 98 175
62 99 179
62 99 176
61 98 175
62 98 175
62 98 174
62 99 176
61 98 173
62 99 175
62 98 175
62 99 179
61 97 171
61 97 170
61 97 174
61 96 166
61 97 174
61 96 167
62 99 175
59 93 160
100 113 138
99 109 122
115 116 93
120 118 73
124 121 78
130 126 73
114 113 73
118 117 74
123 120 70
119 118 72
107 107 68
118 117 75
113 113 73
118 118 77
124 124 83
122 122 81
123 123 81
113 113 80
115 115 77
122 122 83
124 124 85
120 121 85
130 130 90
132 131 90
126 126 86
121 122 85
123 123 86
140 139 94
128 127 85
127 127 89
137 136 93
131 132 93
128 129 90
126 127 89
143 142 97
140 140 97
139 137 93
140 140 96
147 146 97
147 145 99
148 147 100
150 148 99
143 142 96
143 142 97
140 140 96
153 151 100
150 149 102
157 155 99
154 152 101
151 149 98
149 148 100
158 155 101
153 151 100
162 159 105
163 159 105
159 156 104
158 155 100
161 158 104
158 155 104
161 159 104
162 158 105
163 160 100
162 159 102
163 160 104
168 164 105
165 161 103
169 163 105
167 163 107
165 162 105
169 165 102
166 164 107
168 164 105
170 166 108
170 166 104
171 167 108
174 169 106
173 169 108
170 166 106
175 169 105
174 169 107
175 171 110
172 167 108
174 169 106
172 167 106
172 167 102
175 170 108
175 170 106
173 168 104
171 166 101
174 169 105
173 168 104
176 171 109
175 170 105
174 169 109
171 167 104
174 169 106
173 168 107
171 166 106
176 171 109
172 167 104
175 169 104
173 168 107
170 165 104
174 169 106
173 168 107
170 165 101
172 167 101
173 167 103
172 166 101
168 163 101
171 166 99
168 163 99
170 164 101
166 162 95
171 166 101
158 153 93
169 163 95
170 164 99
164 159 97
171 165 102
164 159 95
163 158 95
173 166 99
170 163 101
172 165 99
165 159 95
165 160 99
163 157 95
167 160 94
162 156 91
159 153 88
170 163 95
161 155 90
160 154 91
163 157 91
151 144 87
156 151 88
158 151 84
159 152 88
159 152 83
152 147 77
152 146 80
149 144 78
145 140 75
147 142 76
141 136 70
141 136 65
139 133 68
141 139 65
143 144 59
146 148 63
149 155 57
152 161 44
158 169 53
163 173 52
160 174 37
159 176 30
169 189 25
169 192 0
166 188 11
173 196 0
170 193 0
174 197 0
173 196 0
171 195 0
172 195 0
172 196 0
171 195 0
172 196 0
173 196 0
172 195 0
173 197 0
171 194 0
173 196 0
170 194 0
175 198 0
173 196 0
173 196 0
173 196 0
173 196 0
169 193 0
172 195 0
175 197 0
172 196 0
173 197 0
170 194 0
172 195 0
172 195 0
174 197 0
172 195 0
174 197 0
173 196 0
172 195 0
175 198 0
169 193 0
175 197 0
173 197 0
171 195 0
171 195 0
174 197 0
170 194 0
171 194 0
174 197 0
172 196 0
175 198 0
173 196 0
172 196 0
173 196 0
171 194 0
174 197 0
172 196 0
174 197 0
171 195 0
172 195 0
172 196 0
172 195 0
176 198 0
172 195 0
171 194 0
174 197 0
173 196 0
174 197 0
170 194 0
173 196 0
172 195 0
174 197 0
174 197 0
171 194 0
173 197 0
173 197 0
173 197 0
171 195 0
172 196 0
171 194 0
171 195 0
172 196 0
174 197 0
170 193 0
170 193 0
175 198 0
172 196 0
173 197 0
173 196 0
171 195 0
173 196 0
175 197 0
170 193 0
171 194 0
173 195 0
170 192 0
170 193 0
172 195 0
171 195 0
171 195 0
170 194 0
173 196 0
169 192 0
171 194 0
172 195 0
171 195 0
170 194 0
173 197 0
170 194 0
170 194 0
167 190 44
159 183 65
119 146 134
83 114 158
62 99 176
62 99 174
62 99 176
62 99 175
62 99 177
62 99 175
62 99 174
62 99 175
62 99 179
62 99 179
62 99 175
62 99 178
62 99 176
62 99 179
62 99 177
62 99 177
62 99 178
62 99 179
62 99 181
62 99 180
62 99 177
62 99 181
61 99 179
62 99 180
62 99 180
62 99 180
62 99 180
62 99 181
62 99 181
62 99 180
62 99 180
62 99 180
61 99 181
62 99 180
62 99 181
62 99 181
62 99 180
62 99 179
61 99 180
62 99 181
62 99 181
62 99 181
61 99 181
62 99 181
62 99 181
62 99 181
62 99 180
62 99 181
62 99 181
61 99 181
62 99 181
61 99 181
62 99 181
62 99 180
61 99 180
62 99 181
61 99 180
62 99 181
62 99 181
62 99 178
62 99 181
62 99 181
61 99 180
62 99 181
62 99 180
62 99 180
62 99 181
62 99 180
62 99 180
61 99 181
62 99 181
62 99 181
62 99 181
61 99 180
62 99 178
61 98 180
61 99 180
62 99 181
61 99 180
61 98 179
62 99 179
62 99 179
62 99 180
61 99 181
62 99 177
62 99 181
62 99 181
61 99 179
61 98 179
62 99 181
62 99 179
62 99 181
63 100 180
62 99 180
62 99 178
62 99 178
62 99 178
62 99 179
61 98 178
62 99 176
63 100 180
62 99 180
61 98 178
61 99 179
61 98 176
62 99 178
63 99 176
62 98 176
62 99 175
62 99 177
62 99 177
63 99 177
62 98 174
62 99 178
61 98 177
61 97 174
62 99 176
62 99 178
62 98 174
62 98 174
63 99 176
62 98 173
62 99 172
62 98 176
61 98 176
61 97 170
62 98 169
61 97 170
61 97 172
60 95 167
61 97 168
61 96 170
70 99 162
86 105 147
106 114 115
128 128 93
132 129 84
123 121 69
121 118 72
121 118 68
115 114 71
115 114 70
112 113 72
115 113 71
111 111 72
112 114 78
115 115 77
117 117 76
135 134 89
119 119 82
116 115 76
116 117 79
126 124 84
133 132 92
126 126 88
118 118 80
120 121 82
123 123 86
127 127 88
115 117 81
116 118 82
133 132 89
124 124 84
137 136 94
143 142 97
128 129 91
120 120 82
133 134 93
138 138 94
140 140 98
141 141 97
147 146 99
152 150 99
140 139 96
147 146 97
152 149 101
147 145 98
147 145 98
149 147 99
152 149 100
150 148 99
148 147 98
152 150 99
151 150 99
154 153 100
159 156 101
154 152 101
156 154 103
164 161 105
157 154 100
158 156 103
167 164 107
159 155 102
164 161 104
165 161 104
161 159 107
165 162 102
168 164 106
159 157 104
171 167 108
167 163 106
167 163 105
171 166 107
170 165 104
171 166 106
170 166 107
170 166 105
173 169 109
174 169 108
172 167 104
173 168 106
173 168 104
175 170 104
170 166 104
176 170 106
174 169 105
173 168 106
173 168 105
177 171 108
173 168 107
172 168 105
175 170 105
175 170 108
177 172 110
172 167 104
173 168 106
174 169 103
173 168 105
175 170 108
176 170 107
172 168 105
175 169 106
173 168 103
175 170 103
171 166 100
169 164 101
173 167 103
167 162 99
171 166 101
175 169 104
171 166 102
171 166 101
173 167 104
168 162 98
173 166 103
165 160 97
167 162 99
170 164 103
170 164 99
169 164 99
167 161 99
164 158 93
171 165 98
161 157 95
167 161 97
159 154 95
157 151 89
166 159 99
164 158 93
163 158 93
164 158 92
169 162 96
156 151 90
156 150 84
160 154 90
161 155 93
160 155 89
154 148 84
162 156 90
154 148 82
152 146 80
161 155 86
148 142 77
156 149 81
155 149 83
152 146 78
150 143 79
155 148 75
146 141 65
134 129 73
148 146 79
154 150 76
150 152 56
149 153 54
154 163 54
158 169 47
159 171 47
161 176 22
165 183 32
165 186 19
170 191 16
174 195 11
176 198 0
173 197 0
172 195 0
174 197 0
172 195 0
170 194 0
172 196 0
173 197 0
173 196 0
174 197 0
173 197 0
174 197 0
173 197 0
172 196 0
174 197 0
174 197 0
174 198 0
173 197 0
173 197 0
174 197 0
173 196 0
172 196 0
173 197 0
173 197 0
174 198 0
172 196 0
172 195 0
171 194 0
173 197 0
171 194 0
173 196 0
173 197 0
174 197 0
172 195 0
173 197 0
173 197 0
174 198 0
174 197 0
171 195 0
173 196 0
172 195 0
173 196 0
171 195 0
172 196 0
171 194 0
171 194 0
172 195 0
173 197 0
174 197 0
172 195 0
172 196 0
173 197 0
171 194 0
171 194 0
173 196 0
173 196 0
174 198 0
169 192 0
170 195 0
171 194 0
173 197 0
173 196 0
172 196 0
173 197 0
172 196 0
171 194 0
172 196 0
171 195 0
167 191 0
170 193 0
171 194 0
174 197 0
172 195 0
172 195 0
173 196 0
173 196 0
172 195 0
172 195 0
173 197 0
172 196 0
173 196 0
173 197 0
169 193 0
172 196 0
173 196 0
174 196 0
172 195 0
169 193 0
173 196 0
172 195 0
171 195 0
175 197 0
171 195 0
172 195 0
171 194 0
169 193 0
173 196 0
174 197 0
174 197 0
172 195 0
174 197 0
174 197 0
171 193 0
168 192 36
154 178 78
129 155 120
85 117 162
62 99 172
62 99 176
63 100 177
62 99 175
62 99 174
63 100 178
62 99 177
62 99 174
63 100 180
62 99 176
62 99 179
62 99 177
62 99 178
61 99 180
62 99 176
62 99 177
62 99 180
62 99 181
62 99 180
62 99 181
62 99 179
62 99 176
62 99 179
62 99 181
62 99 181
63 99 179
62 99 179
62 99 181
62 99 181
62 99 181
62 99 181
62 99 180
62 99 180
62 99 181
62 99 181
62 99 179
61 98 179
62 99 180
62 99 179
62 99 181
62 99 181
62 99 180
62 99 180
61 99 181
62 99 180
62 99 181
62 99 181
62 99 181
62 99 179
62 99 180
61 98 180
62 99 181
61 98 179
61 98 180
62 99 181
62 99 181
62 99 181
61 99 181
62 99 181
62 99 180
61 99 181
62 99 181
62 99 179
62 99 181
62 99 181
62 99 181
62 99 179
61 98 180
62 99 181
62 99 179
62 99 180
62 99 181
62 99 181
62 99 180
62 99 179
62 99 180
61 99 181
61 98 180
62 99 181
62 99 179
61 99 179
61 99 181
62 99 181
62 99 179
61 98 179
62 99 178
62 99 181
62 99 180
62 99 181
62 99 179
61 99 179
62 99 179
62 99 181
61 98 178
62 99 181
62 99 179
62 99 176
61 99 180
62 99 180
62 99 178
61 98 175
61 99 178
62 99 179
62 99 179
61 99 179
62 99 179
62 99 177
62 99 180
62 99 178
62 99 178
62 99 178
62 99 179
62 99 177
62 99 178
61 98 175
62 99 173
62 99 175
61 98 174
62 98 174
62 98 172
61 98 174
62 98 172
62 99 176
61 98 174
61 97 170
61 97 175
62 99 175
61 97 174
62 98 172
62 98 174
60 95 169
62 98 174
62 97 171
60 95 165
68 98 159
89 106 144
100 110 126
119 119 81
135 132 82
121 118 71
123 120 70
117 116 73
114 113 70
119 118 72
117 115 72
110 109 72
106 106 72
114 114 77
114 113 74
124 123 81
119 117 79
109 109 74
102 105 75
113 113 79
116 118 84
117 118 82
119 119 83
124 125 88
122 123 84
121 122 85
127 127 90
114 116 84
121 121 82
132 131 89
128 128 90
135 135 94
139 138 95
135 135 92
132 132 92
136 136 93
130 131 91
150 148 99
137 137 96
147 146 98
143 142 96
135 135 94
143 142 98
148 146 99
146 145 98
146 144 95
146 145 99
142 141 95
146 144 98
144 142 93
153 152 102
154 152 101
152 150 99
154 152 99
166 162 104
160 157 104
160 157 103
166 163 104
161 158 101
163 160 104
167 163 108
164 160 104
164 161 105
166 163 105
164 161 104
167 163 104
166 161 103
168 165 106
169 165 104
169 165 104
166 162 102
170 166 107
168 164 102
172 167 103
172 167 106
170 166 108
171 167 105
173 168 106
173 168 106
171 166 104
175 170 107
173 169 110
171 166 104
173 168 103
174 170 108
176 170 106
177 171 107
174 169 107
176 170 108
177 171 108
175 169 106
177 172 109
177 171 106
174 168 106
177 171 105
173 168 108
170 165 103
173 168 101
173 167 104
174 168 104
174 168 107
171 167 103
172 166 103
170 166 99
172 166 103
171 166 101
170 165 100
174 167 101
171 166 104
166 162 100
163 159 96
168 163 98
165 161 95
167 162 97
171 165 101
165 160 91
167 161 99
171 165 99
168 162 97
161 155 90
169 162 97
171 165 98
161 154 90
171 165 103
158 154 90
167 161 95
170 163 96
167 160 97
162 156 92
165 159 95
161 154 91
155 149 87
156 150 86
161 155 93
152 147 80
159 153 85
155 150 86
159 152 90
148 143 75
155 149 84
152 147 80
149 143 78
147 141 78
143 138 76
144 138 75
149 144 78
145 138 76
143 139 68
146 147 65
149 153 60
151 155 58
157 163 56
163 173 54
158 173 32
159 172 34
165 181 39
164 181 25
167 188 16
172 195 0
173 197 0
173 196 0
173 197 0
174 196 0
173 197 0
172 195 0
171 195 0
171 195 0
174 197 0
172 196 0
174 198 0
173 196 0
172 196 0
172 196 0
173 196 0
174 197 0
173 196 0
173 197 0
171 196 0
172 196 0
173 197 0
174 197 0
170 193 0
173 196 0
170 194 0
173 196 0
174 197 0
173 197 0
170 194 0
175 197 0
171 195 0
173 196 0
174 197 0
174 197 0
173 197 0
170 194 0
173 196 0
170 194 0
174 197 0
171 195 0
172 196 0
173 196 0
172 195 0
173 197 0
175 197 0
172 195 0
171 195 0
172 196 0
174 197 0
175 197 0
174 196 0
171 195 0
174 197 0
172 195 0
171 195 0
173 196 0
174 197 0
173 196 0
170 193 0
174 197 0
172 195 0
172 196 0
171 196 0
173 195 0
171 195 0
170 195 0
172 195 0
172 195 0
174 197 0
173 196 0
172 196 0
173 196 0
172 195 0
170 193 0
173 196 0
174 197 0
173 196 0
171 195 0
172 195 0
173 196 0
172 196 0
170 194 0
172 195 0
167 190 0
171 195 0
172 196 0
169 193 0
174 197 0
173 196 0
172 195 0
171 194 0
169 192 0
171 194 0
172 195 0
172 194 0
170 194 0
172 194 0
174 197 0
170 193 0
173 196 0
170 193 0
172 195 0
171 195 18
163 187 47
129 154 118
101 129 144
64 100 170
62 99 175
62 99 173
63 99 173
62 99 176
62 99 173
62 99 174
62 99 176
62 99 176
62 99 179
62 99 176
62 99 177
62 99 177
61 98 173
62 99 179
62 99 181
62 99 177
61 99 177
62 99 178
62 99 180
62 99 181
62 99 180
62 99 181
62 99 180
62 99 178
62 99 180
62 99 180
62 99 180
62 99 181
62 99 180
62 99 181
62 99 179
62 99 179
61 99 181
61 98 179
62 99 181
62 99 181
62 99 181
62 99 180
62 99 180
62 99 180
63 100 181
62 99 181
62 99 181
62 99 181
62 99 181
62 99 181
62 99 181
62 99 181
61 98 181
62 99 181
62 99 181
62 99 181
62 99 181
62 99 180
62 99 181
62 99 181
61 98 179
61 99 181
62 99 181
61 99 179
62 99 181
62 99 179
62 99 181
62 99 180
62 99 179
61 99 180
63 100 181
61 99 181
62 99 181
62 99 181
62 99 179
61 99 179
62 99 181
61 98 179
62 99 181
62 99 180
62 99 180
62 99 180
61 99 180
62 99 180
62 99 181
62 99 181
61 99 180
62 99 181
62 99 178
62 99 180
61 99 180
62 99 181
62 99 180
62 99 179
62 99 180
61 99 178
61 99 179
62 99 179
62 99 178
62 99 176
62 99 179
62 99 179
61 99 179
61 98 177
62 99 179
62 99 178
62 99 180
62 99 176
62 99 178
61 98 174
61 99 180
62 99 179
62 99 179
62 99 178
61 98 178
61 98 175
62 98 176
62 99 176
61 98 176
62 98 178
62 99 173
61 98 176
62 98 172
62 99 179
62 99 176
61 98 175
62 98 172
62 98 175
62 98 174
61 97 167
62 98 174
61 97 174
62 98 171
61 97 168
61 97 169
61 97 172
60 95 166
60 96 169
61 96 165
72 99 157
79 96 128
106 111 105
115 116 89
123 120 72
112 112 73
113 113 71
124 122 80
109 108 74
117 116 73
108 109 69
111 110 73
114 115 77
107 108 75
114 115 75
112 113 79
111 112 79
106 108 74
112 112 79
118 118 81
120 121 84
110 110 76
117 119 84
113 115 80
123 123 85
126 126 85
130 128 87
128 129 88
123 124 85
122 123 85
131 131 89
130 131 91
134 134 91
129 130 92
129 129 90
137 138 95
131 131 90
131 132 91
138 138 95
133 134 92
138 138 95
150 148 99
144 142 94
148 147 100
148 147 101
157 155 103
154 152 100
143 143 96
153 152 100
157 155 100
159 156 101
156 154 102
155 153 99
155 154 102
156 154 99
163 158 102
160 158 105
162 158 102
161 159 103
160 157 102
167 163 106
160 157 101
164 160 103
170 166 108
168 163 107
170 166 107
168 164 108
168 164 107
171 167 107
166 163 104
166 162 103
170 165 105
168 164 103
172 167 106
170 166 103
173 168 106
172 169 110
173 168 103
172 167 105
174 169 105
177 171 106
174 168 104
174 169 105
173 167 103
174 169 107
173 167 100
174 169 104
175 169 103
173 169 105
175 169 103
175 170 106
173 168 102
174 169 104
172 167 103
173 167 100
174 168 106
172 168 107
171 166 100
169 164 97
175 169 103
173 168 105
178 172 105
173 167 102
172 166 103
176 169 105
172 166 104
173 167 104
174 167 100
171 164 101
172 166 101
175 169 107
164 159 95
171 165 103
170 164 99
173 167 103
163 158 95
170 164 95
170 164 101
167 161 96
167 160 96
167 161 95
166 159 95
168 161 93
166 159 95
166 160 91
166 160 95
167 162 97
158 152 89
163 156 93
163 156 87
151 145 81
170 162 92
166 161 91
153 147 83
158 152 90
156 150 81
161 155 85
164 156 88
149 142 82
151 145 79
149 143 83
152 145 80
152 146 84
140 134 69
148 142 75
141 135 67
143 141 67
148 147 70
146 147 64
147 148 58
152 159 53
156 165 54
155 168 39
154 169 37
165 183 28
165 184 22
166 184 25
174 195 19
174 197 0
172 196 0
174 197 0
173 197 0
173 196 0
174 197 0
175 198 0
170 194 0
175 198 0
170 194 0
173 196 0
173 197 0
172 196 0
174 197 0
172 195 0
174 197 0
171 194 0
174 198 0
173 197 0
173 196 0
170 194 0
171 194 0
171 195 0
172 196 0
171 195 0
172 196 0
170 193 0
172 195 0
175 198 0
174 197 0
171 194 0
173 196 0
174 198 0
173 196 0
173 196 0
173 196 0
171 195 0
171 194 0
172 196 0
172 195 0
171 195 0
170 194 0
169 192 0
172 195 0
174 197 0
171 195 0
173 196 0
173 196 0
173 196 0
174 197 0
174 197 0
174 197 0
172 196 0
174 197 0
172 195 0
169 192 0
174 196 0
172 196 0
173 196 0
172 195 0
170 194 0
172 195 0
172 196 0
171 194 0
171 193 0
171 194 0
173 197 0
172 195 0
173 196 0
171 193 0
170 193 0
172 195 0
171 193 0
170 194 0
172 195 0
171 195 0
170 193 0
174 197 0
172 195 0
171 194 0
171 194 0
173 196 0
170 193 0
173 196 0
171 195 0
171 195 0
173 196 0
173 196 0
175 198 0
172 195 0
170 193 0
170 193 0
172 195 0
172 195 0
172 196 0
169 193 0
172 195 0
172 194 0
173 195 0
172 195 0
172 196 0
168 191 0
160 183 67
138 162 103
93 123 143
65 101 169
62 98 170
62 99 173
62 99 177
62 99 176
63 99 174
62 99 177
61 98 170
61 98 176
62 99 177
61 98 174
62 99 177
62 99 178
62 99 179
61 99 178
61 98 177
61 99 180
62 99 179
62 99 177
62 99 179
61 99 177
62 99 180
62 99 178
61 99 177
62 99 180
62 99 180
62 99 178
62 99 180
62 99 181
62 99 180
61 99 181
62 99 181
61 99 179
62 99 180
62 99 180
61 99 180
62 99 181
62 99 180
62 99 181
62 99 179
62 99 179
62 99 181
62 99 181
61 99 181
62 99 179
62 99 181
62 99 179
62 99 181
62 99 181
62 99 181
62 99 180
62 99 180
61 99 181
62 99 180
61 98 181
62 99 181
62 99 181
63 100 181
62 99 181
62 99 181
61 99 181
62 99 181
62 99 180
62 99 180
62 99 178
62 99 181
61 99 180
62 99 180
62 99 179
62 99 178
61 98 180
62 99 180
62 99 179
62 99 181
62 99 180
62 99 181
62 99 180
62 99 179
62 99 180
62 99 179
62 99 181
62 99 179
62 99 180
62 99 178
62 99 179
62 99 181
62 99 180
62 99 176
62 99 178
62 99 178
62 99 180
62 99 179
62 99 181
62 99 179
62 99 179
62 99 179
62 99 177
61 99 180
61 98 175
63 100 181
62 99 180
61 98 177
61 99 179
62 99 179
62 99 178
62 99 179
62 99 177
62 99 178
62 99 178
62 99 177
62 99 177
63 99 176
62 99 173
61 98 177
61 98 179
61 98 177
62 99 178
62 99 177
62 99 175
62 99 175
62 98 176
62 99 180
61 98 176
62 98 176
62 98 174
62 99 174
62 99 178
61 97 171
62 98 173
61 98 172
62 98 173
62 97 170
62 98 171
61 97 169
61 97 169
61 96 167
61 96 167
61 95 161
75 98 146
89 105 139
97 103 104
116 115 80
109 107 66
117 115 69
116 114 72
113 111 69
117 116 77
112 113 76
108 110 74
121 120 79
104 105 67
109 109 74
119 119 81
108 110 74
124 123 83
114 115 82
111 111 76
116 116 81
103 106 76
106 106 74
125 125 87
116 116 81
129 129 90
127 127 88
120 122 85
132 132 91
126 126 89
129 129 91
128 129 90
130 131 92
129 129 87
121 124 89
138 137 93
126 127 87
131 132 93
143 142 96
142 142 96
149 147 101
140 139 94
141 140 94
144 143 96
147 145 97
141 140 95
151 149 99
146 145 97
159 156 103
158 154 101
152 149 96
154 152 100
158 155 99
154 152 95
157 155 104
157 154 100
163 159 101
158 155 99
160 156 100
162 158 104
165 161 104
160 157 104
167 162 103
160 157 97
171 166 104
168 164 106
169 164 102
159 157 101
172 167 106
168 164 104
168 164 106
172 167 106
171 167 107
166 163 103
170 166 106
177 171 106
172 167 102
174 168 103
176 171 109
173 168 107
172 168 104
172 168 107
175 169 105
171 166 100
174 170 110
177 171 106
178 172 111
175 170 106
172 166 103
174 168 105
176 170 106
174 168 104
173 168 104
176 170 106
174 169 103
172 167 100
174 169 103
178 172 108
173 168 104
174 167 101
172 166 101
172 167 103
173 167 101
172 166 100
174 168 103
175 169 103
173 167 100
174 168 104
170 165 100
161 156 95
171 166 101
168 163 96
170 164 99
166 160 95
170 164 101
170 164 98
165 159 95
164 158 93
165 160 97
164 158 93
165 160 93
165 158 90
168 162 96
162 156 91
168 162 95
166 160 94
159 153 91
159 154 87
166 158 90
160 154 90
167 160 91
161 154 89
152 147 84
154 148 78
153 147 83
161 155 84
158 152 82
155 150 79
154 149 80
158 152 84
157 152 82
150 144 78
147 142 74
147 141 77
146 139 75
144 138 73
142 140 61
146 145 68
145 147 59
150 152 58
152 160 52
153 161 49
154 167 39
161 174 41
164 184 30
159 177 16
169 188 28
170 192 11
172 196 0
172 196 0
171 195 0
172 196 0
168 191 0
171 195 0
174 197 0
173 197 0
173 197 0
172 196 0
173 196 0
171 195 0
169 193 0
174 197 0
175 198 0
175 198 0
173 196 0
173 197 0
170 194 0
170 194 0
172 196 0
170 194 0
171 194 0
173 196 0
175 198 0
172 196 0
173 197 0
170 194 0
173 197 0
173 196 0
172 196 0
172 195 0
168 192 0
174 197 0
173 196 0
172 194 0
170 193 0
173 196 0
172 195 0
171 195 0
172 195 0
172 195 0
172 195 0
174 197 0
172 196 0
172 195 0
174 197 0
172 196 0
170 194 0
175 198 0
174 197 0
173 196 0
170 194 0
170 195 0
172 196 0
172 196 0
173 196 0
171 195 0
173 196 0
171 194 0
169 193 0
174 197 0
172 195 0
173 196 0
171 195 0
171 194 0
172 195 0
172 195 0
173 196 0
174 198 0
170 193 0
173 196 0
168 192 0
174 197 0
172 196 0
173 197 0
171 194 0
171 195 0
171 194 0
172 194 0
171 195 0
171 194 0
169 192 0
168 191 0
174 197 0
172 195 0
170 194 0
171 195 0
172 196 0
169 192 0
170 193 0
171 194 0
172 196 0
173 196 0
170 193 0
171 195 0
170 194 0
171 195 0
172 195 0
170 193 0
169 193 0
160 184 47
138 163 107
107 135 147
65 101 174
63 100 180
62 99 172
62 98 172
62 98 171
62 99 174
62 98 169
62 99 177
62 99 177
62 99 179
61 98 172
62 98 175
62 99 176
62 99 180
62 99 176
62 99 179
62 99 178
62 99 178
62 99 179
62 99 178
62 99 179
62 99 180
62 99 177
61 98 179
62 99 181
62 99 180
62 99 179
62 99 177
62 99 181
62 99 180
62 99 179
61 99 181
62 99 179
63 100 181
61 99 178
61 99 181
61 99 181
62 99 180
62 99 181
61 99 179
62 99 180
62 99 181
62 99 181
62 99 181
62 99 181
61 99 180
62 99 181
62 99 181
62 99 181
62 99 180
62 99 180
62 99 181
62 99 181
62 99 179
62 99 180
61 98 180
62 99 181
61 98 180
61 98 181
62 99 180
62 99 181
62 99 179
62 99 180
62 99 181
62 99 180
62 99 178
62 99 181
62 99 180
62 99 181
61 99 180
62 99 181
62 99 181
62 99 176
62 99 180
62 99 180
62 99 179
62 99 180
62 99 180
61 98 180
62 99 181
62 99 177
62 99 180
62 99 181
62 99 180
61 98 177
62 99 179
61 99 180
62 99 180
62 99 179
62 99 181
62 99 181
62 99 181
63 100 179
62 99 177
61 98 179
62 99 179
62 99 178
62 99 177
61 98 176
62 99 178
61 99 179
62 99 179
62 99 179
62 99 180
62 99 177
63 99 176
62 99 179
62 99 179
62 99 176
62 99 180
62 99 177
62 99 178
62 99 179
62 99 178
62 99 177
61 98 174
62 99 178
63 99 179
62 99 180
62 99 173
62 98 176
63 99 176
62 98 172
61 98 174
62 98 173
61 97 170
61 98 175
62 98 173
62 99 176
61 98 176
61 97 172
61 98 170
62 98 173
61 97 167
62 98 175
61 97 172
61 97 168
61 97 170
61 96 166
62 95 162
71 97 150
83 97 124
84 93 95
104 104 68
104 104 63
104 104 66
109 109 73
109 108 72
108 108 72
117 115 75
112 111 72
107 107 70
106 106 71
103 105 68
101 103 74
107 108 75
101 104 74
113 114 79
99 103 75
115 116 80
110 112 81
118 119 84
105 108 77
115 117 83
110 112 77
138 136 92
123 124 87
121 121 85
125 126 88
125 126 88
131 132 91
133 133 91
132 131 88
140 138 93
132 131 90
135 134 89
135 134 92
143 141 95
141 140 96
137 137 89
139 138 93
149 147 99
140 140 94
153 151 95
140 138 92
155 152 101
149 148 100
147 146 95
154 152 100
154 152 97
151 149 99
159 157 103
156 154 99
161 157 102
160 157 100
164 160 102
163 160 102
162 158 103
162 158 102
156 154 101
157 154 94
166 162 105
167 164 105
169 164 100
169 164 103
162 159 104
165 161 101
167 163 105
171 166 103
169 165 104
167 164 102
173 167 105
170 165 104
170 166 105
172 167 105
177 171 109
172 167 106
176 170 104
175 170 109
172 167 104
169 165 99
178 172 108
170 166 102
174 169 108
177 171 107
172 168 100
175 169 106
172 166 101
172 167 106
176 170 104
176 170 104
174 169 104
175 169 103
175 169 104
168 164 99
173 168 104
172 167 101
173 168 104
171 164 100
172 167 101
172 166 103
175 169 106
170 164 97
171 166 95
171 166 101
169 163 97
171 165 99
171 164 98
169 164 99
167 161 97
167 161 97
169 163 96
173 167 97
167 161 97
171 165 101
165 159 95
168 162 99
170 165 93
167 160 95
170 163 99
165 159 93
166 159 95
156 151 88
164 158 92
160 154 94
162 156 87
160 154 89
163 157 91
162 156 93
164 158 90
162 155 87
159 153 89
156 151 84
151 145 78
157 151 84
156 150 85
153 147 80
152 146 79
153 146 77
148 142 73
149 142 75
150 143 75
139 133 66
152 147 73
141 136 66
145 143 65
148 151 58
146 148 61
149 157 48
160 173 44
154 168 36
159 175 32
164 181 25
162 180 22
167 187 22
171 192 11
173 196 0
171 195 0
172 196 0
174 196 0
173 197 0
173 196 0
175 198 0
172 195 0
171 195 0
172 196 0
174 197 0
175 198 0
173 197 0
171 195 0
171 195 0
171 194 0
174 196 0
172 195 0
174 197 0
172 196 0
175 198 0
170 194 0
173 197 0
172 195 0
172 196 0
171 194 0
171 195 0
172 195 0
171 196 0
171 195 0
174 197 0
171 195 0
173 196 0
174 198 0
172 196 0
172 195 0
174 197 0
171 195 0
172 196 0
172 196 0
169 193 0
175 198 0
169 193 0
171 195 0
172 196 0
172 196 0
171 194 0
170 194 0
172 196 0
172 195 0
170 195 0
174 198 0
169 192 0
175 198 0
173 197 0
172 196 0
176 199 0
171 195 0
173 196 0
173 196 0
169 193 0
171 195 0
170 194 0
171 195 0
171 194 0
174 197 0
169 192 0
172 196 0
173 197 0
174 197 0
174 197 0
173 197 0
170 194 0
169 192 0
172 195 0
169 193 0
173 197 0
170 193 0
173 196 0
172 194 0
170 193 0
174 197 0
171 195 0
173 196 0
169 192 0
170 193 0
172 195 0
171 195 0
172 195 0
173 196 0
173 197 0
173 196 0
171 195 0
172 196 0
173 197 0
173 197 0
170 194 0
170 193 0
171 194 0
172 196 0
171 195 31
153 177 84
113 140 140
72 106 168
62 99 173
62 99 171
62 99 174
62 99 169
62 99 172
62 99 177
62 99 178
62 99 174
63 99 175
62 99 177
62 99 175
62 99 180
62 99 180
62 99 175
62 99 178
62 99 181
62 99 177
62 99 181
62 99 180
62 99 177
62 99 179
62 99 180
61 99 180
62 99 180
62 99 180
61 98 176
61 98 179
61 99 179
62 99 179
62 99 179
62 99 180
62 99 181
62 99 180
62 99 181
63 99 178
62 99 181
62 99 180
62 99 180
62 99 181
62 99 181
62 99 181
61 99 181
62 99 181
62 99 181
62 99 181
61 99 181
62 99 181
62 99 181
62 99 181
63 100 181
62 99 181
61 99 181
63 100 180
62 99 179
61 98 179
62 99 181
62 99 181
62 99 180
62 99 178
62 99 180
62 99 180
62 99 181
61 98 176
62 99 179
61 99 180
62 99 180
62 99 181
62 99 179
62 99 181
62 99 180
62 99 181
62 99 179
61 99 178
62 99 179
62 99 180
62 99 179
62 99 181
62 99 179
62 99 180
62 99 179
62 99 179
62 99 181
62 99 181
62 99 180
62 99 180
62 99 179
62 99 179
62 99 181
62 99 179
62 99 179
62 99 177
62 99 180
62 99 179
62 99 178
62 99 179
62 99 179
62 99 178
62 99 179
62 99 179
61 99 177
62 99 178
62 99 180
62 99 178
62 99 179
62 99 180
63 100 181
62 99 180
62 99 179
62 99 176
62 99 180
61 98 177
62 99 179
62 99 176
62 99 179
62 99 175
61 98 173
62 98 178
61 98 176
61 98 175
61 98 174
62 99 176
62 99 177
62 98 175
62 98 174
62 98 175
62 98 173
62 98 171
62 99 176
62 98 174
62 98 172
62 98 173
62 98 175
61 97 162
61 97 170
62 98 172
61 97 165
62 97 169
60 95 163
61 96 164
60 95 163
67 97 160
70 93 138
88 98 115
88 93 86
114 113 72
96 96 59
112 112 75
104 105 68
101 100 66
106 106 73
115 114 74
107 108 75
117 117 81
94 96 68
104 107 76
105 106 76
103 105 74
116 118 84
99 102 70
110 111 79
122 122 86
116 117 83
116 118 83
114 117 84
124 125 88
116 118 84
116 117 82
121 122 87
125 125 89
134 132 89
119 122 84
120 120 83
131 131 89
124 125 87
131 131 92
133 131 87
135 134 91
129 130 89
145 143 96
149 147 102
143 142 92
148 146 97
145 143 93
145 144 96
150 149 100
152 150 96
144 144 97
157 154 104
155 151 100
155 153 101
154 152 100
161 158 101
155 153 101
158 155 99
156 153 101
162 159 102
159 156 97
160 156 100
167 163 103
160 157 101
161 157 104
165 162 103
168 164 101
163 159 99
170 165 104
169 165 104
166 163 107
170 166 106
170 165 102
173 168 100
170 165 106
173 167 107
173 168 99
172 168 105
172 167 102
171 166 104
174 168 104
173 167 104
175 170 108
174 168 103
171 166 103
174 168 102
173 168 105
178 171 106
176 170 107
172 168 100
175 170 107
178 172 108
175 170 104
175 169 106
174 168 102
174 168 104
174 168 103
172 167 102
173 167 102
172 166 101
176 170 106
172 166 102
171 165 99
176 170 104
173 167 101
169 163 98
173 167 99
174 168 104
169 163 99
166 160 92
171 165 101
170 164 95
171 164 99
170 164 102
172 166 101
164 158 96
167 161 95
167 161 95
170 164 96
165 160 95
168 162 96
167 161 97
167 161 97
164 159 92
171 165 96
165 158 93
162 157 92
162 157 93
168 162 99
165 159 91
157 151 87
160 154 90
154 148 79
154 149 84
166 159 89
159 154 84
163 156 93
158 153 86
160 152 84
148 143 77
147 140 78
146 139 75
153 146 77
154 148 78
149 144 77
155 149 80
146 141 74
135 129 64
144 140 68
148 147 60
141 144 54
155 159 62
149 158 48
156 163 53
156 169 39
155 169 39
156 175 11
166 185 22
169 190 16
169 190 16
173 196 0
173 197 0
174 198 0
173 196 0
172 195 0
174 197 0
173 197 0
173 196 0
175 197 0
175 197 0
172 195 0
171 194 0
171 194 0
171 194 0
173 196 0
174 197 0
172 196 0
174 197 0
173 197 0
174 197 0
173 197 0
173 197 0
173 197 0
173 196 0
174 197 0
173 197 0
171 195 0
173 197 0
172 195 0
170 193 0
171 194 0
174 197 0
173 196 0
173 197 0
172 195 0
174 197 0
173 197 0
173 196 0
175 198 0
170 193 0
173 195 0
174 197 0
174 197 0
168 191 0
172 196 0
173 196 0
171 195 0
170 194 0
171 194 0
171 194 0
173 197 0
173 197 0
173 196 0
171 195 0
170 194 0
174 196 0
172 195 0
172 195 0
172 195 0
173 196 0
172 196 0
172 195 0
172 194 0
172 194 0
171 195 0
173 197 0
171 194 0
173 195 0
171 194 0
172 196 0
171 194 0
172 196 0
173 196 0
171 195 0
171 195 0
171 194 0
172 195 0
171 195 0
173 197 0
170 193 0
173 197 0
173 197 0
171 194 0
170 194 0
172 196 0
173 195 0
172 195 0
172 195 0
172 196 0
172 195 0
171 195 0
171 195 0
167 191 0
173 195 0
170 194 0
174 196 0
168 190 0
173 197 0
171 193 0
167 189 25
153 178 76
133 157 114
90 120 149
63 99 176
62 99 172
62 99 172
61 98 171
63 100 177
62 99 176
62 99 174
62 99 176
62 99 178
61 98 176
62 99 177
62 99 177
62 99 174
62 99 173
63 99 178
62 99 178
62 99 177
62 99 176
62 99 177
62 99 177
61 99 179
62 99 179
62 99 179
62 99 179
62 99 181
62 99 180
63 100 180
62 99 179
62 99 181
62 99 180
62 99 179
62 99 179
62 99 180
62 99 179
62 99 179
61 99 180
61 99 179
61 99 180
61 99 180
62 99 180
62 99 180
62 99 181
62 99 180
61 99 181
62 99 180
62 99 181
63 100 181
62 99 181
62 99 179
62 99 181
62 99 180
62 99 181
63 100 181
62 99 179
62 99 181
62 99 181
62 99 181
62 99 181
62 99 181
62 99 181
62 99 180
62 99 180
62 99 180
62 99 181
62 99 181
63 100 181
62 99 179
62 99 181
61 99 180
62 99 181
62 99 179
62 99 180
62 99 180
62 99 181
62 99 180
62 99 175
63 100 181
62 99 180
62 99 180
62 99 181
62 99 181
62 99 178
62 99 181
62 99 180
62 99 181
62 99 181
62 99 179
62 99 179
62 99 177
62 99 180
62 99 179
62 99 181
62 99 178
62 99 179
62 99 179
62 99 180
62 99 179
62 99 178
62 99 177
61 99 178
62 99 178
62 99 178
62 99 179
62 99 180
62 99 179
62 99 180
62 99 180
62 99 176
62 99 177
62 99 179
62 99 177
62 99 175
62 99 177
62 99 174
61 98 174
62 99 176
63 100 177
61 99 179
62 99 177
62 98 175
61 98 175
62 98 172
62 99 176
61 98 173
62 98 173
61 98 173
61 98 172
61 98 173
61 97 167
61 97 172
62 98 171
62 98 172
62 98 172
61 97 170
62 99 177
62 98 174
60 96 167
62 98 174
61 96 166
60 96 172
61 95 165
62 95 160
72 100 161
89 104 134
90 99 103
100 103 90
100 100 61
94 95 63
104 104 70
102 104 72
113 112 74
99 101 69
100 101 71
108 108 72
103 104 73
113 113 77
117 117 81
107 108 77
119 120 85
124 123 84
109 110 78
112 114 81
106 109 78
119 119 83
117 118 83
125 126 85
121 122 87
127 127 87
130 129 88
130 129 88
120 122 85
121 122 85
129 128 88
135 134 91
124 125 85
136 136 93
134 133 91
145 145 99
134 134 93
139 137 92
131 132 92
143 141 95
139 138 95
142 141 95
143 140 93
147 145 94
144 142 93
151 149 99
148 146 95
153 151 101
146 144 94
154 153 100
152 150 98
169 164 108
160 157 102
166 161 104
159 157 103
165 161 100
159 156 99
163 159 103
166 162 100
164 161 100
167 163 103
165 162 103
164 160 101
165 161 104
165 161 99
170 165 100
171 167 105
170 165 106
172 166 103
167 163 102
172 167 105
170 165 105
168 163 102
167 163 103
174 168 107
174 168 104
175 169 107
174 168 107
175 169 105
171 167 101
172 168 102
175 168 103
174 169 109
171 166 100
172 168 108
171 166 98
173 168 102
172 167 104
176 170 104
175 170 106
175 170 104
174 169 104
171 166 101
177 170 105
175 169 104
176 169 104
169 163 97
169 165 98
167 162 100
169 165 98
172 166 97
168 163 95
170 165 97
174 167 100
167 162 95
170 164 98
164 159 95
170 164 96
170 164 97
167 161 93
170 164 98
169 163 95
165 160 95
165 159 97
168 162 97
171 163 100
162 158 90
170 164 93
169 162 97
166 159 96
159 153 88
157 151 83
158 152 87
162 157 90
159 153 87
160 154 89
156 150 84
151 146 80
168 161 93
157 151 87
158 152 80
154 147 75
153 148 79
159 152 84
143 137 77
156 149 78
152 146 84
153 147 76
136 131 69
150 144 72
147 141 73
145 139 69
141 135 68
143 137 70
142 141 63
143 146 60
153 158 58
149 154 48
157 169 42
153 165 44
153 168 28
159 175 30
163 180 28
168 188 19
171 191 28
173 197 0
174 196 0
173 197 0
172 196 0
172 195 0
172 195 0
173 197 0
174 197 0
174 197 0
172 195 0
170 194 0
174 197 0
174 198 0
173 197 0
174 196 0
174 198 0
174 197 0
171 194 0
173 197 0
173 196 0
171 194 0
171 194 0
175 198 0
171 194 0
173 196 0
175 198 0
173 196 0
173 197 0
171 194 0
170 193 0
172 195 0
173 196 0
172 197 0
174 197 0
171 195 0
173 196 0
172 195 0
174 197 0
173 196 0
174 197 0
173 196 0
171 195 0
172 195 0
173 196 0
169 193 0
174 197 0
171 195 0
173 196 0
172 195 0
170 194 0
172 196 0
175 197 0
171 195 0
170 194 0
173 197 0
171 195 0
175 198 0
171 194 0
171 195 0
172 196 0
173 197 0
172 195 0
170 194 0
170 194 0
171 194 0
171 195 0
174 198 0
173 196 0
170 194 0
172 195 0
171 194 0
174 197 0
172 195 0
174 197 0
168 191 0
172 195 0
170 194 0
172 195 0
172 195 0
172 196 0
173 196 0
174 197 0
172 195 0
172 195 0
172 196 0
173 196 0
170 194 0
173 196 0
170 193 0
171 194 0
172 195 0
172 195 0
173 196 0
169 192 0
172 195 0
175 198 0
169 192 0
173 196 0
173 195 0
161 185 65
138 162 113
97 127 148
64 99 164
62 99 171
62 99 174
62 99 174
62 99 171
62 99 179
62 99 174
61 98 176
62 99 175
62 99 178
62 99 178
62 99 179
61 98 174
63 100 179
61 98 174
62 99 179
62 99 177
62 99 178
62 99 177
61 98 177
61 98 177
62 99 180
62 99 179
62 99 180
62 99 176
62 99 180
62 99 178
62 99 181
62 99 180
63 100 181
62 99 181
62 99 178
62 99 181
62 99 181
62 99 180
62 99 178
62 99 180
62 99 180
62 99 181
61 99 180
61 99 180
62 99 180
62 99 180
62 99 181
62 99 181
62 99 180
61 99 181
62 99 180
62 99 181
62 99 181
61 99 180
61 98 179
62 99 180
62 99 181
62 99 180
62 99 181
62 99 179
63 100 181
63 100 180
62 99 181
61 99 180
62 99 179
61 99 181
61 98 180
61 99 180
62 99 180
62 99 180
61 98 177
62 99 180
62 99 181
62 99 180
62 99 180
62 99 178
62 99 181
62 99 180
62 99 181
62 99 178
62 99 181
62 99 179
62 99 177
62 99 180
62 99 180
62 99 178
62 99 178
62 99 178
63 100 180
61 98 180
62 99 179
63 100 181
61 98 179
62 99 178
62 99 179
62 99 178
62 99 178
62 99 178
62 99 179
61 98 178
62 99 177
61 99 178
61 99 179
62 99 180
62 99 179
62 99 177
62 99 176
62 99 177
63 100 177
62 99 179
62 99 181
62 99 180
62 99 174
62 99 177
62 99 179
62 99 176
62 99 178
62 99 177
62 99 179
62 99 176
61 98 177
62 99 177
62 98 174
62 99 178
62 98 175
62 99 178
61 99 177
61 98 173
62 98 173
62 98 174
62 98 175
61 98 171
62 98 173
62 99 174
61 98 172
62 98 174
62 98 169
61 97 168
62 98 168
62 98 170
61 97 164
62 98 170
61 97 171
61 97 169
61 96 168
60 95 168
61 96 170
79 102 152
92 104 120
107 112 101
111 111 85
90 91 62
108 108 70
99 99 67
110 109 74
97 99 68
102 104 73
98 99 69
105 106 71
98 100 70
108 108 74
113 112 76
108 111 80
99 103 75
111 112 78
109 111 78
108 110 80
113 115 82
117 118 83
112 114 78
113 115 82
111 112 78
119 120 85
129 129 91
111 114 81
128 128 84
142 139 93
141 139 96
134 134 89
127 128 89
129 130 89
138 137 92
135 135 92
141 139 93
133 134 90
138 137 91
141 140 93
142 141 94
143 143 95
148 145 96
147 146 97
148 147 95
147 145 96
144 143 92
151 149 94
157 155 101
159 156 99
157 155 99
150 148 95
161 158 103
164 160 102
164 160 102
164 160 98
160 157 95
169 164 102
163 159 100
163 159 102
168 163 103
165 161 102
167 162 100
171 166 106
174 169 108
168 163 97
171 165 104
170 165 99
170 166 104
168 163 103
172 167 106
169 165 102
171 167 103
172 167 106
170 166 105
175 169 106
172 167 104
174 168 102
172 167 103
170 166 103
171 166 99
174 168 102
176 170 106
173 168 104
177 171 107
174 169 103
171 166 97
175 169 101
173 167 104
171 167 98
173 167 97
172 166 99
172 166 100
173 166 99
172 167 99
174 167 102
169 164 97
171 165 98
169 163 99
174 168 100
172 166 102
170 164 97
168 162 96
175 169 101
161 156 91
169 163 95
169 163 97
174 168 100
174 168 101
168 162 97
170 164 98
169 164 96
167 161 93
163 157 93
168 162 90
169 163 96
165 159 90
164 159 92
163 158 96
163 158 90
163 158 87
161 154 90
162 156 90
164 158 93
164 158 87
161 155 90
160 154 87
161 155 89
156 150 84
156 150 84
157 152 80
156 151 82
155 150 83
156 150 78
143 136 76
151 145 75
145 140 73
144 138 74
148 143 69
145 139 68
143 137 71
133 127 61
144 139 70
149 146 65
142 141 64
153 159 52
148 153 49
150 161 44
151 163 32
154 170 32
165 182 25
161 178 30
169 189 19
171 192 19
173 196 0
174 198 0
174 197 0
174 197 0
171 195 0
172 195 0
172 196 0
172 195 0
173 196 0
173 196 0
172 194 0
172 195 0
174 197 0
172 196 0
173 195 0
174 197 0
172 195 0
173 197 0
175 198 0
173 196 0
175 198 0
173 197 0
171 195 0
174 197 0
173 196 0
173 197 0
173 197 0
170 193 0
172 196 0
172 196 0
174 197 0
172 196 0
173 197 0
173 196 0
168 192 0
171 195 0
173 197 0
173 196 0
173 197 0
171 195 0
171 194 0
171 194 0
174 197 0
173 196 0
171 194 0
171 195 0
170 194 0
171 195 0
169 193 0
173 197 0
173 197 0
172 196 0
173 196 0
172 195 0
171 195 0
173 196 0
170 194 0
170 193 0
173 197 0
175 197 0
174 197 0
172 195 0
171 195 0
171 195 0
172 195 0
170 194 0
170 193 0
169 192 0
172 195 0
170 194 0
170 193 0
173 196 0
170 193 0
171 195 0
167 191 0
170 194 0
166 190 0
174 198 0
172 195 0
169 193 0
174 197 0
171 195 0
172 196 0
173 196 0
171 195 0
172 195 0
167 190 0
171 194 0
170 194 0
171 194 0
170 193 0
173 196 0
173 196 0
172 196 0
174 197 0
171 193 0
169 192 0
172 196 0
168 191 40
146 171 100
118 145 137
73 107 167
62 99 167
62 99 170
62 99 174
62 99 173
62 99 177
62 99 175
62 99 175
62 99 173
62 99 173
62 99 179
62 99 175
61 98 175
62 99 178
62 99 177
62 99 177
62 99 179
61 98 176
63 100 180
62 99 177
62 99 180
62 99 179
61 99 178
62 99 181
62 99 179
62 99 178
62 99 181
62 99 179
61 99 178
61 99 180
62 99 180
62 99 180
62 99 181
61 99 180
62 99 181
61 98 178
62 99 179
61 99 181
61 99 181
62 99 179
62 99 179
62 99 180
62 99 180
62 99 180
62 99 180
62 99 179
61 99 180
61 99 181
62 99 180
62 99 180
62 99 181
62 99 181
62 99 179
62 99 181
62 99 181
61 99 179
62 99 179
62 99 181
62 99 178
63 100 180
62 99 178
62 99 179
61 99 180
62 99 180
62 99 180
62 99 181
62 99 181
62 99 180
61 98 179
62 99 179
62 99 181
61 99 181
62 99 181
62 99 179
62 99 181
62 99 180
62 99 181
62 99 178
62 99 181
61 98 179
62 99 178
61 99 181
61 98 179
62 99 180
62 99 178
62 99 180
62 99 180
62 99 179
62 99 179
62 99 180
62 99 181
62 99 179
62 99 177
62 99 180
62 99 180
63 99 178
63 100 180
62 99 180
61 99 178
62 99 178
61 99 178
62 99 179
62 99 179
62 99 181
62 99 179
62 99 179
62 99 175
62 99 175
62 99 179
62 99 177
61 98 176
61 99 178
61 98 177
62 99 179
62 99 177
61 98 174
63 99 177
61 98 176
62 99 178
62 99 179
62 99 176
62 98 174
62 99 175
62 99 174
62 99 174
61 98 172
62 99 176
61 98 176
62 99 176
62 98 174
61 98 171
62 98 174
62 98 174
62 98 172
61 97 172
62 98 171
61 97 168
61 97 170
62 98 172
61 97 170
60 96 166
62 98 174
60 96 168
62 97 167
60 95 164
62 96 163
74 99 155
99 108 122
95 102 103
103 103 75
81 84 61
99 100 65
93 93 63
78 83 60
106 107 73
98 100 69
98 100 68
97 101 73
106 108 75
108 108 73
110 112 78
99 102 72
98 101 70
105 108 78
112 112 76
107 110 79
121 120 82
115 118 86
103 107 78
115 117 85
121 121 83
117 118 83
124 125 87
118 119 82
121 122 83
130 129 87
124 126 85
124 125 84
130 130 88
139 138 93
133 132 89
138 138 92
140 139 95
148 146 96
142 140 92
140 138 92
144 143 94
144 143 94
156 153 103
147 145 96
150 149 97
148 146 94
152 149 96
155 152 98
156 152 98
156 153 98
156 153 99
158 155 99
166 162 105
159 155 99
162 158 102
160 156 98
160 156 99
163 159 101
160 157 99
158 155 98
167 163 103
166 163 105
163 159 98
166 162 99
169 164 102
171 165 102
170 165 99
170 165 104
168 164 103
168 164 102
173 167 104
170 166 103
171 166 104
172 167 105
173 168 103
171 166 99
176 169 102
172 167 102
175 169 102
176 169 104
174 168 102
176 170 104
170 166 100
175 170 105
175 170 104
178 171 106
172 166 101
171 166 102
173 167 102
175 169 102
169 164 98
175 169 104
169 164 102
173 167 101
171 165 95
170 164 98
171 165 101
176 169 104
172 166 99
169 163 97
172 167 98
170 164 94
170 165 101
171 165 97
166 161 97
169 163 94
166 160 93
167 162 91
167 161 93
167 161 91
169 164 95
172 165 99
164 159 92
167 161 95
164 159 94
167 161 95
167 161 90
160 154 87
163 158 93
162 156 87
168 161 95
162 155 90
156 150 83
160 154 87
160 154 87
161 154 87
161 156 84
164 157 87
161 154 87
153 147 82
156 150 77
161 154 87
151 146 80
159 154 86
155 148 83
143 138 66
146 139 74
151 144 69
131 125 68
151 145 72
134 128 66
139 134 64
137 137 62
150 150 68
137 142 49
154 163 45
154 163 45
161 170 51
160 176 32
160 178 25
165 182 39
170 190 22
173 196 0
173 197 0
171 195 0
174 197 0
171 195 0
173 197 0
174 197 0
172 195 0
169 193 0
173 197 0
171 195 0
171 195 0
174 198 0
172 195 0
174 197 0
170 193 0
173 196 0
172 196 0
171 196 0
173 196 0
172 196 0
174 197 0
173 196 0
172 196 0
172 196 0
173 196 0
171 195 0
171 194 0
173 196 0
173 196 0
173 196 0
171 195 0
174 198 0
175 198 0
173 196 0
171 195 0
173 196 0
174 196 0
172 195 0
173 196 0
174 197 0
172 195 0
171 194 0
174 198 0
172 195 0
172 195 0
171 195 0
172 196 0
171 195 0
172 196 0
169 193 0
172 195 0
171 194 0
170 193 0
169 193 0
172 195 0
170 194 0
173 196 0
173 197 0
172 195 0
171 194 0
172 196 0
172 196 0
171 193 0
172 195 0
169 193 0
172 196 0
168 192 0
172 195 0
172 195 0
173 197 0
169 192 0
171 194 0
172 196 0
172 195 0
171 195 0
171 195 0
171 194 0
172 196 0
170 194 0
172 196 0
173 197 0
170 193 0
171 195 0
172 195 0
171 194 0
169 192 0
170 193 0
172 195 0
174 197 0
173 196 0
171 194 0
174 197 0
170 193 0
172 195 0
166 190 0
172 196 0
174 197 0
167 191 18
155 178 67
118 144 125
77 110 161
62 99 173
62 98 169
62 99 176
62 98 172
62 98 173
62 99 172
62 99 177
62 99 177
62 99 176
62 99 173
63 100 180
62 99 174
63 99 178
62 99 177
62 99 179
62 99 178
63 100 180
62 99 178
62 99 178
61 99 179
62 99 178
63 100 179
62 99 178
62 99 181
62 99 179
62 99 178
62 99 181
62 99 179
62 99 178
63 100 180
62 99 181
62 99 180
62 99 178
62 99 181
62 99 179
62 99 180
62 99 180
62 99 180
62 99 181
62 99 180
62 99 178
63 100 181
62 99 178
61 99 180
62 99 181
62 99 180
62 99 181
62 99 181
62 99 179
62 99 180
61 99 181
62 99 180
62 99 181
62 99 180
61 98 179
61 98 179
61 99 180
62 99 179
62 99 178
62 99 179
62 99 180
62 99 180
62 99 180
62 99 181
62 99 180
62 99 181
62 99 181
62 99 180
61 99 179
61 98 181
62 99 177
62 99 178
62 99 180
61 99 180
62 99 181
62 99 180
62 99 177
62 99 180
62 99 180
62 99 180
63 100 181
61 99 180
62 99 180
62 99 179
62 99 178
62 99 178
62 99 180
63 99 180
61 99 179
62 99 178
63 100 179
62 99 179
62 99 178
62 99 180
62 99 180
62 99 180
62 99 176
62 99 180
62 99 177
62 99 174
62 99 178
62 99 178
61 99 178
61 99 178
62 99 176
62 99 179
62 99 178
62 99 177
63 99 175
62 99 180
62 99 178
62 99 179
62 99 177
61 98 177
62 99 174
62 98 173
62 99 177
62 99 176
62 99 180
61 98 176
62 99 175
62 99 171
62 99 177
62 99 175
62 98 172
62 98 169
61 98 174
62 98 173
62 99 175
62 99 178
62 99 175
62 98 173
61 98 170
61 97 171
62 98 172
62 98 170
62 98 168
62 98 173
62 98 170
62 98 171
62 99 176
61 97 168
61 96 163
62 98 171
60 94 158
61 96 167
71 100 157
79 100 143
92 101 109
92 96 74
97 99 68
100 100 68
101 101 66
99 100 67
93 94 67
101 102 72
101 103 70
93 96 70
88 90 63
107 109 77
99 100 68
100 102 71
105 107 75
108 109 77
100 104 77
113 115 81
115 117 82
110 111 79
118 118 82
117 118 84
116 117 80
128 127 88
125 125 85
122 123 85
122 124 89
125 126 88
128 127 87
132 132 89
136 135 91
135 134 89
135 135 91
134 134 90
140 139 91
135 134 89
143 141 92
142 141 91
143 141 92
143 141 88
152 150 97
142 141 93
146 144 94
144 143 93
147 144 93
155 153 95
157 153 97
159 156 100
156 153 98
153 150 97
156 153 98
156 154 98
158 155 101
158 154 98
163 158 99
165 161 103
171 166 101
168 164 99
167 162 101
170 166 102
166 162 100
170 165 104
169 165 102
167 163 103
174 168 106
172 167 103
166 163 102
172 166 101
176 169 105
173 167 101
174 168 103
169 165 104
169 165 98
174 168 98
171 166 103
173 168 103
176 170 103
173 167 103
175 169 103
173 167 99
172 166 99
174 169 103
173 167 103
172 166 103
175 169 105
171 167 99
172 167 99
174 168 102
171 167 103
172 167 101
173 167 100
171 165 96
168 163 96
170 164 98
173 168 97
171 164 96
169 164 97
170 164 95
171 165 97
171 166 97
175 168 100
172 166 101
168 162 99
163 157 94
172 165 99
171 164 95
171 164 94
159 155 87
169 163 94
173 167 102
166 161 93
167 161 96
170 163 97
167 160 92
168 161 96
165 159 90
164 158 90
166 161 93
171 164 96
166 160 90
160 154 83
163 157 90
159 152 87
159 154 85
157 151 84
158 151 85
160 154 87
152 146 77
152 146 76
144 138 75
150 145 78
145 140 73
155 149 75
158 151 80
148 142 76
146 140 74
148 142 74
136 131 65
143 137 67
140 136 66
150 149 69
151 150 59
146 153 47
157 163 54
153 164 49
158 168 51
167 180 45
158 173 32
165 182 28
161 180 16
169 190 22
172 195 0
174 198 0
172 195 0
171 194 0
173 197 0
172 194 0
171 195 0
173 197 0
172 194 0
171 195 0
174 197 0
175 198 0
173 196 0
172 195 0
174 197 0
170 193 0
174 197 0
172 196 0
174 197 0
173 197 0
173 197 0
173 196 0
173 197 0
172 195 0
167 191 0
172 195 0
173 197 0
170 194 0
172 196 0
174 198 0
174 198 0
175 198 0
173 197 0
174 197 0
172 195 0
171 194 0
174 197 0
172 195 0
171 195 0
171 195 0
173 197 0
170 194 0
172 196 0
172 196 0
171 194 0
168 192 0
170 192 0
174 197 0
173 196 0
173 197 0
175 197 0
173 197 0
169 193 0
170 194 0
172 196 0
171 194 0
172 195 0
170 193 0
171 195 0
170 193 0
173 197 0
169 192 0
172 196 0
171 194 0
173 197 0
170 194 0
172 195 0
171 194 0
172 195 0
171 195 0
174 197 0
171 194 0
171 194 0
169 193 0
171 194 0
171 194 0
172 195 0
170 194 0
172 195 0
171 195 0
171 194 0
173 196 0
169 193 0
170 194 0
170 193 0
171 194 0
170 193 0
171 194 0
172 195 0
168 192 0
172 194 0
173 196 0
171 194 0
173 197 0
168 192 0
171 194 0
170 193 0
157 182 65
147 172 95
87 117 158
63 99 169
62 99 172
62 98 168
62 99 174
61 98 167
62 98 170
62 99 174
62 99 176
62 99 175
62 99 174
63 99 176
62 99 178
62 99 177
62 99 175
62 99 175
62 99 174
62 99 177
62 99 181
61 98 176
62 99 177
62 99 177
62 99 178
61 98 177
62 99 181
62 99 176
62 99 180
62 99 180
62 99 179
62 99 178
62 99 181
62 99 181
62 99 179
62 99 180
62 99 181
61 99 179
62 99 180
61 99 180
62 99 178
62 99 181
62 99 179
62 99 180
62 99 181
62 99 180
61 99 181
62 99 180
62 99 180
62 99 181
62 99 179
62 99 180
62 99 180
62 99 181
62 99 180
62 99 181
61 99 181
62 99 181
62 99 178
62 99 179
62 99 180
62 99 181
62 99 178
62 99 181
61 99 180
62 99 179
62 99 180
62 99 180
62 99 180
61 99 180
62 99 179
62 99 181
61 99 179
62 99 180
61 99 181
61 98 180
62 99 181
62 99 178
62 99 181
62 99 175
62 99 179
62 99 177
61 98 178
62 99 179
63 100 180
63 100 180
61 98 177
62 99 181
62 99 178
62 99 179
63 100 179
62 99 177
62 99 179
62 99 179
62 99 180
62 99 179
62 99 179
62 99 180
62 99 177
63 100 180
62 99 178
62 99 178
62 99 178
62 99 180
62 99 180
61 98 176
62 99 176
62 99 180
63 100 180
62 99 178
62 99 178
62 98 174
62 99 177
62 99 177
61 98 176
63 100 180
62 99 174
62 99 175
62 99 174
61 98 170
62 99 176
62 99 178
62 99 177
62 99 178
62 98 174
62 99 176
61 98 174
62 99 173
62 98 174
62 98 170
62 99 175
62 99 175
62 98 172
62 98 173
62 98 174
62 98 174
63 100 178
62 98 172
62 98 173
62 99 176
61 98 175
61 96 162
62 99 173
61 97 172
61 97 166
61 97 170
62 97 168
61 97 171
61 97 162
61 96 165
60 95 168
62 88 137
87 101 114
78 90 102
108 109 86
89 90 61
96 96 62
87 89 62
92 93 64
99 100 68
83 87 64
99 102 73
97 99 68
90 93 66
88 92 67
93 96 69
114 114 79
101 104 73
107 109 78
104 107 78
100 102 72
123 123 82
109 112 79
115 117 84
116 117 81
118 119 81
115 117 81
119 120 84
122 123 87
121 122 79
113 114 79
126 127 87
118 119 84
138 137 89
134 135 91
136 135 92
142 141 95
139 138 91
142 140 91
143 141 92
133 134 91
144 144 96
145 143 94
158 156 102
139 139 92
151 148 97
156 152 95
153 151 96
155 153 101
155 152 95
158 155 96
162 158 100
164 159 102
162 158 99
154 152 98
163 159 104
161 157 100
164 159 98
158 154 100
164 159 99
158 155 97
167 163 101
164 161 100
168 164 101
167 163 100
167 162 99
170 166 101
168 163 101
166 162 99
175 168 102
170 165 103
170 165 102
172 167 103
172 166 102
173 168 100
175 169 102
173 168 103
171 166 102
177 171 107
176 170 106
172 166 102
175 169 101
171 166 98
174 169 101
175 169 101
175 169 103
172 168 103
176 170 100
172 167 103
172 166 100
173 168 99
174 168 99
174 168 101
175 169 103
174 168 100
171 165 98
170 164 97
170 164 98
173 167 101
171 165 92
171 165 95
166 160 90
166 160 90
167 161 92
173 167 99
170 164 94
168 161 90
167 160 97
169 163 93
169 162 99
168 163 95
164 158 91
170 163 97
166 160 93
162 156 90
167 160 91
167 162 87
162 157 91
167 160 88
163 156 92
164 158 86
162 156 86
163 156 87
160 154 85
164 157 93
157 150 84
157 151 84
164 157 88
157 150 84
157 151 85
150 144 80
154 149 78
157 151 81
152 146 75
142 137 69
150 144 75
145 140 73
143 136 78
148 142 70
140 134 68
139 133 59
142 139 64
130 128 58
139 141 52
149 153 52
146 155 42
150 158 49
156 167 34
159 172 39
162 177 30
169 188 30
170 191 16
172 194 19
173 197 0
173 196 0
173 197 0
174 197 0
172 196 0
170 194 0
172 195 0
171 196 0
172 196 0
171 195 0
171 195 0
174 198 0
173 197 0
174 197 0
171 194 0
173 197 0
173 197 0
174 197 0
172 196 0
173 197 0
171 194 0
169 193 0
171 194 0
173 196 0
174 197 0
173 197 0
172 196 0
170 193 0
172 195 0
174 197 0
172 195 0
177 199 0
171 194 0
173 196 0
172 195 0
172 196 0
173 196 0
174 197 0
172 194 0
174 197 0
175 198 0
173 196 0
173 196 0
172 196 0
175 198 0
170 193 0
173 197 0
172 196 0
172 195 0
172 196 0
175 198 0
170 193 0
173 196 0
173 196 0
171 195 0
172 196 0
172 195 0
170 193 0
171 194 0
171 195 0
172 195 0
172 196 0
170 194 0
173 197 0
172 195 0
171 195 0
172 196 0
172 195 0
172 196 0
172 195 0
169 193 0
170 194 0
171 194 0
169 193 0
168 192 0
170 194 0
172 195 0
172 194 0
167 191 0
173 196 0
168 192 0
172 195 0
173 195 0
170 194 0
171 195 0
172 195 0
167 190 0
170 193 0
171 193 0
173 196 0
169 193 0
172 195 0
171 194 0
172 195 0
174 197 0
173 197 0
167 189 40
156 180 74
118 144 137
68 103 162
62 98 168
62 98 169
62 99 171
62 99 175
61 98 170
62 99 175
62 99 176
62 99 175
62 98 171
62 99 177
62 99 175
62 99 177
62 99 178
63 100 179
62 99 180
62 99 177
62 99 177
63 99 178
62 98 173
62 99 175
62 99 181
62 99 179
62 99 178
63 99 178
62 99 179
62 99 177
63 100 180
62 99 178
61 99 181
63 100 180
62 99 180
62 99 180
62 99 180
62 99 181
62 99 180
61 99 181
63 99 178
62 99 180
61 99 180
62 99 180
61 99 179
62 99 180
62 99 178
62 99 181
62 99 180
62 99 179
62 99 181
61 99 180
62 99 180
62 99 181
62 99 180
62 99 181
62 99 179
62 99 181
62 99 180
62 99 180
61 99 181
62 99 179
62 99 180
63 100 181
62 99 181
62 99 178
61 98 180
62 99 179
62 99 180
61 98 179
63 100 181
61 98 179
62 99 181
62 99 180
62 99 179
62 99 179
62 99 180
62 99 180
62 99 178
61 98 181
61 98 177
62 99 180
62 99 176
62 99 181
61 98 177
62 99 180
62 99 180
62 99 179
62 99 175
63 99 179
62 99 180
62 99 181
61 99 177
61 98 178
62 99 177
62 99 178
62 99 178
62 99 178
62 99 180
61 99 179
62 99 173
62 99 174
62 99 176
62 99 177
62 99 178
62 99 177
62 99 179
62 99 176
62 99 178
62 99 178
62 99 178
62 99 177
62 99 179
62 99 176
62 99 177
62 99 179
62 99 175
62 99 178
62 99 174
62 99 176
62 99 177
63 99 174
62 99 175
62 99 180
62 99 177
62 99 176
62 99 176
62 99 177
62 99 174
61 98 174
61 98 172
62 98 172
63 99 173
62 99 173
61 98 172
62 98 177
61 98 174
62 99 173
61 98 170
61 98 170
62 98 170
61 98 174
62 98 170
61 97 172
62 98 171
61 96 168
62 97 170
60 95 166
62 98 171
62 98 171
61 96 160
60 95 161
60 93 156
78 97 136
79 93 109
97 100 86
80 84 65
92 93 65
76 81 59
105 104 68
96 99 70
95 97 67
90 92 64
96 98 70
102 104 75
100 102 74
101 104 76
91 94 67
103 104 73
106 109 80
104 106 76
109 110 75
112 114 82
111 114 82
104 106 76
106 108 75
117 117 81
110 112 77
119 121 85
123 125 87
125 125 85
125 126 86
137 136 92
136 135 89
135 134 88
137 135 87
133 132 88
131 131 87
151 149 96
137 137 92
136 135 87
142 141 92
144 143 96
150 147 96
162 157 98
147 145 94
157 155 99
148 145 92
151 149 92
152 148 93
150 148 96
155 152 94
159 155 98
157 153 97
163 159 98
154 151 94
165 161 106
159 156 98
155 152 95
159 155 96
158 155 94
164 160 99
156 153 97
165 160 98
164 160 98
167 164 102
170 165 103
170 165 102
168 163 99
170 165 102
169 165 100
169 164 100
170 166 101
172 167 106
175 169 104
172 167 102
173 168 99
174 168 102
174 168 102
174 168 103
170 163 99
174 168 103
175 170 100
176 169 103
167 162 97
173 167 98
176 169 99
173 167 97
175 168 101
173 168 101
169 164 95
173 168 100
174 168 100
175 169 107
173 166 101
169 162 97
175 169 101
175 168 101
169 163 93
173 167 99
169 164 91
173 167 98
171 165 95
174 168 99
174 167 101
169 162 95
172 165 98
166 161 88
174 167 100
169 164 95
164 158 92
169 163 93
173 166 97
164 159 90
163 157 87
167 162 94
161 155 88
168 162 94
167 161 87
158 152 90
165 159 90
163 157 90
165 159 88
162 156 88
157 150 87
163 156 86
160 154 87
156 150 90
164 157 89
157 152 83
158 152 81
150 144 74
151 145 77
156 149 78
156 149 81
147 142 71
143 138 62
144 138 67
148 143 73
152 146 74
157 150 77
143 138 68
143 140 61
143 142 63
143 144 54
144 146 51
152 158 54
150 164 30
158 172 34
158 171 37
165 183 22
165 184 19
169 188 16
172 193 11
170 194 0
173 197 0
173 197 0
175 198 0
174 197 0
171 195 0
172 195 0
173 196 0
173 197 0
172 195 0
173 196 0
170 194 0
173 197 0
174 197 0
172 196 0
173 196 0
172 195 0
172 196 0
172 195 0
171 194 0
174 197 0
173 196 0
175 198 0
173 196 0
170 193 0
171 194 0
175 198 0
173 197 0
171 194 0
172 196 0
173 196 0
172 196 0
174 197 0
171 195 0
170 193 0
170 193 0
172 196 0
169 193 0
172 195 0
171 194 0
171 194 0
173 196 0
172 196 0
169 193 0
172 196 0
172 196 0
174 197 0
173 195 0
170 194 0
173 197 0
172 195 0
172 196 0
175 198 0
172 196 0
172 195 0
175 198 0
170 195 0
172 196 0
171 194 0
174 197 0
172 196 0
170 194 0
175 198 0
171 194 0
175 198 0
172 195 0
169 192 0
170 194 0
173 196 0
168 192 0
171 194 0
172 195 0
171 195 0
172 194 0
174 197 0
170 193 0
173 195 0
168 191 0
173 196 0
172 196 0
171 195 0
171 194 0
173 197 0
170 194 0
173 196 0
174 197 0
171 194 0
169 192 0
171 195 0
169 193 0
171 195 0
171 195 0
172 195 0
168 192 0
171 193 0
171 193 18
156 180 67
127 152 121
82 112 152
62 98 165
63 99 174
62 99 170
61 98 170
62 99 173
62 98 168
62 98 167
62 99 175
62 99 173
62 99 176
62 99 176
62 99 175
62 99 175
62 99 178
62 99 177
62 99 176
62 99 177
62 99 177
62 99 176
62 99 176
62 99 175
62 99 180
62 99 179
62 99 179
62 99 179
61 98 174
62 99 178
61 98 178
62 99 179
62 99 179
62 99 180
62 100 181
62 99 181
61 99 180
62 99 177
62 99 181
62 99 180
62 99 180
62 99 180
62 99 181
62 99 181
61 98 179
62 99 181
61 98 177
62 99 178
62 99 181
62 99 181
62 99 178
62 99 181
62 99 179
62 99 179
63 100 181
62 99 180
61 98 179
62 99 180
62 99 180
61 99 181
61 99 180
62 99 180
62 99 180
62 99 180
62 99 180
62 99 179
62 99 180
62 99 180
62 99 178
62 99 181
62 99 178
62 99 178
62 99 178
62 99 179
62 99 180
62 99 177
62 99 178
62 99 176
62 99 179
62 99 178
62 99 179
62 99 180
62 99 177
61 98 180
62 99 179
62 99 181
62 99 176
62 99 176
62 99 176
62 99 179
62 99 180
62 99 179
61 98 176
62 99 178
62 99 180
62 99 177
62 99 178
62 99 177
62 99 180
62 99 178
62 99 174
62 99 180
61 98 176
62 99 176
62 99 176
62 99 179
61 98 178
62 99 179
62 99 179
62 99 177
61 99 179
62 99 176
62 99 176
62 99 177
62 99 178
62 99 178
61 98 172
62 99 177
62 99 176
62 99 176
62 98 176
62 99 171
62 99 174
62 99 173
61 98 169
62 98 174
61 98 171
63 99 176
62 98 170
61 98 172
62 99 171
62 99 172
63 99 176
62 98 174
62 99 175
62 98 173
62 99 171
61 98 175
61 97 172
62 98 175
61 97 167
62 98 169
61 98 168
61 96 167
62 98 168
61 96 166
62 98 168
62 98 169
61 97 164
60 95 163
61 96 166
59 94 160
59 92 158
65 95 152
75 93 124
75 84 93
73 80 73
80 84 62
84 87 61
88 90 62
86 90 66
87 89 65
94 96 67
91 95 68
90 92 65
93 96 66
77 82 60
101 105 77
106 109 79
89 94 70
94 98 71
87 92 72
107 109 76
120 120 83
109 110 75
120 120 82
102 105 75
116 118 83
111 114 79
120 121 84
122 123 82
137 136 90
131 131 84
119 120 83
128 128 88
126 127 85
133 132 86
137 136 87
139 138 90
143 143 93
134 134 87
145 142 88
132 133 86
140 139 90
146 143 96
148 146 97
144 142 92
146 144 96
155 151 97
152 150 96
153 150 96
161 157 95
142 141 86
155 152 92
161 157 98
163 159 95
165 160 95
166 162 101
164 159 100
157 154 91
163 158 96
162 157 95
169 164 103
163 159 99
163 159 97
169 163 98
165 161 99
168 163 96
170 166 103
168 164 103
168 163 99
169 164 100
170 166 104
170 163 96
167 163 98
172 166 101
171 165 98
170 166 102
177 170 104
170 165 99
174 168 102
173 167 99
176 170 103
172 166 100
177 171 105
174 168 104
173 168 101
175 169 103
172 166 97
174 168 102
170 165 96
175 168 103
169 164 99
171 166 93
174 168 102
173 166 97
172 167 96
172 166 97
172 166 101
175 167 103
169 163 97
172 166 97
175 169 99
170 164 94
170 163 93
168 163 95
173 166 101
172 165 95
171 164 93
162 156 89
168 162 95
164 158 90
165 160 93
164 158 90
171 164 90
167 161 90
164 158 90
157 152 83
164 158 85
162 156 87
166 159 93
167 160 92
165 158 87
165 160 86
157 151 82
153 147 80
170 163 94
167 160 90
152 147 76
152 146 79
156 149 76
164 157 84
154 146 82
155 149 81
154 148 79
154 148 80
147 141 71
149 144 66
143 136 66
142 137 72
141 135 70
141 136 63
152 149 67
137 135 61
145 146 59
140 145 48
154 162 51
151 161 42
156 169 42
158 172 36
162 179 25
164 182 28
166 186 16
168 189 11
173 196 0
172 196 0
172 195 0
171 195 0
175 198 0
172 196 0
174 197 0
169 193 0
173 196 0
172 196 0
172 196 0
173 196 0
174 196 0
173 197 0
171 195 0
169 193 0
171 194 0
174 197 0
171 194 0
172 195 0
173 197 0
173 196 0
171 194 0
173 195 0
168 192 0
172 196 0
172 196 0
172 196 0
173 196 0
173 197 0
171 195 0
174 197 0
171 195 0
169 192 0
173 196 0
171 195 0
172 195 0
173 197 0
172 196 0
173 196 0
172 196 0
170 193 0
172 195 0
171 194 0
170 194 0
173 197 0
171 195 0
173 195 0
170 194 0
170 194 0
172 195 0
173 196 0
174 197 0
171 194 0
173 196 0
174 197 0
170 193 0
172 195 0
172 195 0
170 194 0
171 195 0
172 195 0
172 195 0
172 196 0
173 196 0
174 197 0
171 194 0
173 196 0
170 194 0
171 194 0
174 197 0
169 192 0
172 195 0
173 196 0
169 193 0
174 198 0
170 194 0
172 194 0
171 194 0
170 194 0
172 196 0
171 194 0
172 195 0
172 196 0
171 195 0
175 197 0
172 195 0
170 192 0
168 192 0
174 197 0
172 195 0
170 193 0
170 193 0
167 190 0
171 194 0
165 189 51
144 169 95
91 121 158
64 99 163
62 98 165
63 99 175
62 98 166
63 99 172
62 98 172
62 99 172
62 99 173
62 99 171
61 98 169
62 99 176
62 99 176
62 99 176
62 99 176
62 99 177
62 99 178
62 98 173
62 99 179
61 98 178
62 99 178
62 99 179
62 99 179
62 99 180
62 99 179
62 99 180
62 99 177
62 99 180
62 99 179
62 99 179
62 99 179
62 99 181
62 99 179
62 99 177
62 99 178
62 99 179
62 99 180
62 99 178
62 99 181
62 99 180
62 99 181
61 99 180
62 99 181
62 99 181
62 99 181
63 99 180
62 99 179
62 99 181
62 99 181
62 99 179
62 99 179
62 99 181
62 99 180
62 99 181
62 99 181
62 99 179
62 99 179
62 99 181
62 99 181
61 99 181
62 99 180
61 99 179
62 99 181
62 99 180
62 99 180
62 99 181
62 99 178
62 99 180
62 99 177
62 99 180
62 99 180
62 99 180
62 99 178
62 99 179
62 99 179
62 99 181
63 99 179
62 99 181
62 99 181
62 99 176
62 99 178
63 99 179
62 99 181
62 99 179
62 99 180
62 99 180
62 99 175
61 98 178
62 99 176
62 99 179
63 100 179
62 99 176
62 99 177
62 99 179
62 99 180
61 99 176
62 99 181
61 98 179
62 99 178
62 99 179
62 99 175
62 99 178
62 99 178
62 99 178
62 98 177
62 99 180
61 98 176
62 99 177
62 99 174
62 99 179
62 99 177
62 98 174
62 99 175
62 99 178
62 99 178
62 99 179
62 99 180
62 99 178
62 99 176
62 98 173
61 98 174
62 99 178
62 99 180
63 99 176
62 98 172
62 99 178
62 99 179
62 99 175
61 98 170
63 99 171
62 98 175
63 99 174
62 98 175
61 98 170
62 99 172
62 98 170
61 98 175
62 98 171
62 99 177
62 98 172
62 98 172
63 99 175
62 98 169
62 98 167
62 98 169
61 96 166
60 96 164
60 96 165
61 97 169
61 96 163
62 98 173
60 95 161
60 95 163
62 89 136
72 90 122
83 92 94
87 91 69
98 98 66
97 98 69
85 88 59
76 81 60
74 78 55
86 88 61
86 88 65
71 78 60
91 94 68
99 101 72
96 98 69
100 103 74
105 107 75
99 102 73
109 111 81
102 104 72
97 100 69
107 109 78
108 110 79
105 107 73
117 119 85
113 116 82
116 118 79
115 117 81
119 121 82
128 128 86
130 130 85
130 131 86
133 132 87
135 134 87
140 139 92
131 131 83
142 142 90
138 137 88
149 147 92
141 140 90
143 141 88
150 148 94
160 156 97
155 152 97
147 145 92
147 145 92
154 151 94
148 146 93
160 156 99
154 151 96
156 154 93
162 157 96
158 155 96
162 158 99
162 158 94
159 155 91
163 159 98
164 160 102
165 161 100
164 159 98
167 162 98
169 164 98
165 160 98
170 165 102
171 165 99
168 164 97
169 164 99
170 165 97
169 165 100
171 165 97
170 165 101
173 167 102
168 163 97
168 162 92
172 167 99
173 167 100
174 168 104
170 166 99
173 167 99
173 166 102
175 169 101
176 169 101
176 168 100
177 170 103
173 168 97
177 170 101
176 169 98
176 170 100
172 166 99
171 165 95
172 166 97
173 167 102
170 164 97
173 166 97
172 166 99
174 167 97
172 165 98
171 164 99
174 167 99
165 158 87
172 166 97
172 165 97
172 165 96
172 166 97
169 164 97
167 162 89
162 157 85
166 159 93
166 160 93
170 163 94
167 161 87
166 160 91
163 157 89
158 153 83
171 164 92
158 153 84
165 159 83
167 160 88
158 153 84
162 155 88
164 157 86
164 158 84
154 148 73
153 146 80
163 156 89
161 155 86
157 151 80
155 148 81
149 143 69
149 143 75
153 147 74
147 140 75
146 140 69
152 146 76
149 144 72
156 149 80
135 129 71
134 130 64
149 144 68
138 138 56
135 139 47
151 158 54
158 166 48
150 157 49
158 167 45
159 172 37
158 174 34
162 179 28
166 186 19
168 188 11
173 196 0
174 197 0
173 196 0
170 194 0
172 195 0
174 197 0
174 197 0
174 197 0
172 195 0
171 194 0
173 196 0
172 196 0
172 196 0
168 191 0
172 196 0
172 195 0
171 194 0
171 195 0
173 196 0
172 196 0
174 197 0
171 195 0
171 194 0
172 196 0
172 195 0
170 193 0
175 197 0
174 197 0
171 195 0
173 197 0
171 194 0
172 196 0
173 196 0
173 196 0
173 196 0
171 195 0
174 196 0
172 195 0
170 194 0
174 197 0
173 196 0
174 198 0
169 193 0
170 194 0
172 195 0
174 198 0
173 197 0
171 195 0
170 194 0
173 196 0
173 196 0
172 196 0
170 194 0
174 197 0
171 195 0
172 196 0
167 190 0
173 197 0
170 192 0
171 195 0
169 192 0
170 195 0
172 194 0
172 196 0
165 190 0
173 196 0
173 195 0
171 195 0
171 195 0
172 196 0
173 196 0
171 194 0
172 194 0
173 196 0
172 195 0
170 193 0
172 195 0
170 193 0
172 195 0
173 197 0
171 194 0
172 195 0
168 191 0
174 197 0
172 194 0
170 194 0
169 192 0
173 196 0
172 196 0
169 192 0
174 196 0
174 197 0
172 195 0
169 192 0
167 191 18
158 182 67
116 142 124
82 113 163
62 99 173
62 99 172
62 98 168
63 99 172
62 98 167
63 99 175
62 98 170
63 100 179
61 98 174
62 99 179
62 99 179
62 99 178
62 99 175
62 99 174
62 99 177
62 99 178
62 99 177
62 99 176
62 99 180
62 99 177
62 99 178
63 99 178
62 99 178
62 99 180
62 99 180
62 99 179
61 99 179
62 98 176
62 99 179
61 98 178
62 99 179
62 99 180
62 99 180
62 99 180
62 99 180
63 99 179
62 99 176
62 99 179
62 99 180
62 99 179
62 99 180
62 99 181
63 100 179
62 99 179
62 99 181
62 99 178
62 99 180
61 99 181
62 99 181
62 99 180
62 99 177
62 99 180
62 99 181
62 99 180
62 99 181
62 99 179
62 99 180
62 99 178
62 99 181
62 99 178
62 99 179
62 99 180
61 98 180
62 99 178
61 98 178
61 99 180
62 99 179
62 99 181
61 99 181
62 99 180
62 99 177
62 99 180
62 99 179
61 99 179
61 98 179
62 99 177
61 98 177
62 99 180
62 99 178
62 99 178
62 99 178
62 99 180
62 99 181
62 99 177
62 99 176
62 99 180
62 99 177
62 99 178
62 99 178
62 99 178
62 99 177
61 98 177
62 99 181
62 99 177
62 99 176
62 99 175
62 99 179
61 98 174
63 100 179
61 99 180
62 99 181
62 99 179
62 99 179
61 98 175
62 99 176
62 99 177
62 98 173
62 99 176
62 99 172
62 99 177
61 98 173
61 98 174
62 99 175
62 98 174
62 99 174
62 99 178
62 99 173
62 99 180
63 99 176
62 98 172
62 99 175
62 99 175
61 98 170
62 99 173
63 99 174
61 98 172
63 100 179
63 100 176
61 98 177
62 99 175
62 99 171
62 98 174
62 99 174
62 99 175
61 98 172
62 99 174
63 99 174
62 99 174
62 99 172
61 98 174
62 99 172
60 96 167
62 97 168
61 97 165
60 96 157
61 96 170
61 97 167
62 97 168
60 95 163
60 95 163
60 95 160
60 94 159
65 95 152
66 93 143
68 83 105
70 82 94
90 92 66
77 81 59
93 95 64
92 94 66
85 89 61
83 85 59
91 92 66
87 91 64
91 93 65
100 102 73
77 82 60
92 97 69
102 104 73
94 97 70
81 87 64
106 108 76
112 113 78
108 109 75
110 110 73
101 104 73
114 116 79
115 117 81
118 118 80
126 125 84
126 126 82
124 125 84
124 124 81
131 131 87
117 118 78
134 133 88
137 136 92
129 129 88
146 143 91
137 136 87
137 136 84
142 140 90
140 139 89
143 142 90
140 138 90
141 140 87
157 153 98
149 146 89
142 141 89
156 154 98
162 158 99
162 158 96
155 152 93
152 149 91
156 153 97
162 158 96
156 153 94
161 157 100
165 160 95
167 162 99
169 164 102
164 159 95
167 162 99
163 159 97
164 159 98
171 166 100
170 165 102
170 165 103
165 160 95
173 167 104
169 164 97
167 163 96
174 167 100
172 166 96
170 164 95
170 165 101
170 164 98
172 166 100
171 166 99
170 164 98
171 165 96
166 161 90
172 166 97
171 165 99
172 167 96
173 167 99
172 167 97
174 167 97
176 170 102
172 165 95
171 165 97
174 168 102
173 167 95
172 166 95
171 165 99
171 164 97
172 165 99
169 164 93
171 165 96
170 164 98
168 162 96
167 161 94
170 163 95
168 162 90
170 163 93
168 162 90
168 162 94
167 162 91
172 166 99
163 157 87
169 163 92
163 157 91
168 160 87
163 157 88
162 156 88
167 160 90
165 159 87
165 159 87
163 156 87
160 154 87
165 159 87
162 156 90
158 152 80
161 154 82
165 158 89
157 151 80
156 150 82
157 150 76
160 153 79
154 147 76
160 154 80
156 150 78
144 137 71
151 145 79
149 143 70
150 143 73
140 135 57
144 139 72
139 134 67
152 145 76
146 142 65
145 146 53
142 144 54
152 156 59
155 162 57
150 156 48
149 163 30
162 179 19
165 182 34
166 185 25
166 185 11
168 189 16
173 197 0
172 196 0
174 197 0
173 196 0
175 198 0
174 197 0
171 195 0
172 196 0
173 196 0
173 195 0
172 196 0
174 196 0
174 197 0
173 197 0
172 196 0
173 196 0
172 196 0
174 197 0
173 196 0
171 194 0
174 197 0
172 195 0
172 195 0
170 193 0
174 197 0
170 193 0
172 196 0
172 195 0
172 196 0
172 196 0
172 195 0
171 195 0
171 194 0
173 196 0
171 195 0
171 194 0
171 194 0
172 195 0
172 194 0
171 195 0
174 198 0
172 196 0
173 197 0
170 193 0
173 197 0
174 196 0
169 193 0
171 194 0
172 195 0
173 195 0
170 194 0
171 195 0
173 196 0
172 197 0
172 196 0
172 196 0
173 197 0
171 194 0
171 194 0
170 193 0
172 195 0
172 195 0
173 195 0
172 196 0
171 195 0
173 196 0
171 195 0
171 195 0
172 195 0
174 196 0
172 196 0
169 193 0
170 192 0
172 196 0
173 197 0
170 194 0
170 194 0
170 193 0
173 196 0
171 195 0
173 196 0
173 196 0
171 194 0
171 194 0
170 193 0
170 193 0
169 192 0
168 192 0
173 196 0
169 192 0
170 193 0
170 193 0
171 194 0
171 194 0
164 188 44
142 166 102
92 122 148
64 100 168
63 100 175
61 98 171
62 98 169
62 99 176
62 99 170
62 99 171
63 99 172
62 99 174
62 99 179
62 99 178
62 99 175
62 99 176
62 99 179
63 99 177
62 99 172
62 99 177
62 99 173
62 99 177
63 100 178
62 99 176
62 99 177
62 99 178
62 99 177
61 99 179
62 99 179
62 99 179
62 99 178
63 99 179
62 99 181
62 99 181
62 98 177
62 99 179
62 99 179
62 99 180
62 99 180
62 99 179
62 99 178
63 99 179
61 98 180
62 99 181
62 99 178
62 99 180
62 99 180
62 99 180
62 99 180
62 99 181
62 99 181
62 99 180
62 99 180
61 99 180
62 99 180
62 99 180
61 99 179
62 99 178
62 99 179
63 100 180
62 99 178
62 99 181
62 99 181
62 99 180
61 99 180
61 99 180
62 99 178
61 99 179
62 99 180
61 98 178
62 99 179
62 99 181
62 99 179
62 99 180
62 99 180
62 99 181
61 98 177
62 99 177
62 99 178
62 99 176
62 99 179
62 99 176
62 99 178
62 99 179
62 99 179
62 99 180
62 99 180
62 99 180
62 99 180
62 99 178
62 99 179
61 98 176
62 99 180
62 99 179
62 99 176
61 98 176
62 99 175
62 99 177
62 99 178
62 99 175
62 99 177
62 99 178
61 98 176
62 99 175
62 99 179
61 99 178
62 99 177
62 99 176
62 99 180
62 99 176
62 99 178
62 99 179
62 99 178
63 99 176
62 99 176
62 99 179
62 99 176
62 99 174
62 99 179
62 99 175
61 98 175
62 98 173
62 99 173
62 99 175
62 99 175
62 99 174
63 100 178
62 99 176
62 99 171
62 99 172
62 99 174
61 98 168
62 99 175
61 97 169
61 98 168
62 98 173
63 99 174
63 100 177
62 98 174
62 99 173
61 98 173
62 99 177
62 99 174
61 98 172
62 98 170
62 98 172
61 97 171
61 98 170
62 97 165
60 95 163
61 96 167
60 95 162
61 97 168
60 95 159
62 98 171
60 96 166
61 96 163
68 95 145
67 89 129
85 95 107
80 83 68
85 87 63
76 79 57
82 85 60
74 78 57
83 85 61
101 102 71
82 86 65
85 89 63
94 97 68
95 97 69
95 98 71
104 105 72
100 103 71
98 101 72
99 103 74
106 108 75
107 110 78
104 107 77
111 113 78
100 104 77
109 111 76
114 115 81
115 116 81
116 118 78
124 126 87
136 135 90
122 123 84
123 124 82
129 129 85
126 127 88
137 136 88
137 136 91
134 133 87
130 130 84
143 141 91
139 137 89
160 156 97
146 143 89
145 143 88
153 150 90
151 148 90
157 153 95
156 153 95
158 155 95
158 154 97
158 154 94
151 147 95
158 155 96
153 151 92
154 152 90
160 156 96
165 161 95
163 159 98
160 156 91
163 159 92
163 159 96
165 160 94
174 168 104
163 158 95
171 165 103
162 157 94
165 161 92
166 161 95
169 163 100
170 164 96
167 163 95
174 168 98
172 167 99
172 166 98
171 166 101
174 168 98
167 161 91
171 166 97
173 166 93
173 167 97
170 164 91
169 163 90
177 171 103
174 167 98
170 164 97
169 163 93
170 164 96
172 166 93
174 168 93
174 167 98
172 167 96
174 168 99
166 160 89
173 166 94
176 169 100
172 166 95
173 165 97
174 167 97
173 167 99
170 164 91
168 162 95
167 163 91
170 164 92
166 161 93
162 157 92
170 163 93
170 164 98
164 158 87
164 159 92
168 161 95
165 159 86
172 165 95
162 155 87
165 158 87
169 163 95
163 157 84
157 152 82
155 150 78
156 150 78
165 157 89
161 154 85
156 150 80
162 154 89
159 153 86
156 150 81
162 155 87
154 147 75
159 152 80
150 143 71
155 150 77
153 146 79
150 144 68
150 145 76
150 145 71
145 140 71
148 142 67
146 140 69
142 138 67
142 141 65
150 151 64
149 151 52
148 151 56
149 156 52
156 166 41
164 177 37
159 173 36
165 181 36
164 183 22
171 193 0
168 191 11
171 195 0
172 195 0
171 195 0
172 195 0
172 195 0
173 196 0
172 196 0
172 196 0
172 195 0
173 196 0
170 194 0
170 194 0
173 196 0
173 196 0
174 197 0
172 195 0
175 197 0
173 196 0
169 193 0
171 195 0
173 196 0
172 196 0
173 196 0
173 197 0
173 196 0
172 195 0
173 196 0
169 194 0
170 194 0
174 197 0
173 197 0
171 194 0
173 196 0
169 194 0
174 198 0
174 197 0
172 195 0
171 195 0
170 194 0
174 197 0
175 198 0
170 193 0
170 194 0
172 196 0
173 195 0
171 194 0
170 193 0
171 195 0
171 195 0
169 193 0
172 196 0
173 197 0
171 195 0
174 197 0
171 195 0
173 196 0
171 195 0
172 196 0
170 194 0
171 195 0
173 195 0
172 195 0
173 196 0
171 195 0
170 193 0
173 195 0
173 197 0
172 195 0
172 196 0
171 195 0
172 195 0
168 192 0
171 194 0
167 190 0
171 194 0
171 194 0
169 192 0
171 195 0
172 195 0
168 191 0
172 195 0
173 196 0
169 192 0
172 195 0
169 193 0
170 192 0
170 193 0
171 195 0
170 194 0
169 193 0
170 193 0
172 195 0
171 194 0
170 193 0
147 171 94
119 145 128
70 105 165
62 98 165
62 99 171
62 98 168
62 99 174
62 98 171
62 98 170
62 99 175
62 99 179
62 99 174
62 99 173
62 99 173
62 99 178
62 99 177
62 99 174
62 99 177
62 99 177
61 98 172
62 99 177
63 99 177
62 99 179
62 99 179
62 99 179
62 99 180
62 99 177
62 99 177
61 98 177
63 99 179
62 99 180
62 99 178
62 99 177
62 99 179
62 99 180
62 99 181
62 99 178
62 99 178
62 99 177
62 99 179
62 99 180
62 99 181
62 99 179
62 99 180
62 99 181
62 99 180
61 98 178
61 99 179
62 99 180
62 99 180
62 99 180
62 99 180
62 99 181
62 99 181
63 100 180
62 99 179
62 99 179
62 99 180
62 99 180
62 99 181
62 99 180
62 99 179
61 99 179
61 99 179
62 99 179
62 99 181
61 99 179
62 99 177
62 99 178
62 99 178
61 98 177
62 99 179
62 99 179
62 99 181
62 99 178
62 99 179
62 99 181
62 99 181
61 98 176
62 99 180
62 99 179
62 99 179
62 99 179
62 99 180
62 99 180
62 99 180
62 99 179
62 99 179
62 99 179
62 99 177
62 99 179
62 99 177
62 99 180
61 98 178
61 99 180
62 99 175
62 99 174
62 99 177
63 99 179
62 99 176
62 99 179
62 99 178
62 99 176
62 99 177
62 99 176
62 99 180
62 98 173
62 98 173
62 99 175
62 99 175
62 99 179
62 99 171
62 99 176
62 99 177
62 99 178
62 99 180
62 99 171
61 98 171
62 99 175
62 99 176
62 99 178
62 98 169
61 98 179
62 99 173
63 100 176
61 98 176
62 99 174
62 99 176
61 98 169
62 98 173
62 99 178
63 100 179
62 99 176
62 98 174
62 99 174
62 99 175
62 99 171
62 99 173
62 98 173
62 99 174
62 98 170
62 98 170
62 99 170
62 98 168
61 97 169
62 97 170
62 97 166
62 99 170
62 98 169
61 96 161
61 96 167
61 98 164
61 97 164
61 96 166
61 95 161
59 93 156
60 95 159
61 96 165
81 101 140
76 90 112
73 81 81
94 94 68
76 80 59
85 89 62
82 85 62
81 83 58
78 83 61
91 93 67
85 88 64
86 89 63
90 92 66
83 87 63
113 115 79
103 106 75
96 99 66
103 106 74
96 99 71
108 110 72
112 112 77
118 119 82
106 108 72
124 125 84
101 104 71
112 114 77
117 118 80
137 136 89
131 132 86
127 127 82
123 123 81
120 121 82
126 126 79
132 132 85
132 132 85
141 139 90
137 137 86
141 140 89
144 143 87
142 140 88
148 145 94
145 142 88
153 150 95
152 149 95
156 153 95
154 151 92
145 142 91
154 151 91
152 150 93
157 152 92
160 155 96
153 151 90
158 155 96
167 162 99
163 158 94
159 155 97
161 156 95
163 159 96
155 152 89
167 161 96
168 163 98
164 160 99
167 162 96
161 158 98
168 163 95
170 164 98
163 159 98
171 165 97
171 166 99
171 166 102
172 166 97
169 164 95
173 168 98
172 167 97
170 165 95
171 165 100
171 165 93
172 167 99
172 166 98
170 164 91
173 167 99
176 169 101
172 166 97
172 166 95
170 164 95
173 166 95
169 163 94
173 167 99
173 167 97
172 166 95
170 164 95
172 165 99
171 166 96
170 165 95
169 163 94
165 161 90
173 166 98
166 160 93
167 161 95
171 166 97
170 163 97
167 161 94
171 164 93
167 160 93
168 161 90
170 164 97
165 159 90
168 162 90
172 165 94
164 159 81
163 157 83
162 156 89
160 154 80
159 152 86
163 157 86
161 154 82
162 155 86
160 154 83
155 150 83
159 154 83
161 155 84
156 150 84
158 152 86
159 153 82
151 145 78
154 148 85
155 149 77
143 138 70
159 152 79
154 148 75
153 147 76
139 133 62
147 142 66
144 138 62
141 136 65
146 141 69
144 142 62
145 145 60
144 145 51
146 150 47
153 162 41
154 163 44
157 171 32
160 175 25
164 182 16
162 181 19
167 185 19
170 192 0
175 198 0
169 194 0
173 196 0
173 197 0
171 193 0
173 196 0
173 197 0
172 196 0
173 197 0
173 196 0
171 195 0
171 194 0
173 195 0
173 197 0
173 196 0
172 196 0
173 196 0
173 197 0
172 196 0
170 193 0
172 195 0
173 196 0
175 198 0
173 196 0
174 196 0
171 194 0
174 196 0
171 194 0
171 194 0
173 196 0
175 197 0
171 194 0
172 195 0
170 194 0
172 195 0
171 195 0
172 195 0
170 194 0
170 194 0
171 196 0
172 195 0
172 196 0
172 196 0
172 196 0
174 196 0
171 195 0
170 193 0
173 196 0
170 193 0
172 194 0
168 192 0
171 195 0
173 196 0
173 196 0
174 197 0
174 197 0
171 194 0
172 195 0
169 192 0
173 196 0
173 196 0
171 194 0
174 197 0
169 192 0
173 196 0
170 194 0
172 196 0
169 193 0
171 195 0
172 195 0
169 192 0
170 194 0
171 195 0
168 190 0
173 196 0
172 195 0
172 195 0
170 193 0
171 194 0
169 193 0
170 194 0
174 197 0
168 192 0
170 193 0
172 195 0
170 193 0
170 192 0
171 193 0
173 195 0
168 191 0
173 196 0
168 191 0
172 194 18
160 183 51
132 157 99
89 119 155
61 97 161
62 98 168
62 98 167
62 98 166
62 99 172
62 99 176
62 98 170
62 99 172
63 99 173
62 99 173
62 99 176
62 98 171
62 99 174
62 99 175
62 98 172
63 99 177
61 98 174
62 99 178
62 99 179
62 99 179
62 99 178
63 99 177
62 99 180
62 99 179
62 99 175
62 99 177
63 100 181
62 99 179
62 99 179
62 99 179
62 99 176
62 99 177
62 99 180
62 99 181
62 99 179
62 99 180
62 99 179
61 98 181
62 99 179
61 99 178
62 99 181
62 99 177
62 99 180
62 99 181
61 99 180
62 99 179
62 99 180
62 99 181
62 99 181
62 99 178
62 99 181
61 98 178
61 99 179
62 99 178
62 99 180
62 99 181
63 100 181
62 99 180
62 99 181
62 99 180
61 99 180
63 100 181
62 99 179
62 99 181
62 99 179
61 99 181
62 99 178
62 99 178
61 99 178
62 99 175
62 99 179
62 99 179
62 99 181
62 99 181
62 99 179
62 99 179
62 99 181
62 99 179
62 99 179
62 99 176
62 99 179
62 99 178
62 99 178
62 99 177
62 99 179
62 99 175
61 98 175
62 99 181
62 99 176
62 99 179
62 99 178
62 99 177
63 99 177
63 99 178
62 99 181
63 100 177
62 99 180
62 99 180
63 100 180
62 99 179
63 99 180
63 100 177
61 98 176
62 99 179
63 99 177
62 99 178
61 99 180
62 99 177
62 99 179
63 99 177
61 98 172
62 99 176
62 99 174
62 99 175
61 98 170
62 98 176
62 99 178
62 99 174
61 98 172
62 99 175
63 99 176
62 99 176
62 99 176
62 99 174
62 99 170
62 99 170
62 99 170
62 99 176
62 99 176
63 99 177
62 99 174
62 99 170
62 99 175
62 99 172
62 98 169
61 97 169
62 99 174
62 99 170
63 99 172
61 98 165
62 98 172
61 98 171
63 100 175
62 98 170
62 98 173
61 98 171
62 98 171
62 98 171
62 98 169
61 97 162
60 95 161
62 97 162
60 95 164
60 95 161
59 94 161
60 95 157
58 90 149
63 87 131
79 87 88
70 76 71
78 79 51
77 80 58
65 70 53
78 80 54
86 88 59
83 86 63
78 81 57
91 94 70
88 92 67
96 98 70
90 94 65
101 103 70
95 98 68
102 104 74
99 101 68
106 108 73
104 107 74
112 114 76
103 106 73
109 111 73
119 120 78
113 115 75
114 116 82
127 128 83
127 127 83
131 130 85
135 134 83
132 132 87
142 140 91
131 130 82
132 131 81
138 136 84
139 138 86
139 137 85
140 138 90
147 145 92
144 141 87
137 136 88
156 153 96
149 147 88
145 143 91
152 149 92
156 153 94
151 149 90
154 151 95
154 151 93
152 149 92
154 152 93
167 161 98
160 156 96
163 159 94
157 154 91
159 155 91
165 159 96
163 159 93
166 160 97
166 161 99
160 156 93
167 162 95
169 164 95
170 165 102
169 164 96
169 164 96
171 165 98
166 161 94
175 169 99
172 166 101
173 166 96
171 165 101
170 166 99
171 165 96
170 165 95
173 166 97
174 168 103
174 167 99
173 166 92
171 164 94
175 167 96
172 166 94
171 165 92
173 167 100
172 165 93
175 168 97
172 166 95
170 164 92
173 166 96
171 165 96
173 166 100
171 164 95
169 163 96
174 167 97
169 164 90
169 162 91
172 165 91
168 162 90
162 158 93
166 161 92
164 159 86
166 160 82
166 161 89
171 164 96
160 154 86
164 157 86
170 163 92
164 158 88
163 156 88
167 160 91
164 157 85
152 147 80
161 156 82
162 155 87
158 152 80
154 148 82
162 155 81
161 155 84
159 153 87
156 150 79
153 148 79
156 151 77
161 155 81
156 149 82
158 152 79
158 153 77
150 143 68
157 150 80
145 140 70
147 141 65
143 137 65
149 143 69
152 146 73
145 140 69
137 133 60
141 136 56
143 145 53
157 157 58
153 155 60
156 165 45
155 166 42
162 175 42
163 176 42
168 186 32
169 189 19
171 190 25
169 191 11
172 196 0
171 196 0
169 192 0
175 198 0
172 195 0
174 197 0
173 197 0
170 195 0
172 196 0
172 196 0
172 195 0
172 196 0
173 197 0
171 195 0
173 197 0
173 196 0
173 197 0
169 193 0
173 196 0
172 195 0
174 197 0
171 195 0
171 195 0
172 195 0
173 196 0
173 196 0
174 197 0
171 194 0
172 195 0
173 197 0
172 195 0
174 197 0
172 195 0
172 195 0
172 195 0
170 194 0
170 193 0
172 195 0
172 196 0
172 195 0
171 194 0
172 195 0
171 194 0
174 197 0
172 195 0
171 195 0
172 195 0
172 195 0
171 194 0
171 195 0
170 194 0
171 195 0
173 195 0
172 195 0
171 194 0
171 195 0
173 196 0
171 195 0
170 193 0
172 194 0
174 197 0
172 196 0
170 194 0
173 197 0
171 193 0
173 196 0
170 194 0
168 191 0
170 192 0
172 196 0
171 195 0
173 197 0
171 194 0
172 196 0
173 196 0
166 190 0
173 197 0
170 193 0
168 192 0
170 193 0
171 194 0
171 194 0
169 192 0
171 194 0
174 197 0
169 192 0
169 192 0
172 195 0
171 195 0
173 196 0
170 194 0
168 192 0
168 191 31
151 176 82
107 135 141
67 102 167
62 99 169
63 99 171
62 98 170
62 99 170
62 99 173
61 98 168
62 99 173
62 99 175
63 100 177
62 99 173
61 98 171
62 99 173
62 99 175
62 99 179
62 99 177
62 99 172
62 99 177
62 98 174
61 98 178
62 99 177
63 100 181
62 99 175
62 99 179
62 99 175
62 99 177
62 99 181
62 99 177
62 99 180
62 99 179
62 99 177
62 99 178
62 99 180
61 99 181
62 99 176
62 99 181
62 99 178
62 99 181
62 99 179
62 99 180
62 99 181
62 99 181
62 99 178
62 99 179
62 99 181
62 99 180
62 99 178
62 99 179
61 98 176
62 99 180
62 99 181
61 98 180
62 99 180
62 99 179
62 99 179
62 99 178
61 99 181
62 99 179
61 99 179
62 99 179
62 99 181
62 99 180
62 99 179
62 99 180
62 99 179
62 99 179
62 99 179
62 99 180
61 99 177
61 98 177
62 99 177
62 99 180
62 99 179
62 99 178
62 99 178
61 99 180
62 99 179
62 99 179
63 100 178
62 99 180
62 99 179
62 99 178
62 99 176
61 98 179
62 99 177
62 99 177
62 99 179
62 99 179
62 99 179
62 99 179
62 99 178
62 99 177
61 99 180
62 99 175
62 99 177
62 99 176
61 98 175
62 99 176
61 98 173
62 99 178
62 99 179
62 99 176
62 99 179
62 99 178
63 99 177
62 99 175
63 99 177
61 98 174
62 99 175
62 98 173
62 99 175
62 99 174
63 99 176
62 99 177
62 99 177
62 99 177
63 99 176
63 100 176
62 99 174
62 99 178
62 99 177
62 99 175
62 99 175
62 99 173
63 100 178
62 99 176
62 99 175
63 99 172
62 99 175
62 99 176
62 99 174
62 98 172
62 98 172
62 99 173
63 99 173
62 99 174
63 99 172
62 99 175
62 98 169
62 98 170
62 98 173
62 98 169
61 98 169
61 97 163
62 98 170
62 98 165
62 98 165
61 98 171
62 97 166
62 98 167
62 98 170
62 97 165
61 97 164
61 96 159
61 96 162
60 95 162
60 95 162
62 96 161
67 92 137
66 84 117
65 74 69
64 70 61
76 79 57
68 72 49
67 72 51
71 75 56
76 78 54
74 79 58
65 70 55
70 75 54
87 92 68
82 87 64
89 93 64
90 94 69
96 99 71
105 107 74
107 109 73
98 101 69
107 109 74
116 117 76
110 112 76
118 119 79
102 105 75
132 131 84
123 123 79
128 128 84
114 116 77
127 128 83
123 125 80
122 122 77
136 135 86
138 137 86
124 125 84
136 135 82
137 135 85
142 141 89
149 146 88
151 148 91
156 152 92
141 139 88
142 140 85
146 144 91
159 155 96
150 147 88
154 151 93
153 150 95
148 146 87
156 153 93
154 150 90
159 155 92
169 163 97
160 157 96
159 156 90
161 157 97
163 159 97
158 153 87
166 161 97
162 158 97
167 162 98
164 159 94
162 157 94
163 158 94
171 166 99
163 159 95
170 165 96
167 162 98
169 164 95
167 162 98
170 165 95
174 168 99
169 163 96
172 166 96
169 164 97
176 170 101
171 166 95
171 165 96
171 165 94
168 163 94
171 164 94
170 164 96
173 167 99
169 163 93
173 167 94
173 167 93
176 168 99
168 162 95
172 166 95
172 166 95
170 163 93
171 164 93
168 163 90
167 161 87
172 166 96
167 160 88
168 162 93
165 160 87
168 162 94
169 163 93
167 161 87
171 164 90
168 163 92
165 159 83
163 157 84
164 157 90
168 162 94
167 160 88
165 159 88
163 157 85
161 155 82
162 157 86
167 160 90
157 152 78
162 157 86
161 155 84
164 157 85
163 156 84
160 153 82
154 149 73
158 152 86
154 147 75
161 154 84
157 151 82
153 146 67
149 143 67
148 142 72
151 144 72
158 151 80
151 145 76
146 139 68
141 136 63
146 141 75
144 138 63
149 143 71
138 136 56
141 143 57
148 150 56
156 159 56
145 153 42
154 167 39
159 170 44
164 180 28
162 180 25
164 183 19
163 183 11
172 194 0
175 197 0
171 196 0
175 198 0
171 195 0
174 198 0
173 197 0
173 197 0
173 197 0
174 196 0
174 196 0
172 195 0
173 196 0
172 196 0
171 195 0
175 197 0
170 193 0
171 195 0
173 196 0
170 194 0
174 197 0
172 196 0
172 195 0
173 197 0
173 197 0
170 193 0
173 196 0
173 196 0
171 195 0
172 196 0
171 195 0
172 195 0
171 195 0
170 194 0
171 194 0
173 196 0
168 190 0
171 196 0
168 192 0
173 196 0
171 196 0
170 193 0
170 193 0
172 196 0
171 195 0
171 195 0
172 196 0
173 197 0
169 192 0
171 194 0
173 196 0
173 196 0
173 196 0
173 196 0
171 194 0
171 195 0
171 195 0
173 196 0
172 196 0
173 196 0
172 195 0
174 197 0
170 194 0
169 193 0
173 196 0
172 196 0
170 194 0
169 192 0
172 196 0
173 196 0
167 190 0
169 192 0
172 195 0
170 193 0
173 196 0
167 190 0
171 194 0
170 193 0
173 196 0
173 195 0
172 196 0
173 196 0
172 195 0
172 195 0
166 189 0
174 197 0
168 191 0
170 194 0
169 192 0
175 198 0
170 193 0
168 192 0
169 192 0
162 186 57
121 147 118
90 120 150
62 99 167
62 99 171
62 98 169
61 98 168
62 98 170
62 99 172
62 99 172
62 98 171
62 98 172
61 98 170
63 99 177
61 98 176
62 99 173
62 99 174
63 100 176
62 99 175
62 99 173
62 99 176
62 99 178
63 100 178
62 99 178
62 99 179
61 98 176
62 99 180
63 100 181
62 99 177
62 99 178
62 99 178
62 99 180
61 99 177
62 99 177
62 99 177
62 99 181
62 99 179
61 99 181
62 99 180
62 99 180
62 99 181
62 99 178
62 99 179
62 99 180
62 99 181
62 99 180
61 99 179
61 98 180
62 99 179
62 99 181
62 99 181
62 99 181
62 99 179
62 99 181
62 99 180
62 99 181
62 99 181
62 99 179
63 100 180
62 99 180
62 99 181
62 99 180
61 99 181
62 99 179
62 99 179
62 99 180
62 99 178
62 99 181
62 99 179
62 99 180
62 99 178
62 99 181
62 99 178
61 98 177
62 99 177
62 99 179
61 99 178
62 100 181
61 99 178
62 99 179
62 99 180
62 99 177
62 99 181
62 99 180
62 99 176
62 99 177
61 98 175
62 99 176
61 98 173
61 98 178
62 99 178
61 99 178
62 99 178
62 99 180
62 99 178
61 98 177
61 98 178
61 99 176
62 99 178
61 98 176
61 98 177
63 99 179
62 99 180
62 99 176
62 99 177
63 100 180
62 99 178
62 99 177
62 99 178
62 99 174
62 98 170
62 99 177
62 99 177
62 99 175
62 99 179
62 99 176
62 99 177
63 100 176
62 99 177
62 99 175
63 99 174
62 99 180
62 99 175
62 99 174
63 99 174
63 100 177
62 99 173
62 99 174
62 99 177
62 98 172
62 99 174
62 99 174
62 99 174
62 99 175
62 99 176
62 98 170
61 98 168
62 99 172
62 98 173
62 99 172
61 98 173
62 98 163
62 98 166
62 99 173
62 99 176
62 97 166
61 97 169
62 98 172
61 96 164
62 97 165
62 99 169
60 96 164
61 96 166
61 97 167
62 98 170
61 97 164
61 97 167
61 96 163
61 96 163
61 96 167
60 94 154
58 91 152
64 83 109
66 82 104
47 60 73
66 71 57
66 71 53
68 74 53
80 84 60
73 77 57
84 87 61
73 79 60
78 82 57
66 74 54
73 79 59
97 99 66
90 94 66
92 96 66
101 103 70
101 102 69
102 104 69
104 107 74
103 105 73
116 117 80
107 108 70
117 118 76
107 110 76
117 118 76
120 121 80
116 117 77
129 128 80
127 127 84
132 131 83
131 131 82
127 128 80
135 133 84
132 132 84
136 135 84
133 132 82
144 142 92
144 142 83
137 136 84
137 135 83
143 141 86
152 149 91
151 148 91
144 142 88
158 154 91
157 153 95
151 147 87
156 152 90
163 157 97
156 153 90
159 154 90
158 154 91
158 154 94
164 159 96
169 164 100
164 159 98
160 156 95
170 165 98
169 164 95
167 161 97
162 157 92
167 162 90
170 164 92
166 161 93
173 166 95
168 163 94
166 160 96
177 170 103
171 166 95
170 165 97
172 166 97
173 167 97
171 165 99
166 161 91
167 161 91
173 166 98
167 161 93
172 165 96
171 165 93
168 162 93
168 162 86
171 166 95
168 162 90
170 164 95
173 166 95
172 165 95
172 167 98
168 162 90
171 165 97
169 163 93
169 163 87
175 168 99
166 160 89
165 160 89
168 162 90
170 163 92
172 165 90
172 166 95
163 158 82
168 162 93
166 160 95
168 161 87
166 159 88
164 158 88
165 160 89
168 161 91
160 155 81
168 162 87
162 156 82
164 157 83
164 158 90
160 153 82
162 156 84
162 156 87
161 154 84
154 148 76
159 152 82
157 151 79
157 152 78
161 156 78
159 152 79
158 151 80
156 149 75
151 145 70
151 144 72
152 145 69
155 149 69
145 139 74
144 138 69
146 141 68
140 135 66
148 142 69
136 133 60
140 139 59
148 145 69
144 150 48
155 159 63
150 160 42
153 166 36
157 170 25
163 177 34
166 185 25
165 183 19
166 186 19
172 195 0
172 196 0
173 197 0
173 197 0
173 196 0
174 197 0
171 194 0
172 195 0
174 197 0
173 196 0
174 197 0
169 192 0
174 197 0
172 194 0
175 198 0
171 195 0
173 197 0
172 196 0
172 196 0
172 196 0
173 196 0
171 194 0
173 196 0
172 196 0
171 194 0
173 196 0
171 195 0
171 194 0
173 196 0
173 196 0
175 197 0
172 196 0
173 196 0
170 195 0
173 196 0
169 194 0
173 196 0
174 198 0
171 195 0
172 195 0
173 196 0
174 197 0
173 196 0
170 193 0
173 195 0
170 193 0
170 194 0
170 193 0
171 195 0
172 196 0
173 196 0
171 195 0
170 193 0
172 195 0
170 194 0
172 196 0
171 194 0
173 196 0
171 194 0
166 190 0
168 190 0
172 195 0
170 194 0
173 195 0
172 195 0
173 196 0
171 195 0
170 193 0
170 193 0
169 192 0
172 194 0
172 196 0
172 195 0
173 196 0
172 195 0
167 191 0
170 193 0
173 196 0
171 195 0
171 195 0
168 192 0
172 194 0
170 193 0
169 193 0
170 193 0
171 193 0
169 192 0
170 194 0
172 195 0
172 196 0
173 197 0
172 193 0
168 192 25
157 181 70
104 132 137
67 102 164
62 99 171
62 98 167
63 99 169
63 99 177
62 99 173
62 98 166
62 98 166
62 98 174
62 98 169
62 99 174
63 99 171
62 98 174
62 99 176
62 99 178
62 99 175
63 100 178
62 99 180
63 100 178
62 99 179
62 98 178
62 99 176
61 98 176
61 99 178
62 99 180
62 99 177
62 99 178
63 99 179
63 100 180
62 99 178
62 99 180
62 99 179
62 99 174
62 99 180
61 99 179
62 99 181
62 99 179
62 99 181
61 99 180
61 98 177
61 98 177
62 99 181
61 98 177
62 99 177
62 99 179
63 100 179
62 99 178
61 99 180
62 99 179
62 99 177
62 99 179
62 99 180
62 99 178
62 99 180
62 99 181
61 98 179
62 99 179
62 99 181
62 99 178
62 99 179
62 99 179
62 99 179
62 99 180
61 98 180
62 99 180
62 99 180
62 99 180
62 99 179
62 99 179
62 99 178
62 99 177
61 99 177
62 99 181
62 99 177
62 99 174
62 99 180
62 99 178
62 99 179
61 99 180
61 98 175
62 99 180
62 99 180
61 99 178
62 99 178
62 99 178
62 99 176
62 99 179
62 99 176
62 99 180
62 99 179
61 98 177
62 99 177
62 99 174
62 99 176
62 99 177
62 99 179
62 99 175
61 99 177
62 99 175
61 98 175
63 99 178
62 99 175
62 99 177
62 99 173
62 99 171
62 99 178
62 99 174
62 99 177
62 99 175
62 99 175
61 98 173
63 100 179
61 98 171
62 99 175
62 99 174
63 100 177
62 99 173
61 98 167
63 99 178
62 99 173
63 99 178
63 100 175
63 100 177
62 99 175
62 98 170
62 99 173
63 99 174
62 99 173
62 99 174
62 99 175
62 99 172
61 98 167
62 99 172
62 98 171
62 98 172
61 97 170
62 99 172
63 99 174
62 99 174
62 98 174
62 99 175
61 98 173
62 98 171
62 98 170
61 97 167
63 99 169
61 97 170
62 98 170
62 99 168
61 96 166
61 97 163
62 97 162
61 97 164
60 97 168
61 97 167
62 97 164
60 95 162
61 97 164
62 98 165
59 93 153
63 90 138
58 80 117
72 80 79
67 73 59
78 79 54
91 92 60
74 79 58
77 81 56
73 77 57
80 86 60
71 76 59
85 87 60
72 78 60
81 85 62
110 110 76
91 95 68
102 104 71
103 106 74
105 107 75
121 121 80
105 108 75
108 110 73
103 106 75
114 115 74
119 119 77
108 110 75
113 114 73
114 116 79
123 123 80
125 125 81
113 115 73
136 135 86
132 131 82
132 132 85
140 139 88
137 136 88
141 139 84
139 138 86
146 145 95
141 139 88
135 134 85
137 135 81
146 143 85
149 146 88
146 144 86
156 153 90
156 153 91
155 151 93
160 156 90
155 152 94
160 155 90
160 155 92
164 159 95
156 152 88
164 159 90
162 157 92
160 155 85
160 156 87
159 155 90
161 157 92
167 161 93
162 158 89
171 166 95
166 161 92
168 163 97
169 163 96
172 165 94
169 164 96
171 164 97
168 164 91
174 168 97
171 165 93
174 167 102
162 158 92
172 166 94
174 168 99
174 167 97
175 168 99
168 163 92
170 164 94
173 166 96
174 168 99
170 164 94
172 165 94
168 163 89
172 165 87
172 166 95
172 166 92
171 165 90
168 162 95
172 165 97
172 164 97
166 161 90
172 166 93
170 163 90
168 162 90
173 165 94
172 165 92
168 161 93
167 160 92
173 166 93
163 157 87
166 160 93
165 159 87
168 160 90
165 158 85
169 162 90
165 159 90
164 158 90
157 152 75
163 157 80
162 156 83
163 157 87
164 157 88
159 153 79
158 152 83
157 151 80
161 155 83
159 153 83
153 147 79
161 154 81
153 148 78
153 147 73
152 145 78
147 141 68
153 146 75
150 144 69
148 143 65
148 143 74
145 139 73
150 143 67
139 134 62
139 134 63
152 148 65
140 140 53
148 150 63
147 151 51
154 160 45
160 169 54
155 168 25
157 171 25
163 179 30
161 180 16
163 182 11
165 185 16
172 195 0
169 192 0
171 195 0
172 195 0
170 194 0
175 197 0
171 194 0
176 198 0
169 194 0
170 194 0
171 195 0
172 196 0
172 196 0
173 196 0
171 195 0
173 196 0
172 195 0
174 197 0
172 196 0
173 196 0
174 197 0
172 195 0
172 196 0
171 194 0
171 195 0
171 194 0
173 197 0
174 197 0
173 196 0
170 193 0
173 195 0
171 194 0
173 196 0
172 196 0
171 195 0
172 195 0
171 194 0
169 192 0
171 194 0
172 196 0
171 195 0
170 194 0
173 196 0
171 194 0
170 194 0
171 194 0
171 194 0
170 194 0
174 197 0
170 193 0
170 194 0
172 195 0
169 193 0
169 193 0
174 197 0
170 194 0
169 193 0
171 194 0
168 192 0
170 194 0
172 195 0
172 196 0
171 194 0
173 197 0
170 195 0
170 193 0
171 195 0
172 195 0
170 193 0
170 192 0
171 195 0
171 194 0
170 193 0
172 195 0
169 192 0
170 193 0
171 194 0
170 194 0
168 191 0
168 192 0
170 193 0
172 195 0
170 193 0
169 193 0
170 194 0
171 195 0
170 194 0
170 193 0
170 193 0
170 193 0
166 190 0
171 194 0
164 188 40
133 158 110
96 124 153
63 100 170
62 99 166
62 99 169
63 99 172
62 99 169
62 99 169
62 98 171
62 98 171
62 99 176
62 99 171
62 99 175
62 99 174
62 99 174
62 99 178
62 99 177
62 99 171
61 98 175
61 98 175
61 99 178
62 99 178
62 99 177
63 100 179
62 99 176
62 99 179
62 99 177
62 99 178
63 100 181
62 99 176
62 99 178
62 99 179
62 99 181
62 99 179
62 99 180
62 99 179
61 99 181
63 99 178
62 99 180
62 99 178
62 99 179
62 99 179
62 99 180
63 100 181
62 99 180
62 99 181
62 99 178
62 99 181
62 99 180
62 99 180
62 99 180
61 99 179
62 99 177
62 99 178
62 99 178
62 99 179
63 100 181
62 99 181
61 99 178
62 99 178
62 99 180
62 99 179
62 99 180
62 99 178
62 99 181
62 99 179
62 99 177
62 99 177
62 99 177
63 100 180
62 99 179
62 99 178
63 99 179
61 99 178
62 99 180
62 99 178
62 99 177
62 99 177
62 99 178
62 99 174
62 99 179
62 99 179
62 99 178
63 99 175
61 98 176
62 99 178
61 98 177
62 99 178
62 99 179
62 99 177
62 99 173
62 99 179
62 99 180
61 98 177
62 99 180
62 99 180
62 99 179
62 99 174
63 99 177
62 99 179
62 99 178
62 99 177
62 99 177
62 99 175
61 98 170
62 99 178
61 98 177
63 99 180
62 99 177
61 98 170
62 98 174
62 99 180
62 99 173
62 98 169
61 98 171
62 99 176
62 98 169
61 98 176
61 98 174
62 99 174
62 99 178
63 99 175
62 99 170
62 99 173
62 99 173
62 99 175
62 98 172
62 99 175
62 99 176
63 99 174
62 99 175
62 99 170
62 99 173
62 99 175
62 99 177
62 99 171
62 98 170
62 99 172
62 98 175
62 99 176
61 97 165
62 99 173
62 98 170
62 99 172
62 98 169
61 98 170
62 98 167
61 97 168
62 99 173
62 98 167
61 97 162
62 98 171
61 97 167
62 98 171
62 98 166
61 96 168
61 96 161
61 96 163
61 96 171
61 97 169
61 96 168
60 94 154
67 95 150
70 87 118
66 78 89
58 66 62
61 66 46
60 66 49
71 76 57
66 70 49
67 73 56
66 72 53
78 82 57
82 87 65
87 91 66
94 97 63
99 100 66
88 92 66
97 101 71
91 93 66
102 105 75
90 95 68
105 108 71
103 106 69
106 109 72
113 115 76
120 120 81
110 112 73
122 121 74
124 124 80
130 129 81
122 124 77
120 120 74
127 127 81
135 133 84
139 136 89
142 140 88
136 136 88
128 128 84
135 134 80
127 128 81
146 143 88
143 142 86
146 144 90
147 145 84
147 144 84
151 148 92
155 151 90
151 148 88
157 153 91
160 156 91
162 157 95
151 148 85
164 158 96
160 156 94
153 150 89
164 159 91
167 161 93
158 154 89
163 158 93
166 160 94
164 159 93
167 162 95
171 165 94
166 161 92
162 158 86
167 161 92
164 159 94
171 165 97
169 163 97
162 157 92
166 161 88
172 165 93
169 164 93
169 164 91
168 162 89
171 165 99
166 161 93
173 166 95
172 166 95
173 166 89
175 168 93
174 168 97
177 170 100
169 164 91
171 164 91
169 162 89
171 164 88
173 167 97
167 161 87
173 166 95
166 161 90
164 159 84
169 163 92
172 165 89
169 162 90
169 163 91
171 164 95
166 160 87
170 164 93
167 160 88
167 161 89
164 158 87
167 160 90
160 154 83
169 162 85
166 159 82
168 161 88
157 151 79
166 159 84
156 151 80
163 156 81
161 156 79
164 157 84
157 150 82
159 154 84
152 147 78
159 152 81
161 155 78
155 150 75
154 148 77
156 149 75
157 152 74
157 151 78
153 147 75
143 138 65
138 134 64
144 138 66
151 145 74
143 138 65
141 136 56
147 141 69
144 138 60
135 130 61
141 135 63
141 137 64
144 143 61
145 146 54
146 153 42
150 156 49
154 163 44
153 166 36
149 162 30
159 175 30
168 187 22
168 186 16
172 192 16
171 193 0
174 197 0
171 194 0
173 196 0
173 196 0
170 194 0
170 193 0
173 197 0
173 196 0
174 197 0
171 195 0
170 194 0
174 197 0
173 197 0
172 196 0
174 197 0
173 196 0
171 195 0
172 195 0
175 198 0
172 196 0
169 193 0
171 196 0
172 195 0
173 196 0
172 195 0
170 194 0
170 194 0
171 195 0
172 196 0
173 196 0
171 195 0
172 195 0
170 194 0
173 196 0
171 195 0
173 197 0
171 195 0
172 195 0
171 195 0
171 194 0
168 191 0
168 192 0
171 195 0
169 192 0
171 194 0
171 194 0
173 196 0
172 195 0
171 195 0
171 195 0
172 196 0
171 194 0
171 195 0
170 193 0
172 194 0
172 195 0
171 194 0
172 196 0
171 194 0
172 195 0
167 190 0
171 195 0
172 195 0
171 194 0
171 194 0
170 193 0
171 195 0
173 196 0
171 194 0
171 194 0
173 195 0
169 192 0
171 195 0
172 195 0
173 196 0
171 194 0
172 194 0
169 192 0
171 194 0
169 193 0
174 197 0
170 193 0
171 195 0
171 195 0
172 196 0
168 192 0
169 193 0
166 189 0
174 197 0
168 191 0
166 189 36
152 177 80
117 144 118
64 99 156
62 98 164
62 98 168
61 97 163
62 99 170
62 99 169
62 99 175
62 99 172
62 99 170
61 98 172
61 98 173
61 98 172
62 99 176
62 99 175
61 98 170
63 100 175
62 99 177
62 98 173
61 98 173
62 99 174
62 99 176
61 98 175
62 99 175
62 99 175
62 99 177
62 99 178
63 100 178
62 99 179
62 99 181
62 99 176
61 98 179
62 99 175
62 99 178
62 99 180
63 99 178
62 99 177
62 99 180
62 99 180
63 100 181
61 99 180
62 99 179
61 99 178
62 99 179
62 99 177
62 99 178
61 98 178
62 99 179
61 99 179
62 99 180
62 99 181
62 99 180
62 99 178
62 99 181
62 99 180
61 99 180
62 99 178
62 99 178
62 99 178
62 99 179
62 99 180
62 99 180
61 99 177
62 99 180
62 99 180
61 99 179
62 99 180
63 100 181
62 99 179
62 99 179
63 100 181
62 99 180
62 99 177
62 99 177
62 99 179
62 99 178
62 99 177
62 99 180
62 99 180
62 99 177
62 99 180
63 100 181
62 99 176
62 99 178
61 98 175
62 99 174
62 99 176
62 99 177
62 99 178
62 99 176
61 98 176
62 99 179
62 99 179
62 99 177
62 99 174
63 100 180
62 99 174
62 99 176
62 99 176
62 99 181
62 98 174
62 99 179
62 98 174
62 99 178
62 99 176
62 99 175
61 98 176
62 99 176
62 99 175
63 100 176
62 99 177
62 99 175
62 98 170
62 99 177
61 99 178
63 99 175
63 99 177
63 99 175
62 99 175
62 99 174
61 98 171
62 99 172
62 99 172
62 99 178
63 99 176
62 98 170
62 99 178
62 99 173
61 98 170
62 99 173
61 98 173
62 99 173
62 98 170
62 99 171
62 99 176
62 99 177
62 98 171
63 99 174
63 99 175
61 97 167
63 99 173
62 98 170
62 98 170
61 98 169
61 98 172
62 98 172
61 97 162
62 98 168
63 99 172
61 97 166
62 97 169
61 96 163
62 98 170
61 97 164
61 96 164
61 97 166
60 94 154
61 96 163
61 96 163
61 97 164
60 95 162
60 95 160
59 93 156
64 87 130
58 76 105
71 81 91
65 69 49
66 72 55
71 75 54
72 77 52
82 85 60
76 81 57
81 85 57
74 78 54
84 89 68
81 85 60
82 86 62
79 85 63
90 95 65
101 103 72
95 98 67
98 100 68
97 100 68
105 107 69
103 106 66
106 109 70
100 103 67
109 111 75
129 127 83
125 125 80
113 115 73
126 126 74
128 128 79
127 127 81
129 128 80
134 132 83
135 133 84
139 138 83
138 137 88
148 145 83
141 139 81
145 142 84
148 146 91
139 139 91
139 136 81
143 142 84
142 139 83
145 142 85
158 153 89
160 155 86
158 155 94
160 155 86
154 151 85
157 153 88
159 155 94
159 155 88
168 161 95
161 157 93
156 152 86
168 162 96
164 160 93
164 159 87
167 161 95
165 159 91
167 162 93
167 161 94
165 159 93
174 167 97
167 161 94
176 168 99
174 167 95
167 161 89
164 160 90
171 165 99
171 165 91
170 165 95
174 167 92
168 162 95
172 165 92
167 162 84
170 164 96
166 161 92
173 167 95
172 165 93
168 162 93
170 164 90
170 164 88
169 164 90
170 164 90
171 164 93
169 163 90
164 158 88
173 167 95
168 161 89
169 162 90
168 162 93
158 153 80
164 159 88
164 159 86
163 158 83
168 162 90
172 163 93
162 157 80
166 160 90
166 160 86
167 160 84
168 161 90
160 154 86
162 156 83
161 155 83
163 157 82
163 156 87
168 161 89
164 157 83
164 157 84
153 147 75
167 160 83
158 152 81
161 155 80
149 143 70
153 147 76
158 152 70
157 150 76
157 151 76
154 147 74
158 151 79
160 154 77
159 151 79
149 144 66
150 144 72
155 148 77
146 139 72
149 143 68
136 131 61
139 135 63
140 138 57
138 140 49
140 142 51
150 155 49
146 153 47
154 164 32
157 170 36
164 176 44
164 180 30
167 187 22
164 184 16
172 193 11
172 193 11
173 196 0
172 195 0
171 195 0
173 195 0
171 195 0
172 196 0
172 195 0
173 197 0
172 195 0
172 196 0
171 194 0
169 194 0
173 196 0
173 197 0
174 197 0
173 196 0
173 197 0
173 196 0
167 190 0
170 194 0
174 197 0
173 196 0
171 194 0
175 198 0
172 196 0
172 196 0
173 196 0
169 193 0
171 194 0
173 196 0
170 194 0
172 196 0
169 193 0
171 194 0
169 193 0
172 195 0
171 194 0
171 195 0
171 193 0
171 196 0
171 193 0
175 197 0
170 194 0
173 197 0
173 197 0
167 191 0
172 195 0
169 193 0
171 195 0
167 190 0
172 196 0
170 194 0
174 197 0
168 193 0
171 195 0
171 194 0
169 193 0
171 194 0
170 193 0
173 196 0
171 195 0
167 191 0
172 196 0
171 194 0
168 191 0
172 195 0
172 195 0
166 190 0
169 193 0
169 192 0
175 197 0
170 193 0
171 194 0
171 194 0
171 195 0
168 191 0
169 192 0
168 191 0
173 196 0
170 192 0
168 192 0
167 190 0
172 194 0
171 194 0
171 194 0
173 195 0
169 192 0
169 192 0
168 191 0
171 195 0
162 186 62
130 155 113
89 119 144
64 100 164
61 98 160
61 97 156
62 99 171
63 99 170
61 98 165
61 98 161
63 99 172
61 98 169
62 98 165
62 99 177
62 99 175
62 99 172
62 99 177
62 99 178
62 98 175
63 99 176
62 99 176
63 100 178
62 99 176
62 99 176
62 99 176
62 99 177
63 99 178
62 99 179
62 99 176
61 98 175
61 98 177
62 99 180
62 99 180
62 99 178
62 99 180
62 99 180
62 99 180
62 99 179
62 99 178
63 100 181
62 99 180
62 99 181
61 98 177
62 99 180
62 99 180
62 99 179
62 99 180
62 99 180
62 100 181
62 99 180
62 99 179
62 99 180
62 99 179
62 99 180
61 99 178
61 99 179
62 99 177
62 99 178
63 100 180
61 99 178
62 99 179
62 99 179
62 99 179
62 99 180
61 98 176
62 99 176
62 99 178
62 98 175
62 99 180
62 99 178
63 100 180
61 98 178
62 99 179
62 99 181
62 99 178
63 100 180
62 99 177
62 99 177
62 99 181
61 99 178
62 99 180
62 99 176
62 98 173
62 99 176
61 98 179
62 99 178
62 99 177
62 99 178
60 98 176
62 99 175
62 99 177
62 99 178
63 100 176
62 99 179
62 99 175
62 99 179
62 99 179
62 99 176
61 98 175
62 99 178
62 99 175
62 99 178
62 99 175
63 99 177
63 100 178
62 99 177
62 99 178
62 98 171
62 99 179
62 99 174
62 99 178
62 99 175
62 99 177
62 99 173
62 99 177
62 99 172
63 99 176
62 98 174
63 99 169
62 99 169
62 98 172
62 99 172
62 99 173
62 99 174
62 99 176
63 100 176
62 99 171
62 99 173
62 99 176
62 99 178
61 98 174
62 99 176
62 99 177
61 98 175
62 99 175
63 99 173
61 98 176
62 98 171
62 98 170
62 98 170
62 98 168
62 99 174
62 98 170
62 98 167
62 99 175
62 98 163
61 98 168
62 98 173
61 97 169
62 98 171
62 98 165
62 98 166
63 99 172
62 98 164
61 98 170
60 96 161
62 97 165
61 97 166
62 97 163
62 97 168
61 97 165
60 94 155
60 94 152
61 96 161
59 92 153
62 91 141
63 84 122
62 76 92
60 68 62
60 66 49
55 61 49
68 71 50
73 77 51
59 65 45
64 69 51
71 76 53
96 99 69
79 84 58
77 82 56
96 98 66
89 93 66
97 100 63
96 98 70
97 99 65
110 113 74
104 105 70
108 110 67
99 102 68
112 113 76
112 114 70
114 116 74
130 129 80
121 120 75
122 122 79
121 121 75
123 122 76
129 128 83
133 131 82
141 137 82
132 131 85
134 133 78
132 132 84
139 137 84
144 141 86
143 140 80
142 140 86
149 146 87
154 150 87
150 146 87
151 148 93
141 139 85
161 156 96
152 149 92
147 144 80
150 146 88
155 152 87
153 150 92
156 153 88
163 159 93
155 151 92
160 155 91
168 162 93
163 158 94
164 158 94
164 158 84
164 158 93
167 161 88
168 163 90
168 162 97
172 165 99
165 160 92
170 165 92
170 164 93
173 167 96
165 160 91
167 162 91
175 167 98
170 164 92
173 166 95
169 163 91
175 168 100
172 165 92
172 166 93
171 165 89
168 162 87
170 164 95
168 162 89
173 166 99
170 163 92
172 166 92
171 164 93
169 162 86
169 163 93
167 161 87
167 161 88
166 160 84
174 167 95
164 158 82
164 159 85
164 158 87
172 165 89
170 164 90
163 157 80
169 162 90
169 163 89
158 153 80
156 151 83
170 162 84
164 157 88
159 153 78
163 156 87
172 165 90
163 155 81
161 154 75
165 158 83
162 156 81
159 153 79
155 150 71
153 147 74
157 151 78
154 148 78
149 142 68
158 150 80
156 150 75
146 140 72
155 149 72
160 153 80
155 148 75
148 142 66
143 137 64
151 145 69
146 140 66
152 144 73
137 131 57
145 139 60
144 139 66
148 144 63
146 144 62
133 134 45
145 151 51
143 149 48
153 162 45
154 165 42
149 160 34
157 170 37
159 177 16
173 191 25
167 187 22
172 193 0
172 193 0
172 195 0
168 192 0
173 196 0
174 197 0
170 194 0
173 196 0
173 197 0
174 197 0
174 198 0
169 193 0
172 196 0
170 193 0
172 195 0
171 195 0
172 196 0
170 193 0
172 195 0
172 196 0
172 195 0
170 194 0
170 193 0
170 195 0
173 196 0
171 195 0
170 193 0
171 194 0
167 190 0
170 194 0
175 197 0
171 195 0
168 191 0
171 195 0
172 196 0
171 195 0
172 196 0
173 196 0
174 197 0
170 193 0
169 191 0
171 193 0
170 193 0
170 195 0
174 197 0
169 193 0
170 193 0
170 194 0
172 195 0
171 194 0
169 193 0
171 194 0
172 196 0
170 193 0
173 197 0
170 193 0
173 197 0
173 196 0
171 193 0
173 196 0
172 194 0
170 193 0
170 194 0
170 192 0
169 193 0
169 192 0
168 191 0
169 194 0
171 194 0
170 193 0
170 194 0
172 195 0
170 194 0
168 192 0
169 192 0
169 192 0
173 196 0
170 193 0
169 192 0
169 192 0
171 194 0
168 192 0
169 192 0
171 194 0
168 192 0
169 193 0
170 194 0
168 191 0
172 195 0
168 192 0
169 192 0
167 190 25
153 177 74
114 141 134
67 101 155
62 99 167
62 99 166
62 99 166
62 98 168
62 98 167
62 99 170
62 99 172
62 99 173
62 99 168
62 99 178
62 99 174
61 98 174
61 98 173
62 98 171
62 99 177
62 99 174
62 99 175
63 99 174
62 98 174
61 98 176
62 99 177
62 99 177
62 99 180
61 98 175
62 99 175
62 99 175
62 99 178
62 98 177
62 99 177
62 99 180
62 99 179
61 98 178
62 99 179
61 99 181
61 98 177
63 100 181
62 99 178
62 99 177
62 99 180
63 100 181
61 98 179
62 99 179
62 98 178
62 99 179
62 99 180
62 99 178
62 99 178
62 99 179
62 99 180
62 99 180
62 99 180
62 99 179
61 98 175
62 99 180
62 99 179
62 99 178
62 99 179
62 99 181
62 99 178
62 99 178
62 99 180
62 99 180
63 100 178
62 99 179
61 98 178
61 99 179
62 99 178
61 98 177
62 99 174
63 100 179
62 99 180
62 99 179
62 99 178
61 98 175
62 99 179
62 99 179
61 99 178
62 99 175
62 99 179
61 98 177
61 98 175
62 99 178
61 98 175
62 99 177
62 99 176
62 99 179
62 99 177
62 99 177
62 99 179
62 99 177
63 100 178
62 99 181
62 99 179
62 99 178
62 99 177
62 99 177
62 99 175
62 98 174
62 99 177
63 100 180
62 99 179
63 100 178
62 99 177
63 100 179
61 98 169
62 98 174
62 99 177
63 100 176
62 99 172
61 98 170
62 99 178
63 100 176
62 99 171
62 99 175
62 99 176
63 99 172
62 99 170
62 99 176
62 99 175
62 99 174
62 99 174
62 99 169
63 99 174
62 99 170
62 99 172
62 98 172
62 99 173
62 99 175
62 99 175
62 99 177
62 99 177
62 99 172
62 98 173
62 99 173
62 98 171
61 98 167
62 99 173
62 98 168
63 100 172
61 98 169
62 98 174
62 98 167
62 99 170
61 97 163
62 98 166
62 98 173
61 98 167
61 97 164
62 99 173
62 98 171
61 97 163
61 97 161
61 97 167
62 98 167
60 96 161
61 96 167
61 96 166
62 97 161
61 96 160
61 96 161
60 95 155
59 93 158
59 92 152
60 84 126
64 79 95
67 77 79
64 69 55
74 77 53
64 69 51
73 76 50
51 60 46
66 71 51
68 73 54
69 76 56
79 82 58
77 83 58
79 84 54
93 96 63
92 95 67
94 97 66
97 99 65
115 116 76
96 99 63
106 108 69
113 114 73
127 125 76
115 116 73
111 114 76
126 125 76
117 118 73
126 126 77
129 128 83
130 129 82
131 131 80
132 129 78
146 142 89
131 131 84
133 131 80
138 137 81
133 132 80
138 137 87
140 138 83
132 130 78
148 145 85
159 155 91
157 152 91
148 145 84
143 141 84
155 152 94
157 152 90
154 150 86
155 152 88
160 155 90
157 153 88
159 154 89
157 153 92
159 154 82
157 153 87
165 160 92
160 155 91
162 157 86
166 160 90
164 158 86
166 160 87
160 155 91
164 159 93
168 162 92
164 159 90
173 166 97
168 161 90
169 163 93
169 162 88
169 164 93
167 161 91
165 159 88
170 163 94
170 164 96
174 167 95
170 163 89
172 165 91
169 163 89
170 164 91
167 161 89
169 163 92
170 164 93
168 162 88
166 160 87
163 158 87
173 166 94
168 162 84
170 163 90
172 164 88
171 165 84
161 155 80
172 166 91
173 165 88
167 161 87
168 161 91
163 157 83
170 163 87
162 156 75
165 159 82
165 159 81
163 157 87
163 157 83
160 154 81
163 157 87
164 158 79
166 160 87
160 154 73
165 158 84
163 156 78
164 158 84
158 152 77
159 153 77
159 153 80
155 148 75
160 154 75
153 147 74
151 145 76
147 141 71
156 150 79
153 147 73
157 150 75
154 147 71
156 150 72
143 138 64
149 142 77
151 145 69
145 139 61
143 137 63
139 134 59
138 133 52
142 138 63
138 138 49
138 140 48
147 149 52
148 153 44
158 165 48
150 158 39
157 169 41
161 176 30
169 186 30
168 186 28
169 188 16
167 188 11
171 194 0
172 195 0
172 196 0
172 196 0
172 195 0
174 197 0
172 195 0
172 195 0
172 196 0
172 195 0
172 195 0
169 193 0
173 196 0
174 197 0
173 196 0
170 194 0
172 195 0
172 195 0
171 194 0
171 195 0
171 193 0
172 195 0
175 198 0
174 197 0
171 195 0
173 197 0
173 196 0
172 195 0
170 193 0
172 195 0
170 193 0
168 191 0
171 194 0
169 193 0
170 194 0
175 198 0
173 196 0
172 195 0
170 193 0
171 194 0
170 194 0
170 194 0
172 195 0
173 196 0
171 194 0
172 195 0
172 195 0
170 193 0
172 195 0
172 195 0
172 197 0
170 194 0
169 193 0
171 194 0
171 194 0
170 194 0
170 193 0
173 196 0
172 196 0
174 197 0
172 194 0
169 193 0
172 195 0
172 196 0
170 193 0
169 193 0
171 194 0
174 196 0
169 192 0
171 194 0
169 193 0
171 194 0
174 197 0
173 195 0
172 195 0
169 192 0
168 191 0
171 195 0
171 194 0
170 192 0
170 194 0
166 190 0
169 192 0
170 194 0
173 196 0
168 191 0
167 190 0
168 191 0
167 190 0
170 193 0
168 191 40
146 170 88
103 131 145
62 98 162
62 99 168
62 99 173
62 98 167
62 98 170
63 100 172
62 99 170
62 99 175
61 98 166
62 99 177
62 99 172
63 99 173
61 98 170
62 98 168
61 98 173
62 99 171
61 98 174
61 98 173
62 98 175
62 99 175
62 99 176
62 99 176
62 99 179
62 99 181
61 98 175
61 98 179
62 99 178
62 99 179
62 99 174
62 99 179
62 99 179
63 100 178
62 99 179
62 99 179
61 99 178
62 99 177
62 99 180
62 99 179
62 99 176
61 98 176
62 99 178
63 99 178
62 99 180
62 99 178
62 99 180
63 100 180
61 99 180
62 99 177
62 99 179
62 100 181
62 99 181
61 99 180
62 99 178
62 99 180
62 99 179
62 99 179
61 99 180
62 99 178
62 99 181
62 99 179
62 99 180
61 98 176
62 99 179
62 99 179
62 99 179
62 99 179
62 99 179
62 99 177
62 99 178
62 99 177
61 99 177
63 100 181
62 99 178
61 98 176
62 99 178
62 99 179
62 99 177
61 98 178
62 99 176
62 99 179
62 99 176
62 99 177
62 99 177
62 99 177
62 99 177
61 98 175
62 99 174
62 99 178
62 99 177
62 99 177
62 99 175
62 99 177
62 99 178
61 99 179
62 99 177
63 100 178
63 100 181
63 100 176
62 99 177
62 99 174
62 99 177
62 99 175
61 98 177
62 99 178
61 98 172
62 99 177
62 99 174
62 99 179
62 99 173
62 99 175
63 99 177
63 99 176
62 99 175
61 98 174
62 98 168
62 99 176
62 99 175
62 99 170
62 99 178
62 99 176
62 99 175
62 99 175
63 99 174
62 99 175
62 99 173
61 98 169
62 99 173
62 99 174
61 98 174
62 99 175
62 98 172
62 99 173
62 98 168
63 99 175
61 98 163
62 98 173
62 98 172
61 98 171
62 99 171
61 98 168
62 98 172
62 99 169
62 99 172
63 99 172
62 99 171
63 99 171
62 98 169
61 98 168
63 99 172
62 98 168
62 97 165
62 99 174
60 96 161
62 98 164
62 98 167
61 96 163
61 97 161
61 97 165
61 96 162
61 96 157
60 95 156
61 95 159
61 95 153
60 95 160
57 89 143
64 85 123
61 72 79
40 49 49
56 64 47
66 73 49
72 77 52
73 77 51
72 75 51
74 80 57
77 81 54
72 78 57
78 82 55
81 86 55
82 87 58
86 89 61
95 97 63
100 102 69
93 96 60
115 116 73
92 96 65
120 120 78
100 102 63
111 112 67
106 107 67
117 118 72
114 115 69
112 112 69
117 118 76
128 127 79
122 123 75
123 124 73
122 122 77
140 139 84
136 134 83
139 137 84
135 133 81
142 139 85
145 142 87
138 136 83
146 143 80
141 138 84
149 146 88
149 144 84
145 142 87
154 149 85
155 151 87
151 148 85
155 151 87
156 151 89
158 154 91
163 158 88
154 151 91
163 157 91
159 154 87
160 156 87
154 150 87
162 157 89
161 156 87
165 160 90
167 162 88
165 159 89
170 163 95
161 156 82
162 158 90
168 162 90
165 159 91
163 158 87
170 164 94
169 163 94
169 164 91
173 166 95
167 161 87
172 166 95
169 162 90
170 164 87
165 160 87
170 164 92
167 161 93
170 164 91
168 162 89
168 161 84
169 164 94
164 159 79
170 163 92
170 164 93
165 159 80
171 164 90
171 164 92
168 162 84
172 164 95
167 161 84
167 160 83
167 161 87
175 168 99
163 156 79
163 157 84
164 157 84
162 156 86
164 157 83
166 160 91
166 159 83
163 157 80
161 155 81
161 155 81
161 154 81
160 153 75
156 149 75
158 152 75
158 152 81
161 155 77
161 154 84
154 149 74
157 151 83
151 145 75
158 152 76
155 148 78
153 146 73
152 146 71
146 140 61
147 141 65
154 148 66
147 141 74
154 146 75
144 138 61
145 139 68
141 135 57
137 132 59
135 129 58
139 135 56
140 137 63
142 143 52
138 138 53
153 157 52
158 167 47
155 164 48
157 169 37
158 170 36
161 174 37
162 181 25
164 182 11
169 189 16
171 191 0
173 196 0
171 195 0
172 196 0
171 194 0
174 197 0
171 194 0
173 197 0
175 198 0
175 198 0
174 197 0
172 196 0
171 195 0
172 195 0
171 195 0
172 195 0
173 196 0
173 197 0
173 197 0
173 196 0
173 196 0
173 196 0
171 195 0
170 193 0
170 193 0
169 192 0
172 195 0
174 196 0
174 197 0
172 195 0
172 196 0
170 193 0
168 191 0
171 195 0
172 196 0
172 196 0
172 195 0
168 192 0
172 195 0
173 196 0
170 193 0
172 195 0
172 196 0
171 195 0
170 193 0
172 195 0
172 195 0
170 193 0
171 194 0
173 196 0
169 193 0
171 194 0
168 191 0
172 196 0
170 193 0
170 194 0
168 191 0
167 191 0
171 195 0
167 190 0
171 194 0
170 193 0
171 195 0
168 191 0
171 193 0
171 193 0
171 195 0
170 192 0
170 193 0
169 192 0
169 192 0
170 193 0
169 193 0
172 196 0
167 191 0
172 195 0
173 196 0
169 193 0
174 197 0
170 193 0
169 193 0
167 191 0
170 195 0
170 193 0
169 192 0
168 190 0
170 193 0
169 192 0
169 193 0
167 190 0
166 190 0
158 182 62
132 157 110
80 111 157
61 98 163
62 98 165
62 99 166
61 98 164
62 98 166
62 98 167
62 98 169
62 99 171
62 99 172
62 99 174
63 99 176
62 98 174
62 99 175
63 99 175
61 98 174
62 98 170
62 99 176
61 98 172
62 99 179
62 99 179
63 99 176
62 99 177
61 99 178
62 99 178
62 99 180
62 99 176
62 99 177
62 98 175
61 98 175
62 99 177
62 99 176
63 100 181
62 99 180
61 99 179
62 99 181
62 99 181
62 99 180
62 99 178
63 100 181
62 99 180
62 98 180
62 99 178
62 99 177
62 99 180
61 98 180
63 100 180
62 99 178
61 99 177
62 99 178
62 99 181
63 100 180
62 99 179
62 99 180
63 100 179
62 99 178
63 100 179
61 98 179
62 99 179
62 99 181
62 99 181
62 99 180
62 99 178
62 99 176
62 99 176
62 99 179
62 99 178
62 99 178
62 99 178
62 99 179
63 99 179
63 100 180
62 99 177
62 99 174
62 99 177
62 99 180
62 99 178
62 99 180
62 99 176
62 99 179
63 99 177
62 99 176
63 100 176
62 99 179
62 99 178
61 99 177
62 99 178
62 99 178
62 99 178
63 99 174
63 99 176
61 98 174
62 98 171
62 99 174
62 99 178
62 99 178
61 98 176
62 99 176
62 99 173
62 99 179
62 99 174
62 99 177
62 99 174
63 100 178
62 99 175
62 99 176
62 99 177
62 99 176
61 98 172
63 99 179
62 99 175
62 99 178
62 99 170
63 100 180
63 99 176
62 99 176
62 99 173
62 99 177
61 98 169
63 99 176
62 98 168
62 99 174
62 99 177
62 99 177
62 99 177
62 99 172
62 99 172
62 99 176
62 99 175
62 99 176
62 98 167
62 99 170
62 98 171
62 98 171
62 98 173
63 99 175
61 98 170
62 99 172
61 98 172
61 98 169
63 99 172
62 98 170
63 99 174
63 99 175
62 99 170
62 99 172
61 98 167
62 98 169
61 97 162
62 98 168
61 97 167
61 97 161
62 98 169
61 96 159
62 97 164
61 97 170
62 98 164
60 96 165
61 96 167
61 96 162
60 95 155
61 96 167
60 95 157
61 96 165
60 95 157
59 92 152
54 79 117
56 73 92
52 59 52
50 58 46
69 73 53
55 61 37
70 73 51
58 63 41
73 78 55
81 84 53
76 80 51
82 87 59
78 83 55
88 91 61
82 86 53
93 95 65
99 101 69
108 109 65
99 101 65
95 98 60
110 111 68
111 112 68
112 114 72
106 108 65
114 116 73
113 113 70
128 127 79
116 117 73
123 123 79
133 130 80
124 124 75
129 129 77
146 143 88
143 141 80
132 130 77
142 140 84
136 135 78
139 138 79
147 143 85
140 138 77
144 142 81
153 149 87
146 143 78
145 142 82
154 149 82
145 143 79
148 145 87
151 148 88
153 149 88
154 150 88
155 152 85
156 152 84
160 156 91
164 159 88
163 159 90
158 154 86
166 160 93
162 158 85
162 157 88
171 164 93
164 159 85
165 160 90
167 160 86
164 159 88
165 160 89
162 157 85
168 162 89
171 165 91
163 157 82
172 165 89
170 163 92
173 165 93
165 160 85
167 162 90
164 159 81
167 161 89
166 160 91
170 165 87
169 162 86
164 159 84
167 161 81
171 164 87
169 162 91
163 157 86
173 166 92
167 161 85
170 163 90
173 166 90
171 164 90
168 163 82
167 161 85
167 161 83
169 163 89
165 159 82
164 157 84
163 156 81
166 160 85
168 161 84
161 155 81
160 154 81
166 160 87
162 156 78
163 157 84
162 156 80
167 160 87
160 153 83
160 155 80
165 158 81
163 156 86
162 156 81
154 148 75
160 153 86
158 152 78
148 143 70
157 150 78
157 150 81
151 145 66
158 152 75
157 151 73
153 147 76
153 148 77
155 149 75
137 132 62
137 132 56
144 138 60
143 137 62
141 136 65
146 140 70
148 142 68
141 138 59
145 143 54
142 143 54
150 155 53
156 162 48
150 160 32
143 155 19
158 170 28
157 175 25
163 183 19
170 189 16
167 187 0
172 193 11
172 193 0
172 196 0
170 193 0
170 194 0
172 195 0
174 196 0
171 194 0
172 195 0
172 197 0
172 194 0
170 194 0
173 197 0
172 195 0
171 194 0
171 195 0
172 195 0
170 193 0
173 197 0
170 193 0
173 196 0
174 196 0
173 196 0
173 196 0
172 196 0
170 194 0
171 195 0
170 194 0
172 195 0
172 195 0
172 196 0
170 193 0
173 195 0
171 195 0
172 195 0
173 196 0
168 193 0
173 197 0
171 194 0
171 193 0
168 191 0
170 193 0
171 195 0
172 195 0
174 196 0
170 194 0
173 196 0
168 193 0
171 194 0
173 196 0
171 194 0
168 191 0
168 192 0
170 193 0
171 194 0
168 193 0
172 196 0
172 195 0
171 193 0
170 194 0
171 195 0
169 192 0
172 196 0
172 196 0
168 192 0
171 194 0
173 197 0
171 194 0
171 194 0
171 195 0
170 194 0
169 194 0
171 195 0
172 196 0
168 191 0
172 195 0
171 193 0
170 194 0
166 190 0
170 194 0
170 194 0
170 193 0
166 190 0
170 193 0
169 192 0
171 193 0
171 194 0
170 194 0
169 192 0
170 193 0
169 191 31
153 177 76
111 137 129
64 99 164
62 98 163
61 98 164
62 98 169
61 97 164
61 98 168
62 99 176
63 99 172
62 98 171
62 99 172
62 99 175
61 98 168
62 99 172
62 99 173
61 98 173
61 98 175
61 98 173
62 99 176
62 99 179
62 99 179
62 99 178
62 99 178
61 98 178
61 98 177
62 98 174
62 98 175
62 99 179
62 99 177
62 99 177
62 99 176
62 99 178
62 99 179
62 99 178
62 99 180
62 99 179
62 99 178
62 99 176
62 99 181
62 99 177
62 99 180
62 99 179
63 99 178
62 99 179
62 99 177
62 99 179
62 99 179
62 99 180
62 99 179
62 99 178
62 99 180
62 99 180
62 99 178
62 99 176
62 98 176
62 99 175
62 99 181
62 99 179
62 99 178
62 99 178
61 99 178
62 99 177
62 99 179
62 99 181
62 99 177
61 98 179
62 99 176
62 99 178
61 98 179
62 99 179
61 98 177
62 99 180
62 99 179
62 99 180
62 99 175
62 99 179
62 99 180
62 99 179
62 99 178
62 99 179
62 99 174
63 100 181
62 99 179
62 99 177
62 99 176
62 99 175
62 99 177
62 99 176
62 98 172
62 99 179
62 99 179
63 99 178
62 99 170
62 98 171
62 99 176
62 99 180
62 99 177
63 100 178
63 99 176
62 98 174
62 99 176
62 99 178
62 99 172
62 99 176
62 99 178
63 99 178
62 99 179
62 99 176
62 99 174
62 99 176
62 99 174
62 99 178
62 99 178
62 99 178
62 99 174
62 99 177
62 99 178
62 99 172
62 98 169
62 99 177
62 99 174
63 99 171
62 99 174
62 99 170
62 99 173
61 98 172
61 98 166
63 99 168
62 99 172
62 99 171
62 99 173
62 99 173
61 98 168
62 99 172
61 98 168
62 99 171
62 99 175
62 99 170
61 98 168
62 99 177
62 99 171
62 99 170
61 97 164
62 99 172
62 98 170
61 98 164
61 98 167
62 98 168
62 99 173
62 99 171
62 98 171
62 97 160
61 98 164
62 98 167
62 98 170
61 97 162
62 97 167
62 98 166
61 96 155
60 94 160
61 96 166
61 97 165
60 94 158
60 95 160
60 95 158
60 94 153
60 94 157
66 93 143
62 79 94
51 63 75
60 63 47
60 66 46
60 65 41
59 64 41
57 65 46
63 70 49
75 77 52
78 82 52
87 90 59
65 71 46
82 86 57
83 87 59
99 101 62
89 92 62
90 94 61
103 104 68
118 118 73
99 102 66
107 109 67
109 110 65
110 112 74
105 108 69
120 120 73
125 125 76
117 117 72
119 119 72
115 116 73
127 127 78
133 132 82
133 131 75
135 133 81
138 136 80
133 133 81
146 142 80
134 132 78
133 132 78
142 140 85
151 148 87
146 142 83
154 150 89
144 141 80
150 147 85
147 145 83
149 146 89
155 152 86
164 158 87
144 142 86
155 152 87
151 148 82
142 138 81
161 156 87
163 158 84
157 152 82
156 152 87
160 156 83
161 156 88
167 161 86
158 154 84
166 160 85
159 155 86
167 160 85
170 164 87
168 162 92
163 158 89
166 160 93
165 159 89
167 161 89
171 163 89
171 165 89
167 162 89
168 161 86
167 161 89
171 164 89
170 164 87
170 163 94
172 165 95
169 162 86
169 163 92
169 162 87
168 161 88
169 161 87
165 159 80
169 162 85
169 163 87
171 164 90
172 165 93
169 162 89
169 162 88
166 159 83
168 161 83
160 154 82
158 153 74
171 163 90
162 155 80
163 156 80
162 156 75
165 157 83
158 152 79
165 158 84
160 153 78
161 154 80
159 153 81
164 158 86
155 151 75
159 153 75
159 152 77
155 149 74
159 153 79
154 148 75
155 149 71
166 160 83
154 147 72
157 150 80
154 147 74
142 137 61
154 147 73
155 148 72
152 146 75
146 141 59
148 143 65
152 145 73
150 142 70
147 141 65
140 135 64
136 132 57
145 142 61
139 137 51
142 143 49
145 147 52
152 158 49
154 162 39
150 162 28
163 176 39
166 179 36
161 178 16
171 190 22
167 187 22
166 187 11
170 190 11
170 193 0
173 197 0
171 195 0
173 196 0
171 194 0
172 195 0
173 197 0
172 195 0
173 196 0
171 194 0
170 194 0
172 196 0
174 197 0
172 195 0
173 197 0
170 194 0
169 193 0
172 195 0
171 195 0
172 196 0
167 190 0
173 197 0
172 196 0
172 195 0
173 195 0
169 193 0
173 196 0
170 193 0
171 195 0
171 194 0
170 194 0
171 195 0
169 193 0
169 193 0
171 195 0
170 194 0
168 192 0
173 196 0
172 195 0
172 196 0
169 193 0
169 192 0
171 195 0
170 193 0
169 193 0
171 195 0
171 195 0
172 195 0
171 195 0
172 195 0
167 190 0
171 195 0
170 193 0
173 196 0
172 195 0
170 194 0
171 194 0
170 193 0
168 193 0
170 194 0
170 194 0
168 193 0
171 194 0
173 197 0
170 193 0
169 193 0
169 192 0
172 195 0
171 193 0
169 192 0
173 197 0
169 192 0
170 193 0
168 192 0
169 193 0
172 196 0
174 197 0
172 194 0
171 195 0
170 193 0
171 194 0
168 190 0
172 194 0
167 191 0
171 193 0
171 194 0
172 195 0
168 192 0
171 194 0
163 186 36
143 167 94
89 120 155
62 98 170
61 97 159
62 98 168
62 99 171
62 98 161
62 99 171
62 98 163
62 99 169
62 98 169
62 99 171
62 99 175
61 98 172
61 98 173
62 99 174
61 98 174
63 99 174
62 99 171
63 99 173
62 99 175
62 98 174
62 99 176
62 99 177
62 99 179
62 99 175
61 98 177
62 99 180
62 99 178
62 99 178
62 99 181
62 99 179
61 97 177
62 99 178
61 98 177
63 99 179
61 99 179
62 99 181
62 99 177
62 99 181
62 99 178
62 99 180
62 99 180
62 99 181
62 99 179
62 99 181
61 98 179
62 99 180
62 98 176
62 99 178
61 98 177
61 98 177
62 99 179
62 99 181
61 98 177
62 99 180
62 99 179
61 98 180
62 99 178
62 99 177
62 99 178
61 98 176
62 99 176
62 99 177
62 99 179
62 99 179
62 99 179
62 99 179
62 99 179
61 98 176
61 98 178
62 98 175
62 99 175
62 99 176
62 99 178
62 99 177
62 99 178
63 99 178
63 100 179
61 99 177
61 99 177
63 100 179
62 99 175
62 99 177
62 99 175
62 99 178
62 99 176
63 99 178
62 99 176
62 99 176
62 99 175
62 99 172
62 99 173
62 99 179
63 99 178
62 99 178
62 99 180
62 99 175
62 99 176
62 99 172
62 99 177
62 98 174
63 100 177
63 100 180
62 99 173
61 98 178
61 99 177
62 99 171
62 99 178
62 99 175
62 98 168
62 99 175
62 99 177
62 99 174
62 99 177
62 99 174
62 99 173
63 99 176
63 99 173
62 99 169
62 99 174
62 99 170
61 98 168
61 98 172
61 98 174
62 99 171
63 99 175
62 98 170
63 99 175
62 98 164
61 98 168
62 98 170
62 99 174
62 99 176
63 99 176
61 98 169
62 99 177
61 98 170
63 99 175
62 99 172
63 100 174
62 99 172
62 98 165
62 98 161
62 99 169
63 99 173
62 98 169
62 99 171
62 99 171
62 98 167
62 99 171
62 98 171
62 99 170
63 99 170
62 97 164
63 99 172
61 97 163
61 97 158
62 98 168
61 98 171
61 97 165
62 98 167
62 97 166
61 96 157
60 94 158
61 96 161
60 95 156
58 92 150
57 88 138
62 84 123
55 72 99
55 64 59
58 63 43
57 64 47
49 56 43
68 74 49
63 68 47
68 74 52
65 70 49
74 78 48
78 82 50
90 93 63
85 88 58
86 90 61
92 93 57
88 91 59
99 102 63
94 97 57
97 100 66
96 98 60
107 109 67
111 111 65
101 104 63
120 120 73
120 120 70
103 106 66
132 131 79
126 125 73
123 123 69
111 114 72
130 128 77
131 130 76
140 138 81
136 135 77
128 128 79
133 131 78
141 139 78
138 136 82
138 137 75
148 145 81
149 145 85
152 149 83
150 146 81
149 145 86
149 146 82
154 150 88
153 149 78
158 153 93
160 155 85
155 150 88
158 154 88
162 156 86
164 160 91
153 150 83
165 159 89
158 153 87
170 164 94
166 159 87
161 155 84
164 159 90
166 161 90
163 158 84
165 159 84
164 158 88
170 163 87
165 160 90
167 161 90
171 164 92
167 161 89
172 164 91
166 159 86
168 162 85
164 158 85
168 162 90
170 163 89
169 163 90
169 163 88
168 162 86
167 161 84
173 166 91
170 164 87
168 161 86
172 165 89
168 162 87
165 159 79
170 163 89
171 163 87
168 162 84
168 161 86
167 160 87
170 163 86
169 161 84
164 158 85
167 161 81
165 159 83
164 158 83
163 157 82
163 157 78
158 152 77
165 158 80
165 159 81
155 150 74
164 157 85
160 154 84
158 151 80
160 153 81
157 152 77
163 156 78
161 154 82
158 153 73
154 148 77
163 157 84
153 148 73
155 149 75
150 143 72
154 147 72
150 144 70
148 142 71
150 144 72
153 147 66
155 149 69
150 144 69
148 142 70
143 138 59
144 138 66
137 132 60
144 139 61
142 141 57
142 144 44
149 152 53
145 149 49
149 155 44
154 163 36
162 176 30
155 168 28
162 178 22
163 181 16
165 184 19
169 190 11
170 192 0
171 192 0
169 192 0
171 195 0
173 196 0
171 195 0
168 193 0
172 196 0
170 194 0
170 194 0
171 194 0
172 195 0
173 196 0
171 194 0
170 194 0
173 197 0
171 195 0
170 194 0
169 193 0
173 196 0
169 193 0
171 194 0
172 195 0
171 194 0
170 194 0
172 196 0
168 192 0
170 193 0
167 191 0
171 195 0
169 192 0
169 193 0
170 193 0
173 195 0
172 196 0
170 194 0
170 194 0
174 197 0
171 194 0
171 194 0
169 193 0
171 195 0
168 192 0
171 196 0
169 194 0
171 194 0
171 194 0
172 195 0
173 195 0
171 193 0
172 196 0
170 193 0
170 193 0
171 195 0
169 193 0
169 193 0
173 196 0
173 194 0
171 194 0
169 193 0
170 193 0
171 195 0
172 195 0
175 197 0
172 194 0
168 191 0
171 195 0
169 192 0
169 192 0
172 195 0
173 195 0
170 193 0
169 192 0
167 190 0
169 193 0
172 195 0
173 196 0
166 190 0
169 193 0
170 193 0
169 192 0
167 190 0
168 191 0
170 194 0
167 191 0
168 190 0
169 192 0
166 189 0
171 193 0
162 186 31
156 179 67
117 143 133
65 100 165
61 97 162
61 97 154
63 99 172
62 98 168
63 99 170
61 98 163
62 99 172
62 98 166
62 99 171
61 98 169
61 98 174
62 98 172
61 98 176
62 99 174
62 98 175
62 99 174
61 97 174
61 97 172
62 99 178
62 99 175
62 99 175
62 99 177
62 99 177
61 97 173
62 99 176
62 99 178
62 99 180
62 99 180
62 99 179
62 99 180
62 98 175
62 99 179
62 99 180
62 99 180
62 99 178
62 99 178
62 99 179
62 99 179
61 98 178
62 99 179
62 99 180
62 99 178
62 98 178
62 99 180
62 99 178
61 98 178
62 99 179
60 97 177
62 99 180
62 99 179
62 99 180
62 99 181
61 98 176
62 99 177
62 99 178
62 99 180
62 99 181
62 99 180
63 100 179
62 99 180
62 99 177
62 99 177
62 99 175
62 99 179
62 99 178
61 99 179
62 99 177
62 99 177
63 99 177
62 99 180
61 98 175
61 98 177
62 99 178
62 99 177
62 99 178
62 99 177
62 99 179
62 99 176
61 98 173
62 99 178
61 98 175
63 99 179
61 98 173
61 98 176
62 98 173
62 99 175
62 99 177
62 99 175
62 99 177
61 99 177
62 99 173
63 99 173
62 99 177
62 99 176
62 99 174
61 98 171
62 99 175
62 99 178
61 98 171
62 99 176
62 99 175
62 99 176
62 99 176
63 100 177
62 99 178
62 99 177
62 99 176
62 99 173
62 99 176
62 99 172
62 99 176
62 99 173
62 99 173
62 99 176
62 99 179
63 100 177
62 98 174
62 99 174
62 98 171
61 98 169
62 99 173
62 98 166
62 99 172
62 98 170
62 99 168
61 98 172
62 98 167
62 99 176
62 99 168
62 99 172
62 99 172
63 100 173
63 99 172
61 98 170
63 100 173
62 98 167
62 98 170
63 99 175
62 99 168
62 99 169
62 98 165
62 99 171
62 99 170
62 99 169
62 98 172
62 98 165
62 98 169
61 97 169
62 99 171
63 99 168
62 98 165
61 98 166
62 98 165
62 98 168
62 97 165
60 96 163
62 98 162
62 98 167
61 97 162
61 97 156
60 96 162
60 95 154
62 97 166
62 97 161
60 95 155
60 93 148
61 93 148
55 82 124
55 77 109
53 66 67
54 60 46
67 71 48
63 69 50
62 68 46
66 72 52
64 69 46
66 73 45
85 88 51
83 85 49
83 86 53
82 87 61
96 98 63
84 88 54
89 93 56
94 96 56
95 98 64
105 105 68
106 107 63
109 109 65
124 123 76
116 116 68
119 119 68
125 124 70
118 119 73
120 121 75
133 131 80
117 118 76
126 125 74
126 125 68
134 133 70
122 122 70
127 126 70
132 131 71
138 136 76
130 130 73
146 142 78
146 143 85
145 141 78
148 144 85
152 146 82
143 140 79
146 143 75
152 148 81
161 155 90
158 154 86
148 144 79
156 151 86
152 149 83
158 153 84
160 155 87
154 150 82
163 158 86
161 157 83
156 152 81
161 156 82
164 158 93
166 160 89
164 158 87
160 155 90
162 157 86
160 156 81
161 156 86
168 161 88
164 158 90
168 161 83
170 165 94
167 160 89
168 161 86
166 161 89
170 164 88
172 166 93
166 160 85
170 163 90
168 161 88
168 162 93
167 161 86
164 157 85
169 162 86
171 165 87
167 160 83
168 162 87
164 157 80
169 163 84
168 163 82
170 163 88
166 159 84
170 163 86
167 160 84
161 155 80
164 157 84
160 154 76
163 156 77
164 158 82
170 163 85
161 155 77
165 159 83
160 153 76
159 152 77
157 151 74
159 152 86
161 154 77
165 159 83
159 152 78
160 153 80
160 153 80
162 155 76
160 154 75
162 155 77
155 148 72
152 147 69
159 152 73
154 147 69
154 148 70
150 144 72
151 146 72
148 143 67
155 148 69
145 140 64
147 141 65
137 132 63
140 135 59
137 132 57
148 143 58
145 140 64
136 133 47
147 145 62
143 145 44
142 146 44
156 165 49
153 161 45
152 162 39
158 171 39
159 175 25
160 176 28
169 188 28
169 188 19
171 190 0
171 192 0
169 191 0
173 196 0
170 194 0
173 197 0
171 194 0
173 196 0
173 196 0
174 197 0
173 196 0
173 196 0
171 195 0
173 196 0
172 196 0
168 192 0
171 195 0
173 196 0
170 194 0
169 192 0
172 195 0
168 191 0
173 197 0
173 197 0
173 196 0
172 195 0
170 193 0
173 196 0
171 194 0
172 196 0
171 195 0
172 196 0
169 192 0
166 190 0
174 198 0
169 194 0
171 195 0
172 195 0
170 193 0
172 194 0
173 197 0
169 192 0
172 196 0
170 193 0
170 194 0
169 192 0
173 196 0
171 195 0
171 194 0
170 193 0
171 195 0
170 193 0
172 195 0
170 195 0
171 194 0
172 196 0
169 193 0
173 197 0
168 191 0
168 192 0
170 193 0
170 194 0
169 193 0
170 192 0
171 194 0
171 194 0
170 194 0
171 195 0
169 192 0
171 194 0
173 196 0
172 195 0
166 189 0
173 196 0
169 192 0
171 194 0
168 191 0
171 194 0
167 191 0
171 194 0
171 194 0
172 196 0
171 195 0
173 196 0
167 189 0
170 194 0
169 192 0
167 190 0
172 195 0
173 196 0
168 191 36
152 175 72
103 130 133
63 99 161
62 98 164
62 98 159
62 98 163
61 97 159
61 97 167
61 98 171
62 98 167
62 98 169
62 98 171
62 99 174
62 99 175
62 98 168
62 98 169
63 100 177
61 98 173
63 100 178
62 99 176
63 99 178
61 98 174
62 98 175
62 99 174
61 98 173
62 99 179
62 99 175
62 99 179
62 99 176
63 99 178
62 99 178
62 99 179
62 99 179
62 99 179
61 99 179
63 99 179
62 99 179
62 99 178
62 99 178
62 99 181
61 98 178
62 98 179
62 99 180
62 99 180
62 99 179
61 99 178
62 99 180
63 100 180
61 98 179
61 98 178
62 99 181
63 100 178
62 99 178
62 99 179
62 99 179
62 99 178
62 99 178
61 98 174
62 99 178
62 99 179
62 99 177
62 99 176
62 99 178
62 99 180
62 99 179
62 99 178
62 99 181
62 99 179
62 99 175
62 99 178
62 99 179
63 100 179
62 99 180
61 98 177
62 99 177
62 99 176
62 99 175
62 99 176
62 99 176
62 99 177
62 99 177
63 99 175
62 98 171
62 99 177
62 99 174
62 99 176
63 99 173
63 100 180
62 98 175
62 99 175
63 100 178
62 99 175
62 99 178
62 99 178
61 98 176
62 99 174
62 99 171
62 99 177
62 99 174
61 98 176
62 99 178
62 99 175
62 99 178
61 98 172
62 99 172
62 99 174
61 98 175
62 98 169
61 98 174
62 98 167
62 98 169
62 98 169
62 99 170
62 99 169
62 98 173
62 98 165
62 98 171
63 99 172
63 99 177
62 99 172
62 98 171
62 99 177
61 98 171
63 99 172
62 99 177
62 99 171
61 98 168
62 99 177
62 99 176
62 99 175
63 99 172
62 98 165
62 99 174
63 99 174
62 98 171
63 99 170
61 98 167
61 98 167
62 99 171
62 98 170
63 99 176
62 99 169
61 98 168
62 99 170
62 98 171
62 98 166
62 98 168
62 98 166
62 98 167
62 98 169
62 98 168
62 98 167
62 99 170
63 99 171
62 98 165
62 98 169
62 97 164
62 97 163
61 97 167
62 98 170
62 98 162
61 96 152
61 96 161
60 95 155
61 96 155
61 96 162
62 97 168
60 94 151
59 94 154
58 92 151
57 86 138
56 77 111
56 67 73
62 68 50
60 65 39
63 68 47
63 69 49
62 68 46
63 67 47
82 84 48
58 64 45
78 82 55
79 83 50
81 85 56
94 97 61
89 92 53
92 96 57
89 93 59
105 105 63
102 104 64
100 102 58
92 95 60
113 115 67
117 117 73
118 118 70
111 113 66
109 110 66
117 117 72
125 124 75
121 121 73
132 130 76
136 133 80
136 135 79
127 125 73
139 136 76
143 140 80
139 136 77
136 135 77
143 140 81
136 134 77
148 144 82
145 141 80
151 147 85
151 147 81
152 148 87
152 149 81
154 150 83
160 155 85
158 153 87
157 151 87
156 152 88
155 151 77
156 152 84
154 149 79
168 162 90
160 155 86
161 155 82
163 157 87
158 153 84
160 155 87
165 158 83
164 158 91
160 155 86
164 159 87
166 160 87
164 158 88
168 162 89
167 162 92
169 162 90
172 166 90
166 159 82
167 161 78
169 161 89
166 161 86
169 162 88
171 164 92
169 162 86
170 163 85
167 161 88
171 164 86
167 160 84
167 161 86
167 161 84
163 156 81
167 160 87
171 164 87
168 162 85
172 165 91
169 162 83
163 156 76
165 159 82
162 155 80
163 157 80
165 158 81
164 157 78
165 160 84
161 155 81
159 154 75
167 160 80
155 150 76
159 153 76
162 156 75
167 160 87
157 151 72
156 149 75
163 156 80
154 148 72
157 151 69
158 152 80
154 148 65
152 145 68
157 151 78
151 146 71
149 143 65
151 146 64
152 147 69
153 147 72
155 149 73
152 146 69
143 137 62
144 140 59
145 139 66
147 140 65
141 136 65
133 128 54
133 127 53
134 128 59
134 132 54
151 151 56
134 138 39
146 150 47
155 163 44
159 169 48
156 169 32
160 172 36
158 173 22
167 185 30
168 187 19
167 188 0
168 190 0
172 194 0
170 192 0
170 193 0
172 196 0
168 191 0
173 197 0
170 194 0
172 196 0
174 197 0
172 195 0
174 197 0
172 194 0
172 196 0
173 197 0
172 195 0
173 197 0
173 196 0
171 195 0
172 195 0
172 195 0
173 196 0
172 195 0
174 197 0
173 196 0
168 192 0
172 195 0
174 198 0
171 195 0
172 195 0
170 193 0
168 191 0
170 193 0
171 195 0
172 195 0
172 196 0
171 195 0
168 191 0
171 195 0
171 195 0
170 193 0
168 192 0
171 194 0
167 191 0
169 193 0
172 195 0
171 194 0
170 194 0
171 194 0
171 194 0
168 191 0
172 195 0
170 193 0
171 194 0
168 191 0
170 193 0
168 192 0
167 191 0
171 194 0
170 193 0
169 192 0
171 194 0
170 193 0
169 193 0
173 196 0
168 191 0
170 195 0
167 191 0
168 192 0
173 196 0
171 195 0
167 191 0
169 192 0
169 192 0
168 192 0
171 194 0
169 193 0
171 193 0
170 193 0
169 193 0
172 195 0
171 195 0
169 193 0
171 195 0
172 195 0
167 190 0
168 192 0
169 192 0
169 192 0
167 191 0
164 186 60
138 163 92
94 124 148
61 97 154
62 99 171
62 98 166
62 98 159
63 99 168
61 98 168
62 98 168
61 98 169
62 98 172
61 98 168
61 98 169
62 99 172
63 99 174
62 98 176
61 98 170
61 99 177
62 99 175
62 98 171
61 98 174
61 97 175
62 99 177
61 98 173
61 98 173
62 99 176
61 98 178
61 97 173
62 99 177
61 98 175
62 100 181
62 99 178
61 98 178
61 99 180
62 99 179
63 99 179
62 99 179
62 99 178
62 99 179
61 98 178
62 99 180
62 99 180
61 98 178
62 99 178
62 99 181
61 98 178
61 98 176
61 98 179
62 99 177
62 99 180
62 99 177
62 99 181
61 98 180
62 99 179
62 99 178
62 99 179
62 99 177
62 99 179
62 99 178
62 99 178
62 99 177
62 99 180
62 99 181
62 99 180
62 99 179
61 99 178
62 99 177
62 99 181
62 99 179
62 99 180
62 99 177
62 99 180
61 99 177
62 99 178
62 99 176
62 99 180
62 99 174
63 99 179
62 98 178
62 99 176
62 99 177
61 99 177
62 99 176
61 98 175
62 99 177
62 99 179
61 99 179
62 98 172
62 99 179
62 99 178
63 100 179
62 99 175
62 99 179
63 100 178
62 99 178
62 98 172
62 99 179
63 99 174
62 99 174
62 99 176
62 99 179
63 99 175
62 99 178
62 98 175
62 99 171
62 99 172
62 99 174
62 99 170
63 100 178
62 99 177
61 98 169
62 98 173
61 98 175
62 99 174
62 99 177
62 99 170
62 98 172
63 99 175
62 98 172
63 99 173
62 99 174
62 98 172
62 99 170
62 99 175
62 98 170
62 98 171
62 99 177
62 99 173
62 98 171
62 99 172
62 98 172
63 99 172
62 99 176
62 99 170
62 98 168
62 98 170
63 99 175
63 99 175
63 99 175
63 99 168
61 98 171
62 98 169
63 99 172
62 98 169
61 97 160
63 99 170
62 98 168
62 99 174
61 98 165
62 99 169
61 96 162
62 98 167
61 97 163
62 98 171
61 98 168
62 97 163
61 97 161
61 96 159
61 96 160
61 97 160
60 96 163
60 95 154
61 97 161
60 96 163
62 98 164
61 96 158
60 95 158
60 95 156
60 94 155
60 93 151
62 93 149
57 78 107
61 74 85
45 55 48
59 65 40
62 68 42
53 60 43
56 62 38
63 67 41
62 68 48
75 80 52
76 79 46
70 75 49
85 89 57
92 94 58
92 93 56
89 92 57
89 91 56
89 92 55
96 99 62
97 100 61
114 114 65
109 109 69
120 119 73
119 118 68
107 108 64
122 121 73
117 116 66
129 128 74
128 126 74
130 129 73
125 123 69
139 136 83
128 127 76
135 132 72
144 140 81
144 141 80
137 136 75
137 134 77
135 133 71
137 135 79
148 145 81
151 147 80
144 142 81
155 150 80
152 148 81
147 144 83
153 149 85
157 153 84
158 153 83
156 152 84
155 150 82
159 154 82
161 156 81
153 148 80
167 160 89
161 156 85
160 155 79
155 150 83
158 154 79
161 156 84
167 161 86
165 160 82
161 155 87
165 159 80
167 161 87
171 164 89
160 155 86
168 162 91
166 160 88
162 156 81
171 165 90
165 159 84
165 159 78
169 163 90
169 162 88
169 163 81
170 164 90
171 164 85
162 156 83
167 161 85
169 161 83
165 158 77
170 162 86
160 154 75
162 156 77
164 158 82
162 156 81
169 163 87
168 161 89
165 158 75
167 160 82
161 155 80
165 158 82
163 157 81
161 155 79
162 155 79
164 156 83
158 152 71
153 147 71
158 152 76
164 157 80
164 157 82
159 152 79
158 152 75
155 149 74
165 157 84
153 147 74
160 153 80
152 147 74
160 152 82
154 148 71
154 147 70
147 142 66
154 147 68
150 145 68
151 144 71
148 142 67
145 139 63
154 148 69
142 137 61
148 142 61
143 137 60
142 136 62
144 138 65
133 128 57
128 124 52
144 144 51
143 144 49
152 155 52
152 158 45
149 160 28
150 160 34
156 168 28
156 169 30
162 182 25
164 182 16
169 190 11
167 187 0
170 190 0
171 193 0
169 190 0
174 197 0
169 192 0
173 197 0
171 194 0
174 197 0
170 194 0
171 195 0
174 197 0
173 197 0
172 195 0
175 196 0
172 195 0
173 195 0
172 195 0
171 195 0
173 196 0
170 192 0
168 192 0
169 192 0
173 196 0
172 196 0
172 196 0
170 194 0
171 193 0
171 194 0
171 195 0
172 195 0
174 197 0
173 197 0
171 195 0
171 194 0
172 196 0
171 195 0
168 192 0
171 194 0
172 196 0
174 197 0
171 194 0
169 193 0
170 194 0
173 195 0
171 194 0
171 195 0
170 194 0
169 192 0
170 194 0
169 192 0
171 194 0
169 192 0
172 196 0
170 194 0
171 195 0
172 195 0
171 195 0
172 195 0
167 190 0
172 195 0
172 195 0
172 195 0
172 196 0
170 193 0
174 197 0
167 190 0
168 192 0
170 194 0
171 195 0
172 195 0
170 194 0
167 190 0
171 195 0
173 195 0
172 195 0
168 191 0
169 192 0
165 189 0
167 190 0
168 191 0
172 194 0
165 189 0
170 193 0
168 191 0
168 191 0
168 191 0
170 193 0
168 192 0
169 191 0
172 195 0
156 180 70
121 147 113
74 107 149
61 98 166
62 98 165
62 98 163
62 99 165
62 98 169
61 98 163
61 98 166
62 98 167
61 97 167
62 99 176
62 98 169
62 99 173
62 98 171
61 98 175
62 99 177
61 98 175
62 98 172
61 98 176
62 99 175
62 98 176
61 98 176
62 98 174
61 98 175
62 99 175
61 97 176
62 99 173
62 99 180
61 97 176
61 98 175
62 99 180
61 98 176
63 100 178
62 99 179
61 98 179
62 99 180
62 99 178
63 100 180
62 99 180
62 99 178
62 99 179
62 99 178
62 99 180
61 98 179
62 99 177
61 97 178
61 98 175
62 99 177
62 99 180
62 99 179
61 98 176
62 99 178
62 99 180
61 98 177
62 99 177
61 98 179
62 99 181
62 99 179
61 98 178
62 99 179
62 99 181
62 99 178
62 99 179
63 99 179
62 99 175
62 99 176
62 99 178
62 99 178
62 99 177
61 98 176
62 99 179
62 99 178
61 98 174
62 99 177
62 99 173
62 99 176
62 99 179
62 99 175
61 98 175
62 99 178
62 99 175
62 99 172
62 99 173
62 99 176
62 99 174
62 99 176
62 98 172
61 98 171
62 99 177
62 99 176
62 99 177
61 98 167
62 99 177
62 99 176
62 99 177
62 99 171
61 98 173
62 99 176
62 99 175
62 99 176
61 98 171
62 99 176
63 99 173
62 98 174
62 99 175
62 99 174
61 98 170
62 99 172
62 99 176
61 98 172
62 98 168
62 99 177
62 99 172
62 99 178
62 99 177
62 99 172
62 99 172
62 99 172
62 98 171
62 98 172
62 98 170
62 99 172
61 98 168
63 99 170
63 99 172
62 99 169
62 98 170
62 98 171
62 99 172
62 99 177
62 99 174
61 98 169
61 98 172
62 98 167
63 100 177
62 99 170
62 98 168
62 98 164
62 98 170
62 99 169
62 98 162
62 98 165
62 98 170
62 98 164
62 99 165
61 97 166
62 98 169
62 98 170
61 98 170
61 97 164
61 98 164
62 98 166
62 98 166
62 98 165
62 98 165
62 98 169
62 97 163
61 97 162
61 97 162
61 97 161
62 98 163
61 96 155
61 96 162
62 98 169
61 97 161
60 95 158
61 96 156
62 97 166
59 93 151
59 91 145
59 84 126
47 68 98
58 67 66
53 60 41
58 63 39
63 68 44
55 60 39
63 68 43
58 64 40
67 72 45
78 80 45
85 87 53
79 82 52
89 92 51
95 97 59
84 87 53
89 93 60
109 109 64
103 104 64
93 95 59
94 97 56
117 117 62
102 104 61
102 103 61
116 117 74
122 121 73
107 109 64
125 124 71
125 125 75
120 120 71
142 139 81
123 122 73
122 123 73
132 132 72
142 139 79
133 131 69
145 142 83
145 141 81
146 142 83
149 145 79
145 142 82
144 141 74
153 149 85
148 145 80
146 142 79
155 151 84
157 152 81
151 148 78
147 143 76
153 148 84
161 156 87
159 154 87
159 153 84
153 148 79
160 156 84
159 154 84
163 157 87
159 154 84
163 157 78
161 155 80
162 156 84
160 155 81
166 161 93
167 161 90
171 164 93
162 156 82
169 162 90
168 161 84
171 164 90
160 155 78
171 163 88
163 157 82
160 155 75
165 160 83
166 161 85
168 161 84
169 162 87
165 159 84
160 155 76
166 160 82
169 162 83
168 161 85
167 161 81
168 161 86
165 158 79
169 161 85
164 157 86
162 156 82
161 155 74
170 163 86
168 161 81
165 158 82
164 157 84
159 153 69
158 153 71
161 154 78
159 153 71
172 164 91
163 156 80
160 153 73
156 150 72
161 154 75
162 156 81
156 150 70
160 154 76
163 156 78
158 151 75
159 152 79
159 154 70
155 150 68
155 149 75
150 144 70
158 152 75
150 144 65
147 141 68
151 146 64
152 146 61
150 143 65
147 140 67
143 138 60
138 132 61
139 134 62
152 145 75
136 131 63
131 126 48
142 139 48
142 141 47
144 147 51
151 158 36
154 161 41
149 158 41
161 173 37
147 157 30
161 175 34
161 176 25
162 182 11
167 188 0
168 189 11
167 188 0
169 190 0
172 193 0
173 196 0
174 198 0
170 193 0
171 194 0
173 197 0
170 193 0
169 193 0
172 196 0
172 195 0
173 197 0
170 194 0
171 194 0
172 195 0
173 196 0
174 197 0
170 194 0
171 195 0
170 193 0
171 194 0
169 192 0
172 196 0
172 195 0
171 194 0
172 195 0
170 194 0
170 193 0
172 195 0
168 191 0
170 194 0
174 196 0
172 195 0
170 193 0
172 196 0
174 197 0
171 194 0
171 194 0
169 193 0
168 191 0
173 196 0
172 196 0
173 196 0
171 194 0
170 193 0
170 193 0
170 194 0
172 195 0
168 192 0
171 194 0
174 196 0
174 197 0
172 196 0
173 196 0
173 196 0
169 192 0
168 192 0
170 194 0
172 195 0
171 196 0
169 192 0
171 195 0
171 195 0
171 194 0
170 194 0
168 191 0
170 194 0
172 194 0
167 191 0
170 193 0
169 193 0
168 191 0
169 193 0
167 191 0
171 194 0
169 193 0
169 192 0
171 194 0
169 193 0
169 191 0
171 194 0
169 193 0
169 193 0
168 191 0
168 191 0
167 191 0
167 190 0
172 195 0
167 190 25
146 170 78
102 131 141
66 101 159
61 97 160
62 98 166
61 97 161
61 98 167
61 97 166
60 97 162
62 99 173
61 97 169
62 99 169
62 98 168
62 98 172
62 99 172
62 98 174
61 98 171
62 99 174
62 99 175
62 98 173
62 99 176
62 99 174
61 98 174
61 98 174
62 99 178
62 98 173
62 99 176
62 99 176
62 99 175
62 99 178
62 99 175
63 100 180
62 98 176
62 99 179
63 99 175
61 98 175
62 99 178
62 99 179
61 98 179
63 99 178
61 98 179
62 99 179
62 98 179
62 99 180
62 99 180
63 100 179
61 98 176
62 98 176
61 97 175
61 98 178
61 98 178
62 99 178
62 99 177
62 99 179
62 98 176
62 99 178
62 99 176
62 99 177
61 98 177
62 99 179
62 99 178
62 99 179
62 99 178
62 99 176
62 99 177
62 99 177
63 100 177
62 99 179
62 99 177
62 99 174
61 98 175
61 98 177
61 98 174
62 99 177
62 99 174
63 100 178
62 99 179
61 98 177
61 98 176
61 98 175
62 99 178
61 98 174
62 99 177
62 99 176
63 100 178
62 99 180
62 99 175
62 99 175
62 98 174
62 99 177
62 98 174
63 100 177
62 99 176
63 99 177
62 99 179
62 99 174
63 100 177
63 99 175
61 98 169
62 98 171
62 98 170
62 99 176
61 98 171
62 98 172
62 99 176
62 99 174
62 99 176
62 98 172
62 99 176
62 99 175
62 99 172
63 99 172
62 99 175
63 99 174
62 99 174
62 99 177
63 99 171
62 98 172
63 99 173
63 99 173
62 98 171
62 99 174
62 99 176
62 99 171
61 98 168
62 99 171
63 99 174
62 99 170
62 98 172
62 98 173
63 99 175
62 99 173
63 99 169
61 98 169
63 99 174
62 99 174
61 97 159
64 100 175
61 98 171
62 98 164
63 99 172
62 98 170
63 99 171
62 98 168
61 97 161
62 98 171
62 98 165
63 99 168
62 98 170
62 98 167
61 97 163
62 97 159
62 98 168
62 99 169
62 98 166
61 96 158
62 98 163
62 98 161
61 97 159
61 97 164
61 97 164
62 98 165
62 97 162
62 98 166
62 97 160
61 96 162
61 96 157
60 95 153
61 96 162
61 95 159
60 94 154
63 96 151
51 79 126
51 74 111
63 73 65
55 61 45
59 63 39
58 63 36
55 60 39
63 67 43
69 75 53
82 85 49
74 78 47
74 78 47
83 85 49
87 89 52
85 88 53
96 98 60
89 92 55
90 93 58
96 97 58
104 105 63
102 103 59
96 98 59
96 98 61
115 114 66
115 116 65
110 110 65
119 119 70
120 119 65
122 121 63
119 119 67
120 120 70
135 133 75
130 127 74
134 133 71
131 128 79
143 140 78
129 129 74
150 145 82
137 135 73
139 137 77
148 145 78
142 138 80
145 142 80
146 141 77
140 138 78
150 145 76
152 147 84
151 147 79
150 146 75
153 149 83
159 154 82
164 158 87
157 153 85
155 151 83
159 154 84
162 156 86
160 154 83
164 158 86
159 154 85
161 155 79
160 154 82
164 158 85
161 156 88
159 154 78
160 154 80
161 156 82
163 158 84
167 160 88
169 163 83
165 159 85
164 157 85
164 159 84
165 158 79
165 159 80
162 157 78
163 158 78
171 164 87
166 160 84
165 158 84
163 157 81
163 158 77
164 157 81
167 161 78
164 158 79
168 161 88
164 158 84
165 158 79
168 162 84
164 157 77
170 162 87
161 155 78
167 159 85
162 155 83
162 155 83
162 156 74
165 158 78
158 151 74
166 159 81
157 151 75
155 150 76
156 150 73
160 153 80
151 144 75
156 151 64
160 153 76
153 146 67
159 153 74
154 148 68
155 149 75
156 150 69
160 154 84
155 148 71
152 147 68
152 145 65
151 146 66
142 136 62
150 144 63
144 137 68
145 141 64
146 141 61
144 139 62
144 138 61
144 137 62
141 135 61
137 134 48
134 134 47
142 140 56
141 142 48
147 153 47
157 167 37
150 155 36
155 168 30
157 172 22
161 175 37
161 178 22
158 176 16
171 191 11
170 190 0
172 193 0
172 193 0
173 194 0
168 192 0
173 197 0
171 195 0
172 196 0
173 196 0
174 198 0
169 192 0
171 195 0
174 197 0
174 197 0
174 197 0
171 194 0
174 197 0
170 194 0
174 196 0
172 195 0
172 195 0
170 193 0
172 195 0
171 194 0
173 196 0
171 194 0
174 196 0
170 193 0
172 195 0
172 196 0
174 197 0
173 197 0
173 196 0
170 193 0
171 195 0
171 194 0
170 193 0
171 194 0
171 194 0
171 194 0
171 194 0
170 194 0
170 194 0
171 194 0
173 196 0
171 195 0
170 194 0
168 191 0
169 192 0
171 194 0
170 193 0
170 193 0
172 195 0
167 191 0
171 195 0
172 196 0
170 192 0
171 195 0
168 192 0
171 194 0
171 194 0
170 194 0
172 196 0
168 191 0
172 195 0
172 194 0
168 190 0
172 195 0
169 192 0
167 191 0
172 195 0
169 193 0
169 192 0
167 188 0
168 191 0
169 193 0
171 193 0
170 193 0
169 193 0
164 188 0
169 193 0
168 191 0
171 194 0
170 194 0
168 190 0
171 194 0
167 189 0
168 191 0
167 191 0
169 192 0
166 189 25
139 164 100
75 107 155
63 99 166
62 99 170
62 98 167
62 98 167
62 98 165
62 98 164
61 98 168
62 98 171
60 96 165
62 98 171
62 99 176
62 99 175
62 99 171
62 99 172
61 98 176
62 99 172
62 99 173
61 97 167
62 99 178
62 98 178
61 98 171
61 98 174
62 99 177
62 98 176
62 99 175
61 98 177
61 98 177
62 99 178
61 97 172
62 99 178
61 98 174
62 99 177
62 99 179
62 99 177
61 98 177
61 98 175
61 98 175
63 99 179
62 99 178
61 99 180
62 99 179
62 99 178
61 97 176
62 99 179
62 99 179
62 99 177
62 99 178
61 98 178
62 99 179
62 99 178
62 98 180
62 99 181
62 99 177
62 99 181
63 100 181
62 99 179
62 99 178
61 98 177
62 99 176
61 98 174
62 99 178
62 99 179
62 99 176
61 98 177
62 99 180
62 99 176
62 99 179
62 99 178
62 99 179
63 99 179
62 99 178
62 98 174
62 99 175
61 99 176
62 99 181
63 99 178
62 99 175
62 99 175
62 99 175
62 98 171
62 99 174
62 99 180
62 99 175
62 99 176
62 99 178
62 99 178
61 98 175
63 99 176
62 99 179
62 99 175
62 99 173
63 99 175
62 99 171
61 98 174
62 99 177
63 99 176
63 99 174
62 99 173
62 99 176
62 99 177
62 99 175
62 99 170
62 99 175
62 98 168
63 99 172
62 99 176
62 99 173
62 99 174
62 99 176
62 99 176
62 99 174
62 98 171
62 98 169
62 99 172
62 99 177
61 98 170
62 98 173
62 99 173
62 99 176
62 99 170
63 100 175
62 99 171
62 99 173
62 98 166
63 99 172
62 99 171
62 98 171
62 98 171
62 99 173
63 99 174
62 98 170
62 98 167
62 98 160
62 99 167
62 98 167
62 98 171
62 98 166
62 99 173
62 99 169
62 99 171
62 99 169
62 98 170
61 97 164
62 98 167
62 99 170
63 99 173
62 98 167
63 99 168
62 98 168
62 98 165
63 99 166
62 98 167
62 97 160
62 97 166
62 98 171
62 97 157
63 99 170
62 99 169
61 97 166
60 96 157
62 98 167
61 96 160
61 96 162
62 97 161
63 98 165
61 96 160
60 94 152
59 93 151
60 94 152
59 92 151
56 88 138
53 76 106
60 73 86
54 59 43
52 58 31
55 60 39
61 67 40
58 65 43
76 80 49
63 68 45
72 77 46
82 85 47
75 79 43
83 87 51
80 83 52
74 81 55
89 93 56
80 84 50
97 98 50
99 100 61
100 102 61
110 110 60
109 109 64
113 114 68
118 119 67
112 112 67
109 110 63
108 110 64
127 125 68
118 117 69
129 127 66
123 121 65
134 133 75
143 139 75
130 128 72
137 134 69
134 133 79
136 134 72
143 140 81
134 132 77
137 134 75
141 138 77
151 147 78
151 147 83
149 145 82
148 144 75
147 144 83
149 145 78
151 147 78
149 146 83
159 153 82
154 150 81
158 154 79
156 151 76
156 151 75
163 157 82
159 153 82
163 157 80
156 151 78
164 158 85
164 158 84
163 158 85
158 153 80
159 153 79
165 159 83
166 160 82
156 151 76
162 157 81
158 153 70
164 159 83
163 157 78
165 159 82
161 156 76
161 156 77
167 160 83
165 159 83
169 162 81
163 157 83
165 158 82
162 156 80
166 160 86
165 158 79
162 156 84
160 154 75
163 158 80
165 158 80
165 158 80
159 153 75
161 154 75
170 163 83
154 148 70
159 154 75
159 153 76
159 153 79
158 152 75
161 155 73
161 154 71
158 152 74
165 158 79
164 157 81
161 154 75
160 152 76
156 150 73
152 147 67
156 150 75
159 152 76
161 154 79
147 141 70
155 149 75
150 144 67
147 142 57
155 149 68
146 141 62
156 149 64
151 145 69
153 146 67
146 140 61
150 144 69
142 135 69
147 141 64
143 138 67
134 129 56
136 130 54
140 135 62
138 135 53
137 137 53
142 144 49
144 147 51
151 157 42
147 158 28
158 168 41
159 170 37
159 174 28
162 179 11
164 181 22
167 186 16
167 186 11
169 190 0
171 192 0
170 190 0
173 194 0
171 195 0
171 195 0
172 196 0
170 194 0
174 197 0
172 196 0
170 193 0
172 195 0
170 193 0
169 193 0
170 194 0
173 197 0
170 193 0
168 191 0
171 195 0
171 194 0
170 194 0
170 194 0
168 191 0
172 195 0
172 196 0
171 195 0
172 195 0
170 194 0
169 193 0
170 193 0
170 194 0
171 195 0
171 195 0
167 190 0
171 195 0
171 194 0
170 194 0
170 193 0
171 194 0
172 196 0
168 192 0
167 190 0
171 194 0
172 195 0
171 194 0
171 195 0
171 194 0
172 195 0
173 196 0
170 194 0
167 189 0
168 191 0
169 193 0
168 191 0
171 194 0
172 196 0
169 193 0
170 193 0
175 198 0
170 192 0
171 194 0
170 193 0
167 190 0
170 193 0
169 193 0
168 192 0
174 197 0
170 192 0
168 192 0
173 195 0
170 193 0
172 196 0
171 194 0
170 194 0
167 191 0
170 193 0
170 193 0
171 194 0
169 193 0
168 191 0
165 188 0
170 193 0
171 196 0
169 193 0
166 190 0
168 191 0
170 192 0
165 189 0
172 195 0
163 186 18
157 180 62
130 156 110
82 113 150
63 99 168
62 98 162
62 98 158
62 98 168
61 97 162
62 99 170
62 98 166
61 97 169
61 98 168
62 99 171
61 97 170
62 99 173
62 98 172
61 98 170
61 98 173
62 98 168
62 99 177
61 97 170
62 99 176
62 99 176
62 98 175
62 98 173
62 99 177
61 98 176
61 97 172
61 98 176
63 99 179
61 98 177
62 98 174
61 97 175
62 99 177
61 98 178
62 99 178
61 98 177
62 99 179
62 99 179
61 97 176
63 99 177
62 99 178
62 99 180
61 98 179
62 99 179
61 97 177
61 98 177
62 99 177
62 99 179
62 99 179
62 99 180
62 99 178
62 99 177
62 99 178
62 99 177
61 98 179
62 99 178
62 99 176
63 100 179
61 98 177
62 99 177
62 99 179
62 99 178
63 99 175
62 98 176
62 99 177
62 99 179
62 99 179
61 98 178
61 98 175
61 98 175
62 99 178
62 99 176
62 98 177
62 99 175
62 98 175
62 99 177
61 99 178
62 99 175
62 99 177
63 100 178
62 99 175
61 98 177
61 98 174
62 99 175
62 99 178
61 98 171
62 99 177
62 99 176
62 99 175
63 100 177
62 99 172
62 98 171
62 99 173
62 99 175
61 98 172
62 98 174
61 98 175
62 99 175
62 98 170
62 99 178
63 99 175
62 99 175
61 98 175
62 99 175
63 100 176
62 98 170
62 99 173
62 99 177
62 99 174
62 98 170
62 99 172
61 98 168
62 98 173
63 100 177
62 99 174
62 99 172
62 98 171
61 98 172
62 99 175
62 99 173
62 98 170
62 99 173
62 98 169
62 99 174
62 98 173
61 98 167
62 99 168
62 99 175
62 99 175
61 98 165
63 99 171
63 99 173
63 100 171
61 97 167
62 99 170
63 99 171
63 99 169
62 99 169
63 99 167
63 100 174
62 99 170
63 99 170
63 99 171
62 99 171
62 98 172
61 97 164
62 98 168
62 98 170
61 97 168
61 98 168
61 97 166
63 100 175
61 97 162
62 98 167
62 98 164
61 97 164
62 98 164
61 98 170
62 97 162
60 96 158
62 98 167
62 98 165
62 97 161
62 97 164
61 97 156
62 97 161
61 96 159
60 96 163
61 96 156
60 95 156
59 93 147
60 95 155
62 94 143
54 79 114
51 67 85
53 60 45
51 57 31
51 56 36
70 73 36
63 67 36
77 80 52
70 73 43
56 64 36
83 86 43
77 81 46
72 77 49
76 80 46
91 93 53
82 86 56
100 102 60
88 92 53
95 97 59
106 106 58
98 100 59
105 106 56
110 111 58
119 118 67
124 123 63
113 113 57
116 115 63
126 124 62
118 118 68
127 125 60
135 133 71
138 135 71
132 130 66
132 131 75
128 126 67
136 132 72
139 135 76
131 131 70
142 138 76
145 142 76
152 147 80
150 147 78
152 148 75
157 152 81
147 143 77
144 141 76
151 147 81
150 146 83
150 146 80
152 148 81
149 146 72
159 153 80
155 151 78
154 150 77
163 158 89
159 153 83
162 155 79
161 155 84
157 152 80
160 154 79
162 157 80
166 160 82
166 160 84
161 155 83
157 152 76
167 161 84
164 158 83
158 152 78
160 156 78
165 159 75
168 161 83
164 158 80
170 164 89
165 158 80
168 161 84
161 156 74
165 159 79
166 159 82
165 160 78
166 159 82
163 158 83
166 159 79
163 157 80
169 163 84
166 160 84
162 155 80
166 159 80
159 153 78
158 153 75
156 151 75
154 148 74
158 152 79
156 149 75
163 156 86
160 153 80
159 153 75
164 157 79
161 156 74
152 146 72
163 156 80
158 151 78
158 151 67
146 141 62
159 153 75
148 141 68
159 153 69
164 156 81
151 145 68
163 155 77
155 149 71
150 144 68
140 135 63
150 143 75
153 146 71
154 147 70
145 140 56
141 135 48
151 145 63
146 141 60
135 129 61
128 123 56
140 134 59
136 132 47
141 136 59
140 140 48
144 147 42
145 144 49
147 152 49
150 156 39
161 173 34
154 169 22
161 173 34
163 180 19
165 185 22
165 186 11
165 186 0
167 186 0
172 194 0
173 194 0
169 190 0
172 196 0
173 196 0
172 195 0
172 195 0
169 193 0
168 192 0
171 195 0
171 195 0
172 195 0
172 195 0
170 194 0
171 195 0
169 193 0
172 195 0
168 191 0
171 195 0
171 195 0
170 194 0
171 195 0
172 194 0
173 195 0
171 195 0
172 195 0
173 196 0
171 195 0
170 193 0
172 196 0
169 193 0
172 195 0
170 194 0
170 193 0
170 194 0
170 194 0
172 196 0
172 196 0
168 191 0
169 192 0
172 195 0
170 193 0
171 194 0
168 191 0
171 195 0
171 195 0
169 193 0
172 194 0
169 193 0
168 192 0
174 196 0
170 193 0
167 191 0
171 194 0
165 189 0
164 187 0
169 192 0
171 194 0
165 189 0
169 191 0
171 194 0
172 195 0
172 196 0
170 194 0
168 191 0
172 196 0
168 191 0
170 193 0
170 194 0
170 193 0
167 191 0
173 196 0
171 194 0
170 193 0
172 195 0
169 192 0
169 192 0
170 192 0
169 191 0
163 186 0
170 193 0
169 193 0
167 191 0
167 190 0
168 192 0
166 189 0
173 196 0
171 195 0
167 191 0
150 174 70
113 139 126
62 98 161
62 98 164
61 97 155
63 99 163
61 97 164
62 98 167
61 97 166
63 99 170
61 97 165
62 98 173
61 98 167
62 98 172
61 97 168
61 98 175
61 98 166
61 98 175
62 98 175
62 99 175
61 98 172
62 99 176
61 98 176
62 99 178
62 98 174
62 99 179
62 98 178
62 99 178
62 99 176
62 98 178
62 99 175
62 99 177
61 98 176
61 98 177
62 99 176
62 99 178
61 98 177
62 98 177
61 98 177
61 98 175
63 99 179
62 99 178
62 99 179
62 99 179
62 99 179
61 98 177
62 99 177
62 99 178
62 99 180
61 98 177
62 99 181
62 99 180
62 99 180
62 99 178
62 99 180
62 99 178
62 99 178
62 99 175
62 99 179
62 99 178
62 99 179
62 99 176
63 99 175
62 99 177
62 99 179
62 99 179
62 99 178
62 99 179
61 98 178
62 99 176
63 99 176
63 100 179
61 99 178
62 99 175
62 99 179
62 99 175
62 99 178
62 99 178
62 99 175
62 99 178
61 98 174
62 99 173
62 99 179
62 99 180
63 99 176
62 99 176
62 99 177
61 98 173
62 99 175
62 99 174
61 98 172
62 99 176
62 99 178
62 99 174
62 99 177
62 99 175
62 99 173
62 99 176
62 99 175
62 99 174
63 99 172
63 100 179
63 99 178
62 99 171
62 98 174
62 98 173
63 100 179
62 99 173
62 99 173
62 99 174
62 99 174
62 98 170
62 99 177
62 99 174
62 98 169
63 100 177
62 98 169
62 99 172
63 99 175
63 99 171
62 99 173
62 99 176
63 100 176
62 98 165
63 99 174
62 99 169
63 100 176
63 99 173
62 98 167
62 98 171
63 99 171
63 99 171
62 98 165
63 99 176
62 99 172
61 98 167
62 98 166
63 99 171
60 97 164
62 99 170
63 99 170
62 99 174
62 98 165
62 98 166
62 99 169
62 98 162
61 97 161
62 99 172
62 98 169
62 98 165
62 99 169
62 98 157
61 97 164
62 98 166
62 97 160
62 98 166
62 97 165
61 97 157
62 98 161
61 97 163
63 99 166
62 98 162
62 97 166
60 95 159
61 97 159
62 98 167
61 96 154
62 98 165
61 96 157
61 96 154
59 93 153
62 96 155
60 94 153
61 95 150
52 80 126
59 75 93
66 75 69
62 65 33
51 57 34
46 53 34
57 63 40
71 76 44
56 61 38
83 86 43
71 76 41
75 78 49
80 83 54
79 84 49
75 80 44
89 90 53
90 92 45
89 92 51
98 101 62
108 108 61
122 120 66
109 110 61
116 116 64
107 109 63
118 117 61
105 107 58
121 121 64
117 118 64
118 117 67
122 121 69
133 130 72
132 130 72
130 129 72
135 133 72
142 139 74
129 127 71
135 132 70
134 131 73
127 127 70
141 139 68
147 143 80
137 135 74
146 143 72
142 139 65
153 148 73
145 142 76
155 150 81
161 155 82
149 146 76
162 156 83
163 156 85
153 149 73
158 152 82
159 153 80
157 152 78
157 153 80
161 156 79
156 152 76
163 157 85
157 152 80
156 151 74
157 153 73
164 158 82
160 156 78
159 153 76
162 157 79
161 155 76
159 153 77
163 157 80
166 160 84
167 160 87
162 155 80
163 157 83
163 157 83
166 159 80
166 159 84
162 156 75
167 160 84
159 154 78
165 158 80
167 160 83
170 163 87
165 158 77
159 153 76
164 158 75
164 158 80
167 160 87
162 156 81
159 153 77
160 153 76
158 152 75
159 153 77
162 156 79
161 155 69
160 153 71
159 153 78
161 154 75
162 156 77
162 155 78
159 152 75
155 150 67
156 150 75
155 148 65
160 155 74
158 150 79
153 146 64
149 143 69
148 143 59
147 142 65
154 147 73
153 147 62
149 143 65
147 142 61
148 142 62
148 142 62
139 134 52
142 136 61
142 136 60
141 135 58
147 141 58
143 138 59
129 127 48
139 135 57
150 148 56
138 141 39
140 144 42
143 149 37
150 158 41
153 162 47
158 170 32
153 166 30
163 178 30
164 180 28
162 178 16
167 188 0
162 184 0
172 193 0
170 192 0
170 191 0
172 194 0
173 196 0
174 197 0
169 193 0
170 194 0
175 198 0
172 195 0
171 195 0
173 196 0
172 196 0
171 195 0
172 195 0
173 197 0
171 194 0
171 195 0
171 195 0
173 197 0
170 194 0
171 195 0
172 195 0
170 193 0
168 192 0
173 196 0
168 191 0
172 195 0
170 194 0
173 196 0
170 193 0
169 193 0
173 196 0
171 195 0
174 197 0
169 193 0
171 195 0
172 194 0
172 196 0
167 190 0
170 193 0
168 190 0
169 193 0
174 197 0
171 195 0
172 195 0
169 192 0
169 192 0
170 193 0
168 192 0
170 193 0
171 194 0
171 194 0
172 195 0
169 193 0
168 192 0
168 191 0
166 190 0
170 193 0
168 191 0
168 192 0
173 195 0
167 190 0
166 190 0
169 192 0
167 191 0
169 192 0
171 195 0
169 192 0
171 194 0
167 191 0
167 190 0
170 193 0
168 191 0
171 194 0
167 190 0
171 194 0
173 196 0
165 189 0
171 194 0
173 196 0
168 191 0
170 193 0
171 194 0
168 192 0
167 191 0
170 194 0
166 190 0
170 194 0
166 189 31
148 172 74
101 129 136
61 97 160
61 97 157
62 98 161
62 98 168
62 98 174
62 99 168
62 99 167
62 98 168
62 98 171
61 97 166
60 97 169
61 98 171
61 96 164
62 99 174
62 98 173
62 99 176
62 99 176
61 98 175
61 98 176
62 98 175
62 98 176
62 98 174
62 99 176
62 99 176
61 98 173
62 99 174
61 98 172
62 99 179
62 99 174
61 98 175
61 98 177
62 99 179
61 98 178
61 98 175
61 98 176
62 98 176
62 99 179
62 99 176
61 98 178
62 99 179
60 96 172
62 99 181
62 99 179
61 98 178
61 98 176
61 98 177
61 98 174
61 98 176
61 98 176
61 98 179
63 100 177
63 100 180
62 99 180
61 98 176
62 99 178
61 98 179
61 98 177
61 98 178
62 99 178
62 99 177
62 99 178
62 99 179
62 99 180
62 99 177
62 99 178
62 99 178
63 100 178
61 97 171
61 98 176
62 99 177
62 99 177
62 99 174
61 98 173
61 98 171
62 99 178
62 99 178
62 98 175
61 98 172
62 99 173
62 99 177
62 99 178
61 98 174
62 99 179
61 98 171
62 99 177
61 98 172
62 98 174
62 99 173
62 99 176
62 99 173
61 98 176
62 99 175
62 99 174
62 99 174
61 98 173
62 98 170
62 99 172
63 100 179
63 99 174
61 98 172
63 100 176
61 98 172
62 99 170
61 98 168
62 99 175
62 99 175
63 99 172
62 99 174
63 99 171
63 99 173
61 98 170
62 99 172
62 98 168
62 98 171
62 99 177
62 99 175
62 99 169
62 99 173
62 99 173
62 98 170
62 98 168
62 99 177
63 99 168
62 99 172
62 98 167
61 98 172
62 98 164
62 99 170
62 98 169
62 98 168
62 98 164
61 97 167
62 99 176
62 98 165
63 99 171
63 99 168
62 98 164
62 98 167
63 100 174
63 99 175
62 98 167
62 98 168
62 98 166
63 99 169
62 98 166
61 97 162
62 98 161
62 99 168
61 97 166
62 98 168
62 99 168
62 99 168
62 99 170
62 97 158
63 99 165
62 98 170
61 97 165
62 98 169
63 99 170
61 97 159
61 96 161
62 98 167
62 97 163
62 97 160
61 97 162
61 96 162
61 97 160
60 94 151
61 96 159
61 95 156
60 95 156
60 94 151
59 85 125
57 79 112
60 72 75
58 63 44
60 65 33
54 58 35
62 66 34
65 70 37
65 69 40
73 77 43
73 77 39
71 75 42
76 79 42
83 85 44
91 94 47
83 86 50
82 85 48
107 106 50
101 101 47
102 103 59
93 95 54
105 105 56
112 113 61
113 113 61
109 111 68
135 132 72
110 110 64
130 127 69
121 120 68
117 117 63
114 115 62
138 136 74
135 132 61
131 129 66
141 137 75
137 135 71
126 125 67
137 134 70
133 131 71
139 136 73
147 143 75
146 142 75
143 140 78
144 140 69
130 129 70
154 150 82
147 143 64
151 146 72
152 147 80
146 143 71
151 147 71
155 150 76
154 149 75
160 154 74
160 155 83
159 154 81
156 151 77
156 151 77
157 151 82
162 155 79
161 156 79
163 156 79
162 156 83
161 156 78
160 155 77
168 161 76
168 161 87
165 158 82
166 160 82
167 161 81
162 155 75
162 156 72
167 161 84
163 157 80
169 162 80
169 162 86
166 160 76
167 161 81
164 157 82
167 160 83
163 157 77
169 162 80
169 161 80
168 161 86
163 156 75
159 153 72
163 157 81
163 156 81
161 155 75
162 155 76
152 146 65
161 155 73
160 153 74
155 148 73
156 150 67
150 145 65
162 155 80
157 151 75
165 158 78
165 157 78
152 147 72
160 154 73
145 140 60
155 149 67
151 145 68
150 144 70
148 141 66
152 146 69
152 146 68
155 147 69
148 141 64
143 137 65
151 145 69
143 137 62
154 148 69
145 139 59
143 137 61
138 133 54
144 139 53
135 130 54
130 124 53
138 134 52
135 131 57
143 141 56
144 145 47
143 145 49
144 150 37
147 153 45
154 164 37
157 171 34
160 176 32
152 167 19
163 181 0
166 184 11
162 182 11
169 189 0
170 191 0
169 189 0
168 190 0
171 193 0
174 197 0
171 192 0
174 197 0
169 194 0
170 195 0
170 193 0
171 194 0
171 194 0
172 195 0
169 194 0
171 195 0
170 194 0
172 196 0
167 190 0
172 195 0
171 195 0
174 197 0
174 197 0
173 197 0
173 197 0
171 194 0
172 195 0
171 194 0
172 195 0
170 194 0
171 194 0
170 193 0
171 194 0
171 194 0
171 194 0
168 191 0
172 195 0
171 195 0
170 194 0
171 194 0
172 196 0
172 194 0
169 192 0
168 192 0
171 194 0
170 193 0
168 192 0
169 192 0
170 194 0
168 192 0
172 196 0
171 195 0
171 195 0
169 193 0
170 194 0
169 193 0
166 189 0
173 195 0
169 192 0
174 197 0
171 195 0
170 194 0
170 193 0
166 190 0
168 190 0
171 194 0
168 191 0
169 193 0
171 194 0
173 196 0
168 191 0
170 194 0
169 193 0
168 190 0
167 190 0
169 192 0
167 190 0
170 194 0
167 190 0
168 192 0
170 192 0
172 195 0
168 191 0
171 194 0
169 193 0
172 195 0
171 193 0
170 193 0
166 189 0
167 189 0
157 181 57
136 161 97
91 120 141
62 97 155
62 97 161
61 97 168
62 98 163
61 98 164
61 97 162
61 97 158
61 97 168
62 99 171
62 99 175
61 98 173
62 98 169
61 97 174
61 98 168
62 98 171
61 97 174
61 98 170
62 98 171
61 97 173
62 98 174
61 98 174
62 98 172
61 98 173
62 98 178
61 98 176
61 98 177
61 97 175
62 98 175
61 98 175
62 99 181
62 99 177
61 98 177
61 98 175
61 98 177
62 99 179
62 98 175
60 97 176
62 99 177
61 98 177
62 99 180
61 98 178
62 99 179
61 98 175
61 98 178
62 99 181
61 98 177
61 98 176
63 100 180
62 99 178
62 99 176
62 98 179
62 99 180
62 99 178
61 98 179
62 99 180
61 98 179
62 99 180
63 99 179
62 98 174
62 99 179
62 99 179
62 99 179
62 99 180
62 99 177
62 99 180
62 99 177
62 99 179
61 98 176
62 99 179
62 99 180
63 99 178
62 99 178
61 98 175
61 98 174
61 98 176
62 98 172
62 99 175
63 100 177
61 98 173
62 99 178
62 99 179
63 100 178
62 99 177
62 99 175
62 99 176
62 99 174
62 99 178
62 99 171
62 99 174
62 99 173
62 99 169
62 99 178
62 98 172
61 98 180
62 98 174
62 99 175
62 98 171
62 99 174
61 98 173
62 99 174
62 99 174
62 98 170
62 99 172
63 99 174
62 99 173
63 99 174
62 99 175
62 99 172
62 98 171
62 98 172
62 99 172
62 98 169
62 99 174
63 99 175
62 99 175
62 98 171
62 99 172
62 98 169
61 98 171
62 98 166
62 98 167
62 99 174
61 97 164
62 99 175
61 98 164
61 98 171
61 98 165
62 98 167
62 99 169
62 98 170
61 98 168
62 98 172
62 98 173
62 98 168
62 98 168
62 98 162
62 98 167
62 98 171
63 100 171
63 99 168
61 98 167
62 98 162
62 99 171
62 99 171
63 99 176
62 98 166
62 99 173
63 99 173
62 98 164
62 99 171
63 99 170
62 99 166
62 98 164
62 97 156
63 99 172
62 98 163
62 98 163
62 97 161
62 97 161
61 97 155
62 97 159
61 97 162
61 96 151
62 97 164
62 97 161
62 97 160
60 95 154
61 96 155
62 96 159
61 95 152
60 95 150
60 94 149
57 87 129
56 82 122
56 71 87
53 61 50
60 63 35
66 69 29
67 70 33
79 82 41
60 66 36
72 75 36
59 64 28
59 66 36
82 86 37
81 84 46
81 85 54
84 88 47
89 91 51
94 95 49
94 95 45
113 112 56
101 102 49
105 107 54
100 102 53
123 122 60
110 110 59
105 106 55
116 115 56
118 118 65
125 123 71
126 125 67
128 126 73
139 136 74
130 127 72
138 135 77
140 136 77
131 129 70
133 129 69
138 135 74
139 137 69
137 134 68
143 140 73
142 139 76
143 139 69
148 143 77
143 139 76
143 140 72
146 142 70
151 147 75
151 147 75
146 143 73
148 144 74
150 146 77
148 144 67
158 153 77
159 154 79
155 150 76
159 154 74
152 148 76
157 152 70
160 154 76
154 148 72
157 150 72
162 156 86
165 158 76
159 153 78
165 159 84
161 155 76
163 157 79
166 159 81
166 160 78
164 159 82
169 162 86
164 158 78
165 160 80
160 154 70
168 161 77
167 160 85
164 158 70
162 157 79
166 160 83
162 156 79
156 149 73
163 157 72
157 151 75
164 157 78
161 155 75
167 161 77
159 152 74
165 159 72
152 147 72
158 153 64
159 153 70
161 154 72
160 154 79
154 148 72
156 149 67
149 144 71
159 154 75
163 156 70
160 153 70
156 150 66
158 152 70
148 142 69
150 146 65
155 148 67
157 150 72
156 149 70
154 148 65
153 146 73
148 142 65
140 136 57
151 145 62
145 140 57
150 144 71
142 137 61
142 136 58
143 137 63
141 136 49
135 130 54
136 130 61
141 137 60
142 138 53
132 130 44
144 143 53
138 141 37
147 155 41
149 157 36
154 164 36
153 163 32
156 172 22
156 173 19
164 177 34
164 184 16
163 181 11
164 182 11
166 187 0
172 194 0
169 189 0
171 192 0
170 192 0
173 197 0
173 196 0
169 193 0
171 195 0
172 196 0
172 196 0
170 194 0
169 192 0
173 196 0
171 194 0
169 192 0
172 195 0
170 194 0
172 195 0
171 195 0
171 194 0
174 197 0
171 195 0
171 195 0
173 196 0
168 192 0
171 194 0
172 196 0
171 194 0
170 193 0
173 196 0
171 194 0
169 194 0
171 195 0
170 193 0
171 194 0
170 193 0
172 195 0
170 193 0
168 191 0
170 193 0
170 193 0
171 193 0
168 191 0
171 193 0
172 196 0
169 192 0
168 192 0
168 192 0
169 193 0
175 197 0
171 195 0
170 193 0
171 194 0
170 194 0
169 193 0
168 192 0
173 197 0
173 197 0
171 194 0
169 192 0
167 190 0
168 192 0
169 192 0
169 192 0
169 190 0
172 195 0
173 196 0
168 191 0
166 189 0
170 192 0
169 191 0
171 195 0
168 191 0
167 190 0
171 194 0
170 194 0
168 192 0
171 194 0
171 194 0
168 191 0
169 193 0
171 194 0
167 190 0
165 188 0
169 193 0
170 193 0
168 191 0
169 192 0
171 194 0
159 182 57
127 152 118
70 103 152
61 96 151
62 99 167
61 97 157
61 97 161
61 96 156
62 98 169
62 98 164
61 97 157
61 97 160
61 97 164
62 98 171
62 99 172
60 96 168
61 97 170
62 99 171
60 97 172
62 98 173
61 98 175
62 99 176
61 98 176
60 96 174
61 98 172
61 97 172
62 99 176
61 98 178
62 99 179
62 99 179
60 97 176
62 98 175
61 98 175
61 98 178
60 97 174
61 97 175
61 98 176
61 98 177
61 98 177
62 99 178
61 98 177
61 98 173
61 98 177
61 98 177
62 99 179
63 100 180
62 99 178
62 99 179
61 98 175
61 98 177
62 99 179
61 98 178
62 99 178
62 99 178
61 98 177
61 98 176
61 98 179
62 99 176
62 99 178
62 99 178
62 98 175
62 99 178
62 99 176
62 99 177
62 99 177
63 100 180
62 99 179
61 98 176
62 99 174
62 99 176
62 99 178
62 98 174
63 99 179
62 99 176
62 99 177
61 98 176
62 99 178
62 99 178
63 99 176
62 99 178
62 99 175
62 99 176
62 99 179
62 99 177
62 99 175
62 99 175
62 99 176
62 99 171
62 99 175
62 99 176
62 99 174
62 99 176
62 99 174
61 98 175
62 99 177
62 99 176
62 99 176
62 99 175
61 98 171
62 98 171
63 100 177
62 99 172
62 99 171
61 98 167
61 98 169
62 99 174
62 98 171
62 98 173
62 98 169
63 99 174
62 99 173
62 99 173
62 99 174
62 99 172
62 99 171
63 99 173
62 99 173
62 99 173
61 98 171
62 99 169
62 99 171
62 98 167
63 99 169
61 97 161
62 99 175
62 98 166
63 99 169
62 99 169
62 98 167
62 98 164
62 98 170
62 99 167
62 99 167
62 98 166
62 99 171
62 99 170
62 98 165
62 99 172
61 98 166
63 99 168
62 98 168
61 98 165
62 99 172
61 97 164
62 98 165
62 98 167
63 99 168
62 98 163
62 98 166
62 98 162
62 98 168
61 98 168
62 97 159
61 97 161
61 97 161
61 97 159
61 98 161
62 98 164
61 97 162
62 98 167
61 97 163
61 97 159
61 97 164
62 98 162
61 96 153
61 96 159
60 96 158
62 98 165
61 96 155
60 95 153
61 96 158
60 95 148
61 96 154
61 94 148
61 95 154
61 91 134
58 81 119
64 80 100
61 68 57
67 71 35
64 67 37
67 70 34
68 72 43
64 70 37
70 75 36
71 74 36
84 86 47
75 78 44
79 84 48
90 92 47
87 89 45
96 97 49
96 98 49
101 102 59
91 93 52
103 105 58
103 104 55
114 114 63
98 99 54
130 129 72
123 121 70
126 125 63
124 123 67
124 122 65
121 120 60
118 118 63
123 121 64
131 130 68
131 130 73
136 134 65
135 133 72
130 127 68
141 137 77
129 128 71
141 137 67
136 133 73
132 130 65
146 142 72
147 143 69
146 142 77
150 145 74
146 142 79
145 140 73
146 142 69
153 149 76
159 153 80
151 146 73
153 148 78
157 151 74
153 148 74
149 145 72
149 145 64
160 155 76
157 153 76
163 157 78
160 154 79
160 154 76
163 157 80
161 155 79
161 154 80
165 159 82
153 147 76
160 154 76
161 154 83
162 157 79
162 156 81
159 153 72
157 151 76
154 148 72
162 156 78
164 159 73
164 158 75
153 148 68
158 153 74
166 160 78
165 159 78
157 151 70
161 155 69
166 159 82
164 158 77
163 157 76
162 156 75
163 157 74
159 153 72
161 155 73
163 157 81
160 153 72
159 153 73
155 148 72
158 152 71
155 149 73
157 151 69
154 148 71
154 148 70
160 154 73
158 152 67
151 146 62
150 144 66
157 150 69
149 143 66
154 149 70
151 146 62
149 143 64
147 142 57
153 147 67
151 146 67
145 141 62
149 142 66
143 139 54
146 139 62
143 138 56
145 139 66
142 136 52
139 133 58
130 126 37
136 131 53
138 135 49
146 148 49
148 148 53
138 140 37
155 159 49
139 145 34
150 162 25
156 166 41
160 174 30
163 178 25
155 173 11
164 182 22
168 186 0
170 191 16
174 195 0
168 188 0
170 189 0
169 191 0
170 192 0
173 196 0
170 193 0
171 193 0
173 196 0
175 198 0
170 193 0
172 195 0
171 195 0
171 195 0
173 196 0
170 194 0
172 196 0
168 192 0
168 191 0
170 193 0
173 196 0
173 197 0
167 191 0
173 197 0
172 196 0
169 193 0
170 194 0
169 192 0
170 194 0
174 197 0
170 194 0
170 194 0
172 195 0
172 195 0
170 194 0
174 196 0
172 195 0
169 193 0
170 194 0
168 192 0
171 195 0
170 193 0
167 190 0
170 193 0
171 193 0
172 196 0
168 192 0
171 195 0
171 195 0
169 191 0
172 195 0
168 191 0
169 192 0
165 188 0
168 192 0
169 193 0
168 191 0
170 194 0
170 193 0
172 196 0
167 191 0
169 192 0
171 194 0
170 194 0
165 187 0
170 193 0
170 193 0
169 192 0
172 195 0
168 193 0
171 195 0
168 191 0
170 193 0
167 190 0
169 193 0
171 194 0
167 190 0
169 192 0
171 195 0
169 193 0
166 190 0
171 193 0
166 190 0
169 192 0
167 190 0
171 194 0
167 191 0
170 194 0
162 185 0
166 189 25
149 173 62
119 145 111
71 105 157
61 97 154
62 98 161
62 98 163
62 98 162
61 98 165
62 99 171
61 98 169
61 97 162
62 98 171
61 97 172
62 98 165
60 96 170
61 98 171
61 97 167
62 98 173
61 97 166
60 96 172
61 98 174
61 97 173
62 98 176
62 98 176
62 99 177
61 98 177
61 97 173
62 98 173
62 99 175
62 99 175
62 99 179
62 99 178
61 99 180
61 98 179
62 98 176
61 97 176
62 99 179
62 98 176
62 99 179
60 97 173
61 97 178
61 98 177
61 98 178
61 98 177
61 97 175
62 99 177
61 98 176
61 98 174
62 98 176
62 98 177
62 99 176
61 98 177
61 98 176
61 98 178
62 98 176
62 99 177
61 98 178
62 99 178
61 98 175
61 98 178
62 99 179
62 99 176
62 98 174
62 99 177
63 99 177
62 99 177
62 99 179
62 98 175
62 99 179
61 99 177
61 98 176
61 98 176
63 100 179
62 99 175
62 99 176
62 99 177
62 99 178
62 99 177
62 99 177
62 99 177
62 99 172
62 99 177
62 98 172
61 98 176
61 98 165
62 99 177
62 99 170
62 99 174
62 98 170
62 99 176
62 99 174
62 99 173
62 99 178
62 99 177
61 98 176
62 99 176
61 98 176
63 99 175
63 99 168
62 99 178
62 99 172
62 98 168
62 99 177
61 98 170
62 98 168
61 98 170
62 99 177
62 98 167
62 98 169
63 100 177
62 99 177
62 99 171
62 99 175
62 99 171
61 98 168
63 99 173
61 98 168
61 98 170
63 99 174
62 99 176
62 99 172
62 99 173
62 98 161
62 99 168
62 99 171
63 99 172
62 98 162
63 99 171
62 99 173
62 98 168
62 99 172
62 98 166
62 98 166
61 98 166
62 98 172
62 99 169
62 99 172
63 99 168
62 99 170
62 98 164
62 98 167
62 98 167
62 98 165
62 98 167
62 98 162
62 99 167
62 98 165
62 98 168
61 97 166
62 99 168
62 98 167
62 98 166
61 98 159
61 97 161
62 98 163
62 98 166
61 97 166
62 98 170
62 98 167
61 97 166
62 98 169
62 98 159
62 98 160
62 98 165
62 98 168
61 97 158
61 96 156
61 97 162
62 97 166
62 97 159
62 97 160
60 94 154
61 96 156
60 95 148
59 93 149
59 92 142
63 91 135
64 80 91
55 62 48
37 46 35
67 69 35
63 66 32
71 74 37
77 78 34
72 76 42
71 75 32
80 84 43
88 89 41
83 85 38
84 87 47
100 101 58
89 91 44
92 94 51
104 104 59
93 95 51
109 109 59
112 112 61
106 106 53
116 115 62
110 111 55
113 113 63
113 114 56
108 108 54
135 131 72
129 126 66
127 126 68
132 130 66
120 119 59
134 131 71
136 133 68
135 132 69
141 137 69
131 129 63
143 139 71
138 135 63
135 133 65
152 147 78
140 136 67
150 145 80
145 141 73
155 149 77
146 143 72
150 145 75
148 144 72
153 149 78
148 144 67
151 146 74
155 150 78
152 148 67
156 152 73
159 153 69
153 148 74
161 155 76
163 157 79
157 151 80
160 154 79
160 153 84
160 154 76
161 155 79
163 157 78
161 154 79
163 156 83
165 159 82
162 156 73
158 152 74
160 154 76
161 156 73
160 154 70
159 154 69
163 156 76
161 154 76
164 158 72
162 155 75
157 152 70
170 163 81
168 160 78
161 155 73
159 152 75
165 159 78
161 154 76
159 152 73
154 148 67
158 151 77
158 151 77
158 151 74
158 151 68
161 155 77
160 153 72
153 148 60
154 148 63
160 155 65
159 154 69
163 155 75
160 154 75
148 142 66
156 149 69
148 143 59
151 146 66
157 150 71
149 143 63
151 144 75
153 146 67
160 154 69
149 144 63
145 140 61
157 150 71
145 140 62
147 141 62
144 139 64
141 137 54
140 133 63
134 129 51
135 129 49
143 137 62
142 136 58
134 130 49
122 123 34
134 136 44
138 142 42
147 152 37
143 147 44
153 161 47
155 166 34
151 163 25
159 172 32
157 170 34
160 176 22
160 177 22
168 187 0
170 191 11
170 190 0
172 194 0
169 190 0
171 193 0
171 192 0
173 196 0
173 195 0
172 195 0
173 196 0
171 194 0
171 194 0
170 193 0
172 195 0
172 195 0
173 196 0
172 195 0
171 194 0
168 191 0
171 194 0
171 195 0
173 196 0
174 197 0
169 193 0
170 193 0
170 193 0
173 197 0
167 191 0
172 195 0
171 194 0
167 190 0
170 193 0
172 195 0
173 197 0
173 196 0
171 194 0
170 194 0
171 195 0
170 192 0
169 193 0
167 190 0
169 192 0
172 195 0
168 191 0
168 192 0
168 191 0
167 191 0
168 192 0
171 194 0
169 193 0
171 195 0
168 192 0
174 197 0
175 198 0
168 191 0
171 194 0
171 194 0
170 193 0
173 196 0
170 193 0
170 193 0
169 193 0
169 191 0
170 193 0
171 194 0
166 190 0
169 193 0
169 193 0
169 191 0
170 193 0
172 195 0
165 188 0
169 193 0
165 188 0
168 191 0
168 192 0
164 188 0
166 189 0
168 191 0
166 190 0
170 194 0
168 190 0
165 188 0
167 190 0
166 190 0
169 192 0
165 188 0
164 188 0
164 187 0
167 190 0
167 190 25
144 168 76
98 126 131
64 99 157
61 97 155
61 97 164
63 99 163
61 98 166
62 98 167
61 97 165
61 97 165
61 97 160
61 97 169
61 97 169
61 97 170
62 98 169
62 98 171
61 97 173
61 98 169
62 98 172
62 98 177
61 97 172
62 98 172
60 97 175
61 98 175
62 98 175
62 98 172
62 99 177
62 99 176
62 99 175
60 96 174
61 98 176
62 99 180
61 98 178
61 98 178
62 98 178
62 99 177
60 97 172
61 98 179
63 99 175
61 98 177
62 99 178
61 97 176
62 99 178
61 98 179
62 99 179
62 99 177
61 98 177
62 99 177
61 98 178
61 98 178
61 98 177
61 98 179
62 99 178
62 99 177
63 100 179
62 99 177
62 99 177
61 97 176
62 99 180
61 98 177
62 99 177
62 99 176
61 97 176
61 98 174
62 99 179
62 99 177
62 99 174
62 99 177
62 99 177
62 99 179
62 99 178
62 99 175
62 99 174
62 99 175
62 99 177
61 98 174
62 99 178
62 99 179
62 99 179
61 98 173
62 98 175
62 99 175
62 99 179
62 99 176
62 99 175
62 98 175
62 99 174
62 99 174
62 99 176
62 99 175
62 99 171
61 98 171
62 99 176
62 99 176
62 99 174
62 99 175
61 98 175
63 99 177
62 99 174
62 99 174
62 99 175
62 98 171
62 99 174
62 99 171
62 98 172
61 98 170
61 98 165
62 99 174
62 98 169
63 99 175
62 99 171
62 99 174
62 98 172
62 99 171
62 99 172
62 99 170
62 99 171
63 99 171
62 99 172
63 99 170
62 99 172
62 98 168
63 99 171
62 98 168
62 99 174
62 98 170
62 99 168
61 98 169
62 98 168
62 98 170
62 98 168
62 99 168
61 97 165
62 99 171
62 98 168
61 98 167
63 99 174
63 99 171
63 99 172
62 99 168
62 98 166
61 98 166
62 98 160
62 98 167
62 99 169
63 99 169
62 99 170
61 98 167
61 98 165
62 98 166
63 99 168
62 99 169
61 97 160
62 98 161
62 98 163
62 98 164
62 98 161
61 97 164
61 97 165
62 98 159
62 98 162
61 96 150
61 96 161
62 98 161
61 97 155
63 99 165
62 97 156
61 96 154
61 97 155
61 96 154
61 96 158
60 95 151
60 93 149
59 93 151
59 93 140
58 90 141
61 90 140
56 74 88
56 67 61
66 69 33
73 76 32
78 78 31
74 77 26
54 59 28
83 85 38
71 75 42
71 76 43
83 85 50
81 84 44
96 96 49
80 82 44
94 96 51
81 84 46
100 101 53
94 96 52
99 100 48
95 97 56
101 103 54
110 111 57
120 119 63
113 112 56
116 115 55
135 131 63
104 104 56
114 113 56
121 120 58
127 125 64
133 130 68
127 124 63
133 132 67
128 126 61
132 130 67
130 127 65
142 139 74
139 135 68
142 139 69
143 140 70
138 136 71
150 145 74
139 137 67
151 147 75
148 143 69
155 150 79
153 146 76
160 154 75
154 148 71
154 149 72
145 142 65
149 144 70
151 146 74
156 150 72
149 145 66
151 145 74
160 153 77
148 144 70
153 148 74
159 154 74
158 153 77
160 155 78
163 157 77
161 154 73
155 150 72
158 152 71
160 154 78
157 152 66
155 149 67
162 156 69
158 152 67
162 156 76
162 155 75
161 154 72
163 157 80
161 155 75
161 156 73
155 148 70
161 155 79
161 154 77
159 153 73
160 154 74
154 149 67
157 151 72
156 150 72
164 157 77
156 150 68
160 153 72
156 150 68
154 148 64
156 150 68
164 158 82
157 150 71
157 151 65
155 149 68
155 149 66
153 147 65
152 145 71
157 152 67
159 153 69
158 151 71
159 152 72
146 141 64
153 147 66
151 145 66
154 148 63
155 148 64
143 137 56
154 148 67
154 147 67
147 141 62
138 133 60
151 145 65
143 136 58
144 138 58
146 139 66
136 130 52
138 135 49
145 141 57
141 141 48
146 146 45
135 139 36
142 145 42
143 150 42
146 158 25
157 167 44
159 170 30
158 171 30
159 175 16
164 182 11
170 189 16
166 185 0
167 186 0
166 187 0
168 189 0
170 191 0
166 186 0
173 193 0
171 194 0
172 195 0
171 195 0
171 195 0
169 193 0
170 194 0
173 196 0
169 193 0
173 196 0
170 193 0
173 197 0
172 195 0
171 194 0
173 197 0
170 194 0
168 192 0
171 193 0
171 194 0
169 192 0
170 194 0
171 194 0
171 195 0
170 194 0
172 195 0
170 194 0
174 196 0
170 193 0
172 196 0
171 194 0
172 195 0
173 195 0
168 191 0
171 194 0
173 196 0
169 192 0
170 194 0
171 195 0
173 196 0
167 190 0
171 194 0
173 197 0
173 197 0
166 190 0
169 193 0
169 192 0
170 194 0
167 191 0
170 193 0
170 194 0
172 194 0
170 194 0
165 189 0
167 191 0
171 195 0
167 192 0
168 191 0
170 194 0
169 192 0
173 197 0
169 192 0
165 188 0
169 193 0
164 187 0
170 193 0
168 191 0
167 190 0
172 195 0
167 191 0
164 187 0
168 192 0
168 193 0
170 194 0
169 192 0
168 191 0
169 192 0
169 192 0
168 192 0
167 190 0
166 189 0
167 192 0
168 191 0
167 190 0
169 193 0
170 193 0
164 188 42
138 162 102
88 117 139
62 98 159
62 98 162
61 96 158
61 97 157
62 98 165
62 98 171
61 98 168
62 98 171
63 99 171
62 99 167
61 98 163
61 97 165
62 98 170
61 97 173
61 98 174
61 98 171
62 99 178
62 99 176
60 97 175
62 98 176
61 98 175
62 99 179
61 97 171
61 98 175
61 98 175
61 98 175
61 98 176
61 98 175
62 99 180
62 98 175
61 97 175
61 98 176
61 98 177
61 98 177
61 98 177
62 99 177
60 97 175
61 98 177
62 98 178
61 98 176
61 98 178
62 99 177
61 98 180
61 98 178
61 98 179
62 99 176
62 98 176
61 98 176
62 99 178
60 97 174
61 98 177
61 97 175
61 98 178
61 98 178
62 98 175
61 98 177
62 99 178
62 98 179
62 99 175
62 99 178
62 99 178
61 98 175
61 98 177
61 98 174
61 98 176
62 99 177
61 98 178
62 99 179
61 98 179
62 99 175
62 98 172
61 98 174
62 99 174
62 99 176
62 98 174
62 99 176
62 99 174
62 99 176
62 99 179
61 98 175
62 98 170
62 99 175
62 99 173
61 98 172
63 100 177
62 99 176
61 98 171
62 99 174
62 99 177
63 99 173
62 98 171
62 99 173
62 99 177
62 99 174
62 99 173
63 99 175
62 99 176
62 99 173
62 99 173
63 100 177
61 98 169
62 99 173
62 99 170
63 100 179
62 99 173
62 99 175
62 99 173
62 99 170
62 99 170
62 99 173
62 99 171
62 99 174
63 99 176
62 99 172
62 99 173
62 98 172
62 99 174
62 99 174
62 99 173
62 99 169
62 99 169
62 98 172
62 98 167
61 98 167
62 99 170
62 98 164
61 97 163
62 98 162
62 98 167
62 98 168
62 98 166
62 99 170
62 99 169
61 98 163
63 99 167
62 99 170
62 98 164
63 99 166
63 99 170
61 98 164
62 99 170
63 99 170
61 97 157
62 98 163
62 99 167
62 98 168
62 98 166
62 99 168
62 97 160
62 98 163
62 98 166
62 98 160
61 97 159
62 98 163
62 98 165
61 97 162
62 98 166
61 97 162
61 97 161
63 98 164
63 99 168
62 98 163
62 97 163
61 97 159
61 97 160
61 96 154
62 97 160
61 96 154
60 93 145
61 96 156
61 96 156
59 93 143
60 94 151
60 94 146
61 89 135
53 76 111
55 71 87
61 67 54
51 57 33
60 64 28
61 64 32
67 71 34
56 63 35
83 85 38
88 90 48
71 75 44
83 85 39
78 81 40
88 89 48
97 100 53
97 97 46
97 97 46
91 94 44
93 95 46
98 100 51
96 98 51
105 106 55
108 107 53
106 105 51
118 117 57
109 111 51
127 124 61
112 111 55
132 130 70
129 127 61
128 125 67
130 128 66
131 129 64
131 129 68
134 132 66
130 129 57
139 135 65
139 137 61
139 136 66
135 132 64
144 140 68
139 136 67
144 140 66
142 138 71
146 142 68
149 144 71
148 144 64
144 140 70
151 146 70
146 142 74
149 145 76
147 144 67
157 151 79
159 153 78
164 159 80
156 150 71
159 154 75
151 146 65
161 155 81
155 150 69
162 157 77
158 152 74
163 157 78
158 152 67
156 150 72
163 157 68
160 155 75
166 160 82
156 150 64
162 156 77
159 152 76
158 151 72
158 152 70
157 151 68
165 158 77
162 155 78
164 157 75
159 155 75
160 153 74
158 152 66
161 153 77
152 146 68
158 151 69
156 149 66
157 151 70
163 156 73
163 156 77
159 152 65
152 146 63
156 150 69
153 146 65
152 146 64
152 146 62
160 154 71
147 142 65
160 154 68
149 144 60
157 151 70
150 144 61
152 146 65
156 149 70
149 145 64
156 150 63
145 139 69
143 138 60
146 141 57
150 143 62
150 145 58
150 144 61
144 138 60
139 133 51
141 136 58
141 135 59
141 135 52
149 143 62
145 140 57
141 138 53
127 124 47
137 134 49
144 141 48
141 142 34
144 149 41
145 153 39
152 163 34
149 158 32
155 169 25
162 178 16
162 177 22
157 175 11
169 190 11
169 190 0
172 194 0
167 187 0
171 192 0
169 190 0
168 189 0
169 188 0
171 193 0
173 197 0
171 194 0
169 192 0
171 195 0
170 194 0
173 197 0
170 193 0
167 190 0
172 195 0
171 194 0
169 192 0
170 193 0
172 195 0
171 195 0
170 194 0
168 191 0
170 193 0
169 192 0
174 197 0
171 195 0
168 192 0
169 193 0
171 196 0
173 195 0
171 195 0
172 195 0
168 191 0
171 195 0
172 195 0
170 193 0
173 196 0
172 195 0
171 193 0
172 195 0
172 195 0
171 194 0
172 195 0
172 196 0
168 192 0
171 195 0
170 194 0
168 192 0
172 194 0
169 191 0
171 194 0
171 195 0
172 196 0
171 194 0
169 192 0
169 192 0
171 195 0
171 195 0
171 194 0
171 195 0
171 194 0
169 193 0
171 195 0
172 195 0
170 194 0
165 189 0
166 190 0
170 193 0
169 191 0
172 195 0
172 195 0
172 194 0
165 188 0
167 191 0
167 189 0
170 192 0
172 196 0
168 190 0
167 190 0
170 193 0
170 193 0
168 192 0
170 194 0
166 189 0
168 191 0
168 191 0
171 194 0
168 192 0
170 194 0
166 189 0
162 185 51
137 161 94
80 111 147
62 97 156
61 97 158
61 97 161
62 98 163
63 99 168
61 97 161
61 97 166
62 98 168
61 97 164
61 96 167
61 98 169
61 97 168
62 98 170
61 97 169
61 98 174
61 97 168
62 98 176
62 98 171
61 98 174
61 97 172
61 97 176
61 98 174
61 98 173
62 99 175
62 98 175
60 96 172
62 99 177
61 98 176
62 99 178
61 98 177
61 98 176
61 98 178
61 98 175
62 99 176
61 98 178
62 99 179
62 99 179
61 98 175
61 98 177
62 99 180
62 99 180
61 98 179
61 98 177
60 97 177
62 99 178
62 99 180
60 97 174
63 100 180
62 99 180
62 99 179
62 98 178
61 98 177
63 100 179
63 100 179
61 98 175
61 98 177
61 98 175
62 99 178
63 100 179
62 98 176
62 99 176
62 98 175
61 98 175
62 99 175
62 98 175
61 98 174
62 99 177
62 99 178
63 100 180
62 99 177
62 98 175
62 99 178
62 99 174
62 98 175
61 98 175
61 98 171
62 99 176
62 99 173
62 99 177
62 99 176
61 98 171
62 99 173
62 99 175
61 98 173
62 99 176
62 99 175
62 99 176
62 99 175
62 99 172
61 98 173
62 98 172
62 99 174
62 99 171
62 99 174
62 99 176
62 99 170
62 99 172
63 99 174
62 99 169
63 99 174
62 99 175
61 98 165
62 99 174
61 98 169
62 99 173
62 98 169
62 99 171
63 99 171
61 98 168
62 98 168
63 99 173
62 98 162
62 99 171
62 99 174
63 99 174
62 98 168
62 99 171
62 98 168
62 98 166
63 99 173
62 99 171
62 99 174
62 99 172
62 99 170
62 98 172
62 98 167
62 99 171
62 99 171
62 98 165
62 98 167
61 97 161
62 98 170
62 99 170
62 98 164
62 98 165
61 97 163
62 98 166
62 98 168
62 98 168
61 98 167
62 98 167
61 98 166
62 98 168
63 99 169
62 99 168
61 97 163
62 98 161
62 99 171
62 98 164
62 98 163
62 98 163
62 98 166
62 98 166
62 98 165
63 99 165
62 98 163
62 98 161
62 98 161
61 96 158
61 96 156
61 97 162
61 97 155
62 97 157
61 97 162
63 98 162
62 98 166
61 96 159
61 96 157
60 95 148
61 96 151
60 94 149
61 95 154
60 93 148
59 93 150
56 88 137
64 84 110
59 73 85
66 71 48
58 59 19
71 74 30
70 73 30
66 70 26
78 79 34
85 86 43
77 79 26
63 70 40
76 81 45
78 81 35
87 90 40
90 93 44
98 99 49
99 101 49
105 105 52
105 104 47
96 97 41
108 107 56
109 108 53
111 109 54
132 129 58
114 114 58
120 119 58
111 111 45
131 127 70
106 107 54
125 125 48
126 124 65
130 126 63
128 126 61
137 134 65
137 134 69
137 134 65
129 126 63
135 133 62
135 132 64
144 140 66
145 140 68
138 136 56
141 137 65
142 138 73
148 144 72
147 143 64
149 145 67
151 146 70
144 141 72
151 146 73
151 146 69
150 145 75
153 148 68
147 143 73
154 149 72
150 145 65
151 146 76
153 148 65
161 154 74
155 149 67
160 154 78
156 152 70
159 154 68
162 155 76
163 157 77
154 149 73
150 145 67
157 150 75
157 152 72
159 152 69
163 156 79
159 152 72
162 155 75
156 151 66
162 156 71
161 154 79
158 151 72
159 153 74
150 144 64
155 149 67
161 155 68
163 157 71
155 150 63
162 156 75
154 148 72
163 156 77
159 153 73
153 148 66
164 157 74
161 154 74
151 145 60
158 152 69
153 147 68
153 147 65
151 145 61
155 149 71
153 147 71
154 148 65
152 146 62
155 149 72
156 150 67
146 141 56
151 143 66
150 145 62
154 147 66
152 145 63
141 135 60
149 143 64
150 145 65
142 136 62
140 134 51
140 135 49
134 128 49
138 132 57
146 141 56
134 129 52
132 129 47
135 132 44
140 140 56
139 139 52
145 146 42
143 148 42
153 160 41
148 157 36
149 161 34
152 165 30
163 178 32
155 171 16
158 176 11
168 185 11
171 191 0
171 190 0
167 188 0
170 190 0
166 187 0
170 190 0
169 190 0
169 191 0
172 195 0
169 193 0
171 194 0
173 197 0
170 193 0
171 195 0
171 195 0
173 196 0
172 195 0
172 195 0
169 193 0
171 195 0
173 196 0
173 196 0
173 196 0
174 197 0
171 195 0
171 193 0
168 192 0
173 197 0
166 189 0
174 197 0
170 193 0
170 193 0
172 195 0
168 192 0
169 192 0
169 193 0
171 194 0
170 194 0
172 195 0
169 193 0
170 193 0
168 193 0
172 195 0
170 194 0
166 189 0
172 196 0
170 193 0
173 196 0
163 186 0
170 193 0
169 192 0
169 193 0
169 192 0
170 194 0
167 191 0
169 193 0
165 189 0
170 194 0
172 195 0
171 194 0
168 192 0
169 193 0
168 192 0
170 193 0
170 193 0
169 193 0
169 192 0
168 191 0
170 194 0
169 193 0
171 194 0
170 192 0
166 189 0
168 190 0
171 194 0
166 191 0
170 194 0
168 192 0
171 195 0
168 191 0
166 189 0
168 191 0
167 191 0
169 193 0
168 192 0
168 192 0
165 188 0
168 191 0
167 191 0
169 191 0
167 191 0
165 188 0
161 185 51
130 155 105
71 103 148
60 96 159
61 97 162
61 97 157
62 98 164
62 98 160
60 95 157
63 99 175
61 98 168
62 98 165
60 95 158
61 98 171
62 98 169
60 96 167
61 97 168
61 98 174
61 97 171
61 98 175
62 98 174
60 97 174
62 99 175
60 96 172
62 99 174
62 98 175
61 98 172
62 98 174
62 98 173
61 98 176
62 99 177
61 97 174
61 97 175
61 97 176
61 97 175
62 99 179
60 97 179
61 98 180
60 97 175
61 98 175
61 98 176
62 99 177
62 99 177
62 99 178
61 98 178
62 99 179
61 98 176
62 98 178
62 99 178
61 98 177
61 97 178
61 97 171
61 98 176
61 98 175
62 99 180
61 98 175
62 99 179
62 99 176
62 99 175
62 99 177
63 100 179
62 99 178
62 98 178
62 99 177
62 99 179
62 99 175
62 99 178
62 98 174
62 98 176
61 98 173
61 98 175
62 99 177
62 99 175
61 97 174
61 98 172
62 99 176
62 99 178
62 99 173
62 99 177
62 99 175
61 98 174
61 98 173
62 99 176
61 98 174
62 99 175
62 99 176
62 99 172
62 99 175
61 98 169
62 99 173
62 99 174
62 99 171
63 100 179
61 98 168
62 99 169
61 98 170
62 99 175
62 99 172
62 99 174
63 99 175
63 100 176
63 99 173
61 98 167
63 99 175
62 99 171
62 99 174
61 97 167
61 98 168
61 98 163
62 99 170
62 98 171
62 99 170
61 98 168
62 98 172
62 98 165
63 99 174
62 98 165
61 98 170
62 98 168
62 98 170
62 98 165
63 99 166
62 99 167
62 98 173
63 99 173
62 98 169
62 98 164
62 98 166
61 98 164
62 98 167
62 99 172
62 98 167
61 98 164
61 98 165
62 98 162
62 98 168
62 99 168
62 98 166
63 99 167
62 98 166
62 98 166
62 99 171
62 98 166
63 99 173
62 98 167
62 98 167
63 99 168
62 98 164
62 99 170
62 98 166
61 98 166
62 98 165
63 99 171
62 99 173
62 98 165
62 98 164
62 98 162
62 98 164
62 99 170
62 98 160
61 97 157
62 98 166
62 97 155
62 98 165
62 98 161
62 97 158
61 97 159
62 97 159
61 97 157
62 98 163
60 96 151
60 95 154
60 95 153
61 95 156
59 93 149
60 95 155
59 93 146
58 90 140
69 89 114
58 73 83
64 68 48
60 63 25
66 67 24
73 75 28
66 69 37
69 74 37
79 80 32
70 72 36
80 82 38
79 82 36
87 88 36
90 92 37
86 89 47
95 96 43
86 88 38
86 89 48
97 98 48
105 105 56
100 100 45
107 107 47
106 107 57
106 106 48
120 119 59
124 122 63
107 108 54
130 128 59
121 120 62
122 120 60
125 124 63
129 127 59
123 122 56
125 123 64
135 131 61
129 127 64
136 133 63
124 121 61
141 138 66
145 141 72
144 141 68
144 141 72
134 131 69
136 133 68
155 149 79
152 146 71
143 138 71
150 145 74
147 142 67
154 150 74
145 141 73
150 146 72
155 148 66
156 151 68
147 142 61
151 146 64
161 155 78
160 154 75
153 148 69
157 151 75
150 145 66
159 153 71
161 154 75
163 156 76
156 151 67
157 151 69
155 149 71
156 150 66
155 149 71
158 152 71
157 152 65
160 153 69
158 152 71
157 151 70
151 146 65
158 152 70
157 150 73
160 153 70
156 150 70
159 152 67
156 151 67
158 152 63
153 147 68
164 157 75
151 145 68
159 152 73
161 155 72
162 156 71
154 148 65
145 139 60
150 144 66
163 156 74
156 150 72
150 144 66
148 142 59
152 146 63
158 151 69
155 149 72
143 137 61
152 145 67
149 143 62
148 143 61
151 144 64
154 148 68
148 142 60
147 142 52
145 139 57
143 138 58
144 139 63
150 144 58
140 134 56
143 138 58
143 138 56
140 135 59
131 125 56
132 127 45
135 129 52
136 135 45
150 149 61
150 150 56
153 158 44
149 155 41
146 153 22
149 158 25
157 172 28
158 171 25
163 177 30
157 171 30
168 188 22
162 180 11
165 184 0
167 188 0
170 191 0
171 191 0
173 195 0
168 190 0
167 188 0
170 191 0
173 196 0
173 197 0
173 196 0
175 198 0
169 192 0
173 197 0
172 196 0
173 197 0
171 194 0
169 193 0
173 196 0
173 197 0
175 198 0
172 195 0
169 193 0
170 193 0
168 192 0
170 193 0
166 190 0
173 195 0
170 194 0
172 195 0
170 194 0
170 194 0
169 192 0
170 193 0
167 190 0
172 196 0
172 195 0
169 193 0
172 195 0
170 193 0
169 192 0
172 194 0
171 195 0
170 194 0
172 194 0
172 195 25
173 196 25
169 193 25
172 195 25
170 192 44
172 195 0
173 196 25
170 194 25
170 193 0
172 196 0
171 194 25
170 194 0
170 193 0
168 192 0
168 192 0
170 194 0
168 193 0
164 187 0
165 189 0
171 195 0
170 193 0
169 192 0
170 194 0
167 190 0
169 193 0
169 191 0
167 191 0
165 188 0
165 189 0
166 189 0
171 194 0
167 189 0
171 193 0
168 192 0
166 189 0
167 191 0
172 195 0
170 193 0
165 188 0
170 193 0
167 190 0
168 191 0
168 191 0
167 190 0
167 191 0
168 191 0
167 191 18
153 176 67
121 147 126
68 101 141
61 97 160
61 96 160
61 97 160
61 97 160
61 96 156
61 97 165
60 96 162
61 97 166
61 97 163
61 98 165
61 97 171
61 98 168
60 97 169
60 96 167
62 98 172
61 97 168
59 96 166
61 98 177
62 98 174
61 97 175
61 97 174
62 99 175
60 96 169
61 97 173
61 98 179
60 96 173
61 97 172
61 97 176
61 97 176
61 97 174
62 98 179
61 98 176
62 98 178
61 97 173
62 99 176
61 97 178
61 97 175
61 97 173
61 97 174
62 99 179
61 98 177
62 98 179
61 97 176
61 98 177
62 99 178
61 98 176
61 97 178
61 98 177
61 98 177
62 99 174
61 97 175
61 98 175
62 99 178
62 98 177
61 98 176
62 99 176
62 98 175
61 98 178
62 98 176
61 98 175
61 98 176
61 97 174
61 98 172
61 98 172
62 99 175
62 99 176
61 98 175
62 99 177
61 98 175
61 98 172
61 98 174
61 98 174
61 98 174
62 99 175
62 99 180
62 99 176
62 99 171
62 98 175
62 99 172
62 99 172
62 99 176
62 99 172
62 99 175
62 99 175
62 98 171
62 98 166
62 99 173
63 100 178
62 99 174
62 99 174
62 99 176
62 99 172
62 99 174
62 98 167
62 99 174
62 99 174
62 99 171
62 99 174
62 99 173
62 98 168
63 100 177
62 99 173
63 99 172
63 99 167
62 99 171
62 99 172
61 98 167
62 99 173
62 98 170
62 99 173
62 99 174
61 98 162
61 98 169
61 98 171
62 98 170
62 98 167
62 98 166
62 98 169
62 99 169
62 99 171
63 99 172
62 99 171
62 99 172
62 99 167
62 98 165
61 97 159
63 99 168
61 98 167
62 98 165
61 98 165
62 99 171
62 98 168
62 98 164
62 98 166
62 98 166
61 98 171
62 99 169
61 98 165
63 99 167
61 97 160
62 98 158
62 99 170
63 99 165
62 98 164
62 98 163
62 98 160
62 98 160
62 99 168
62 98 165
61 97 158
61 98 159
62 98 165
62 98 164
61 96 158
62 98 164
61 97 159
62 98 163
62 98 161
62 98 164
61 97 156
61 97 162
61 97 164
61 96 158
61 96 157
62 97 165
61 96 164
61 96 154
60 95 155
61 95 151
61 96 158
61 96 154
60 94 145
60 95 153
60 93 142
57 89 133
60 87 125
66 80 79
67 73 50
54 58 27
69 72 24
56 62 33
75 75 31
74 77 22
78 81 40
69 73 35
76 78 33
88 88 40
95 94 44
89 89 34
77 79 31
97 98 47
107 105 51
73 77 42
94 95 44
93 94 45
116 115 59
106 106 55
108 107 59
111 111 52
112 112 49
107 108 49
120 119 58
125 123 60
122 120 57
119 117 53
123 121 63
129 127 56
123 122 59
128 126 61
127 124 58
131 128 55
130 129 59
141 138 63
136 133 54
140 136 58
138 135 67
140 136 67
135 131 63
137 133 70
151 145 72
146 141 68
142 138 60
146 142 66
145 141 62
155 149 77
144 140 69
157 152 69
145 141 62
145 140 60
161 154 76
160 154 65
153 148 69
154 148 65
159 153 76
159 152 77
159 153 71
149 144 58
157 151 77
162 156 76
163 156 75
161 154 75
154 148 66
155 149 66
153 148 71
154 149 68
157 151 69
159 153 69
156 150 64
147 142 68
162 156 69
161 153 75
160 154 71
157 152 64
150 144 61
155 149 71
157 151 67
160 153 73
150 145 60
161 154 69
160 154 73
158 151 72
152 148 58
154 148 63
149 143 59
155 149 66
159 152 66
150 144 62
149 143 61
158 151 73
149 144 61
158 151 72
145 140 61
155 148 61
153 149 59
154 146 64
153 147 65
147 142 51
154 147 71
150 145 60
147 141 60
139 133 53
143 138 56
142 137 51
138 132 54
146 139 57
141 134 54
145 138 60
132 128 44
128 124 44
138 132 56
130 127 45
137 135 45
136 137 37
129 131 45
143 149 42
143 147 41
150 160 39
144 156 22
159 171 32
154 166 32
156 170 19
159 174 22
162 179 19
165 186 19
164 182 11
169 188 11
168 189 0
168 189 0
169 189 0
172 193 0
170 190 0
170 191 0
167 188 0
172 196 0
172 194 0
171 195 0
172 195 0
172 196 0
171 195 0
171 195 0
171 194 0
173 196 0
171 194 0
172 196 0
169 193 0
167 191 0
172 195 0
171 194 0
171 194 0
172 196 0
167 190 0
173 196 0
173 196 0
171 195 0
169 192 0
172 196 0
170 193 0
168 193 25
172 195 25
170 194 25
172 195 36
171 195 25
170 194 25
174 197 36
171 194 0
173 196 36
171 193 51
171 193 51
171 194 25
173 196 44
170 194 51
175 197 62
170 194 0
170 194 44
175 198 51
173 195 67
170 193 25
174 196 57
174 197 25
170 193 36
170 193 36
170 192 36
171 194 0
170 194 0
173 196 25
173 195 36
171 195 25
167 191 0
164 187 0
167 190 0
168 191 0
169 192 0
171 193 0
171 194 0
164 187 0
170 193 0
170 193 0
169 192 0
168 192 0
169 192 0
170 193 0
169 193 0
171 194 0
171 194 0
168 192 0
167 190 0
164 188 0
165 189 0
169 193 0
167 189 0
170 193 0
165 188 0
167 190 0
169 193 0
169 191 0
169 194 0
165 188 18
152 177 72
117 143 117
69 102 153
62 98 161
61 96 149
62 97 158
61 96 159
62 98 168
61 97 163
60 95 157
62 98 160
61 97 162
61 97 169
60 97 167
60 97 170
61 97 167
61 98 173
60 96 172
62 98 175
60 96 165
59 95 164
61 97 167
60 97 175
60 97 175
61 97 175
61 98 174
60 97 174
61 98 172
61 97 173
61 98 177
59 95 174
62 98 177
61 98 175
61 97 176
60 97 174
62 99 179
61 97 175
62 99 180
61 98 176
61 97 177
60 97 173
60 97 177
61 98 179
61 98 178
62 98 177
60 97 171
61 98 175
62 99 176
60 97 175
62 99 181
60 96 175
61 98 177
61 98 176
62 99 179
62 98 178
62 99 177
61 98 178
61 98 178
61 98 178
62 99 174
61 98 174
62 98 176
61 97 176
62 99 177
59 96 175
61 98 174
61 98 175
61 98 175
62 99 176
61 98 175
61 98 173
62 99 177
62 99 174
61 98 172
62 99 175
62 99 175
62 98 172
62 98 175
62 99 176
62 99 178
62 99 178
61 98 172
62 98 172
63 99 176
62 99 175
62 99 175
62 99 177
61 98 172
61 98 173
61 98 176
63 100 177
62 98 173
61 98 169
63 99 175
61 98 175
62 99 175
61 98 170
62 99 173
62 99 172
62 99 173
62 99 170
61 98 170
62 98 169
62 98 170
61 98 170
62 99 171
62 98 169
62 99 170
62 98 162
62 98 172
62 99 172
62 98 166
63 99 174
62 99 171
62 99 168
61 98 166
62 99 171
62 98 168
61 97 162
62 99 172
62 99 169
63 99 172
62 99 173
61 98 167
61 98 172
63 99 168
62 99 171
62 99 172
62 98 170
62 98 166
63 99 172
61 97 161
62 98 165
62 99 171
62 98 167
63 99 173
62 98 166
62 98 164
62 99 170
62 99 170
62 98 166
63 99 168
61 98 163
60 97 157
63 99 165
62 99 167
62 98 162
62 99 173
63 99 167
62 98 163
61 97 160
61 97 163
61 97 161
62 98 161
62 98 166
62 98 167
61 97 159
62 97 162
62 98 161
62 98 165
62 99 170
62 98 162
61 96 156
60 96 151
61 97 163
62 98 167
61 97 163
61 97 159
61 96 155
60 95 154
61 96 154
61 95 149
60 96 153
62 97 162
61 96 155
61 95 149
60 94 154
59 91 132
60 85 125
70 83 90
53 65 62
65 70 41
69 71 22
71 73 23
75 77 31
73 75 31
71 74 28
69 73 31
72 76 32
79 81 37
79 80 29
94 95 42
88 89 41
89 91 38
95 95 45
99 99 45
98 99 46
108 106 50
110 108 52
116 116 53
117 116 53
108 108 52
116 116 55
111 110 57
112 111 54
119 118 54
124 123 47
112 112 53
135 131 64
123 122 53
128 125 61
137 133 64
132 130 57
142 138 66
127 125 61
138 135 63
140 136 62
134 132 63
141 137 62
140 137 64
141 138 60
147 143 70
146 142 64
142 138 66
145 141 69
145 140 61
151 147 71
142 137 69
139 136 64
150 145 67
153 147 71
152 147 66
154 148 67
161 155 73
150 146 63
158 153 68
154 148 68
154 149 66
155 150 67
157 152 69
157 150 71
163 156 77
164 156 76
156 150 71
158 153 68
154 148 71
166 160 75
163 156 75
159 153 69
154 148 63
160 153 73
153 147 67
154 149 65
160 153 67
153 148 59
166 159 77
153 147 67
161 154 69
154 149 67
158 152 61
158 151 75
160 153 75
153 147 71
150 145 67
149 144 54
150 144 64
159 153 69
159 153 65
153 147 65
159 153 69
151 144 61
157 151 69
156 150 66
157 151 66
149 142 66
148 142 57
149 143 60
153 147 60
150 144 62
147 140 63
152 145 67
149 143 62
141 136 49
140 134 62
145 138 64
143 139 63
147 139 65
135 128 45
150 143 64
135 129 51
131 127 47
137 132 47
142 137 57
131 129 42
140 137 52
133 135 37
135 137 36
141 144 34
148 155 32
143 150 30
155 168 34
156 169 32
152 167 11
160 176 30
160 175 22
160 179 11
163 179 11
168 187 0
170 190 0
170 191 0
171 191 0
169 188 0
166 187 0
170 191 0
171 193 0
171 190 0
171 195 0
171 195 0
169 192 0
171 195 0
171 194 0
174 197 0
170 195 0
170 194 0
169 192 0
171 194 0
173 196 0
172 194 0
172 196 0
166 191 0
170 195 0
175 198 25
173 196 25
172 195 25
170 194 25
172 195 36
168 192 25
175 198 44
170 193 44
171 194 0
174 197 51
169 192 0
174 197 51
171 194 25
173 196 25
174 197 57
172 194 51
174 197 67
173 195 57
173 195 44
175 198 57
171 195 51
175 198 57
171 194 36
172 194 57
174 196 76
173 196 72
172 194 67
175 199 44
169 192 44
171 192 72
168 189 51
171 193 62
171 194 51
173 195 76
174 198 44
171 194 44
169 193 36
171 195 44
172 194 57
170 194 25
172 196 51
172 196 44
168 191 36
174 197 57
169 191 44
168 191 0
168 190 36
167 190 0
169 192 0
170 193 0
168 191 0
172 195 0
166 190 0
167 190 0
168 192 0
167 189 0
166 190 0
169 193 0
169 191 0
166 189 0
168 192 0
170 193 0
165 188 0
165 188 0
169 192 0
167 190 0
168 192 0
169 192 0
168 191 18
142 165 88
102 131 133
64 99 162
61 97 161
60 96 156
60 95 158
61 97 167
61 98 163
61 98 168
60 96 161
61 97 163
61 97 169
60 96 164
60 96 164
61 96 165
60 96 169
60 96 168
61 98 170
61 98 172
62 98 178
61 98 171
60 97 174
61 98 177
62 98 176
61 98 172
61 97 176
60 97 175
59 94 170
61 97 177
61 97 175
61 98 176
61 98 176
61 97 175
60 97 173
60 96 173
61 98 174
60 96 174
61 97 175
60 96 174
61 97 177
61 97 174
62 99 177
61 98 177
61 97 177
60 96 176
61 98 178
61 98 174
61 98 176
62 98 178
60 97 175
61 98 177
61 98 178
62 99 177
61 98 177
62 99 177
62 98 178
62 99 176
60 97 174
62 99 176
62 98 176
61 98 176
62 99 178
62 99 179
62 99 173
62 98 176
61 97 175
62 99 177
61 98 173
62 98 171
61 98 175
62 99 177
61 98 177
62 99 176
61 98 171
62 98 172
62 98 173
61 98 177
62 99 176
62 98 174
63 99 177
62 98 169
63 99 175
62 99 171
62 98 173
62 99 175
62 99 175
61 98 171
62 98 175
64 100 175
62 99 175
62 99 173
61 98 174
62 98 169
62 99 175
62 99 177
62 99 172
62 99 173
62 99 175
62 99 171
63 99 172
62 99 172
62 99 172
62 98 173
62 99 172
63 100 173
62 98 172
62 99 170
62 99 169
63 99 176
62 99 168
62 99 171
62 99 171
62 99 173
63 99 173
62 98 171
63 100 174
62 99 168
62 99 173
61 98 168
63 99 171
62 98 172
62 99 175
61 98 165
62 98 165
62 98 164
62 99 170
62 98 169
62 99 173
62 98 165
62 98 164
62 98 167
62 99 171
61 98 164
63 100 169
62 99 172
61 97 157
63 99 170
62 99 168
61 98 168
62 99 168
61 98 167
62 98 162
62 99 168
62 98 164
62 98 167
63 99 167
62 98 168
62 98 168
63 99 166
62 98 160
62 99 166
62 98 164
62 98 161
62 98 169
61 97 167
61 97 160
61 97 163
62 98 162
61 96 156
62 98 163
62 97 160
61 96 153
62 97 163
61 97 160
61 96 157
61 97 160
61 96 155
61 96 155
61 95 152
62 98 165
61 97 159
61 97 157
61 96 154
61 96 156
60 94 151
60 94 148
60 94 147
61 95 156
55 82 117
63 81 99
61 71 65
68 72 36
70 70 15
63 65 27
76 78 29
65 68 28
84 87 32
63 68 35
75 78 38
82 85 33
82 84 31
86 87 41
102 102 48
88 90 38
100 101 47
103 102 50
91 94 45
101 102 44
103 104 42
106 106 47
105 104 51
103 102 42
118 116 55
117 114 52
112 112 49
112 111 53
113 112 54
127 124 56
121 119 56
131 129 55
122 121 60
136 133 60
132 129 63
122 120 52
136 133 64
138 135 58
129 126 61
138 135 63
149 144 72
142 138 68
139 136 64
137 133 58
146 142 62
130 128 55
140 137 60
142 137 66
152 147 69
145 140 64
146 142 64
156 149 73
148 144 65
151 145 64
155 149 71
151 145 67
154 149 67
151 146 70
146 143 53
157 151 72
153 147 69
152 147 69
154 149 62
156 151 72
158 153 72
155 150 70
157 151 64
153 148 62
156 151 68
152 147 63
160 155 68
155 149 71
155 150 67
152 147 57
160 154 68
157 151 63
143 139 51
158 152 68
154 148 65
153 146 68
157 151 69
146 141 60
155 148 65
156 150 59
157 150 63
160 153 71
154 147 67
154 148 63
153 147 62
156 150 66
154 147 67
153 147 61
150 144 65
151 145 62
155 149 67
141 136 54
148 142 64
148 143 53
149 145 58
153 147 65
151 145 58
146 141 59
147 142 52
140 134 51
150 144 62
145 138 60
149 143 59
138 132 52
146 139 61
138 132 52
138 133 49
138 133 51
130 124 54
143 138 51
129 127 45
133 130 45
146 142 52
145 147 49
154 155 47
141 149 32
150 156 41
156 165 32
153 166 19
161 172 34
161 173 22
159 175 11
158 174 22
167 184 16
167 187 16
169 192 0
169 189 0
166 186 0
169 190 0
168 186 0
168 189 0
172 192 0
167 186 0
168 187 0
172 195 0
169 193 0
172 196 0
171 195 0
170 194 0
171 195 0
170 193 0
170 194 0
171 194 0
171 194 0
173 197 25
172 195 25
174 198 36
172 196 36
169 193 0
171 194 0
175 198 51
175 197 36
177 198 76
171 194 44
171 194 44
178 200 72
172 195 51
171 195 57
174 197 62
172 195 51
177 200 67
177 200 76
176 199 67
173 196 57
172 195 62
176 199 62
175 197 67
177 199 76
174 196 67
169 192 62
180 202 99
173 196 51
174 196 84
173 196 72
175 198 76
172 195 72
172 195 67
181 202 95
175 197 72
172 195 51
178 199 57
175 198 72
175 197 62
173 196 67
172 195 51
174 196 62
173 197 62
173 195 72
176 198 67
173 195 72
173 196 51
173 194 80
173 195 51
172 196 51
171 194 36
170 192 51
170 193 36
172 194 51
169 193 25
169 193 36
170 194 0
167 191 0
172 195 25
167 190 0
166 189 0
170 193 0
168 192 0
163 186 0
168 190 0
169 192 0
169 193 0
165 188 0
170 193 0
166 190 0
170 193 0
166 189 0
167 191 0
166 190 44
135 161 102
78 109 143
60 96 151
62 98 165
61 97 158
61 97 165
62 98 165
61 98 163
61 97 164
61 97 163
61 96 163
60 97 171
60 96 161
61 98 172
61 97 166
61 97 166
61 97 171
61 96 166
61 97 168
61 97 173
61 97 172
60 96 173
62 98 174
60 97 169
61 97 172
60 95 172
60 97 171
62 98 179
60 97 176
60 96 173
61 98 178
60 96 173
61 98 176
61 97 176
60 96 174
60 96 175
60 97 176
61 97 176
61 98 176
62 99 180
61 98 178
62 99 178
60 97 175
61 97 176
61 98 175
61 98 177
60 96 175
61 98 177
61 98 176
61 97 175
61 98 176
61 98 178
62 99 177
62 99 178
61 98 176
61 98 178
61 98 175
62 99 178
61 98 175
61 98 175
62 99 176
61 98 178
61 98 175
61 98 171
60 96 173
62 98 173
63 100 179
63 100 179
61 98 177
62 99 176
62 99 176
62 99 179
62 99 173
62 99 172
62 99 176
61 98 178
62 98 176
62 99 176
62 98 173
62 99 172
62 99 173
62 99 172
61 98 173
62 98 170
61 98 171
62 99 177
62 99 174
62 99 172
62 99 174
62 99 171
62 99 175
61 97 168
62 99 174
62 99 170
62 99 176
62 98 169
62 99 170
62 98 171
62 98 172
62 99 178
62 99 171
61 98 168
63 99 172
62 99 171
62 99 174
63 100 176
61 98 164
63 99 175
62 98 164
62 99 174
62 99 176
62 99 171
62 98 170
62 98 169
62 99 167
62 99 169
62 98 167
63 99 174
62 99 168
61 98 163
62 98 166
62 98 169
63 99 167
62 99 168
62 98 161
62 98 170
62 98 167
62 98 164
62 98 163
62 99 173
63 99 168
62 98 165
62 98 169
62 98 168
62 98 162
61 98 166
62 99 170
63 99 166
62 98 165
62 98 164
62 98 165
63 99 174
63 99 169
63 99 166
62 98 164
62 98 162
62 98 167
62 98 162
62 98 161
62 98 165
60 96 156
63 99 166
61 97 164
62 98 158
62 98 164
62 98 162
61 97 159
62 98 163
61 97 155
61 97 153
62 97 159
62 97 161
62 98 165
61 97 163
62 97 157
63 98 162
62 97 157
61 96 150
61 97 159
60 96 157
60 95 156
61 96 156
61 96 161
62 98 161
61 96 156
59 94 153
60 93 145
60 93 149
58 88 124
68 86 108
56 67 65
67 72 46
62 63 22
72 74 23
82 83 29
77 80 33
70 73 31
80 82 33
81 84 41
74 79 36
88 90 41
83 86 36
89 91 33
96 94 39
93 93 35
103 103 36
110 109 50
99 99 43
107 106 48
100 100 52
106 106 49
114 113 49
111 111 50
107 108 51
115 114 50
114 113 50
124 121 59
125 123 54
126 123 57
124 123 54
135 131 53
131 128 60
132 129 58
124 122 47
137 132 65
127 125 52
136 132 64
131 127 57
132 129 61
128 127 56
138 134 63
137 133 62
150 145 69
149 144 69
150 144 70
142 138 67
151 145 69
149 144 71
149 144 69
152 147 64
149 143 66
150 145 63
150 145 70
151 146 67
153 148 66
150 145 62
149 144 64
152 147 62
153 146 73
155 149 63
157 150 66
162 156 70
160 154 71
155 149 60
159 154 66
152 145 62
161 155 65
161 155 69
156 150 66
155 149 55
159 154 66
150 145 59
152 146 63
157 152 65
151 145 60
159 152 71
159 152 70
154 148 66
165 158 80
159 152 70
154 149 64
155 149 67
162 155 73
151 145 60
148 142 61
148 142 61
155 148 63
156 150 66
148 143 53
148 143 56
146 141 54
149 143 60
147 141 58
142 137 56
149 143 59
152 146 57
156 150 61
150 144 54
148 142 61
150 143 63
141 136 56
145 140 51
141 136 60
142 137 52
147 141 58
141 136 58
136 133 45
133 128 41
136 130 54
128 123 47
137 132 47
145 140 57
138 136 42
147 147 44
142 143 44
142 147 34
149 156 32
151 160 42
141 148 25
155 166 32
151 162 28
152 162 28
162 178 11
159 175 19
166 185 16
168 187 0
164 183 0
167 186 0
165 186 0
166 187 0
170 190 0
168 187 0
166 186 0
169 189 0
167 187 0
170 189 0
172 195 0
174 197 0
172 196 0
171 193 0
169 193 0
172 196 0
173 196 0
169 192 0
173 197 0
172 195 25
173 195 25
174 197 36
174 197 36
170 193 0
173 196 36
173 196 51
171 195 51
171 195 25
173 196 57
172 194 36
172 194 57
177 200 76
179 201 95
176 199 76
176 198 57
180 201 84
173 195 84
177 198 80
175 198 80
178 200 80
177 200 92
179 200 111
177 199 88
177 199 99
178 199 80
178 199 92
174 197 84
180 201 102
175 197 62
180 200 99
178 200 95
179 200 99
178 198 111
175 197 92
172 195 62
179 200 111
179 201 111
173 195 84
178 200 76
178 200 95
177 199 84
174 197 84
176 197 92
178 199 92
177 200 92
173 197 76
177 199 76
167 190 62
174 197 84
170 192 62
174 197 80
176 199 62
169 192 25
174 196 62
171 194 57
170 193 44
167 190 51
169 192 51
172 195 25
167 191 0
171 194 0
166 188 25
170 193 0
168 191 0
168 193 0
169 192 0
168 191 0
166 188 0
170 193 0
164 187 0
170 194 0
168 191 0
172 194 0
163 185 40
133 158 94
87 116 139
61 97 159
61 96 160
61 97 157
61 97 164
61 96 161
61 97 159
61 97 163
61 96 162
61 97 164
60 96 169
62 98 169
61 97 173
59 95 165
60 96 167
60 96 165
61 97 168
61 98 173
60 96 174
60 96 169
61 97 170
61 97 173
60 96 171
60 96 169
60 96 171
61 97 174
61 98 175
60 96 171
61 97 176
60 97 175
62 99 179
61 98 177
61 97 171
61 97 176
62 98 176
61 98 175
60 97 176
61 97 175
62 99 179
61 98 179
60 97 177
61 98 178
61 97 177
60 97 177
61 98 176
62 98 175
61 97 175
62 98 177
60 96 173
61 98 179
61 98 175
61 98 177
61 98 174
60 97 174
62 98 177
61 97 175
61 97 176
60 97 175
61 98 177
62 98 175
62 99 178
62 99 176
61 98 173
61 98 177
61 98 173
62 99 177
62 98 175
62 99 174
61 98 176
62 98 176
62 98 173
62 99 175
62 98 175
61 98 170
62 98 175
61 98 174
62 99 173
62 99 176
62 99 177
62 99 173
61 98 173
62 98 172
61 98 174
62 99 174
62 98 168
62 99 171
62 99 174
62 99 175
62 99 172
62 98 171
62 99 173
62 99 174
62 98 172
63 100 177
62 98 168
62 99 172
62 98 164
62 98 170
62 99 173
62 98 169
62 98 169
62 98 172
63 99 176
62 98 166
62 98 164
62 98 172
61 98 167
62 98 168
62 99 174
62 99 171
62 99 171
62 98 167
62 98 167
62 99 172
62 99 171
62 99 169
62 98 168
62 99 169
62 99 172
62 99 166
62 99 172
62 99 168
62 99 168
63 99 175
62 98 169
63 99 167
63 99 169
63 99 168
62 99 167
62 98 168
61 98 164
62 98 161
62 98 165
62 98 164
62 98 166
61 97 168
62 99 168
62 98 161
61 97 159
62 98 161
61 97 163
63 99 166
62 98 167
62 98 164
62 99 166
63 99 163
61 97 157
61 97 162
62 98 163
62 98 163
62 98 164
61 96 156
62 98 160
62 98 162
61 97 159
61 97 161
62 98 160
62 98 161
62 98 165
62 98 164
62 97 160
61 97 158
62 98 160
61 97 157
61 97 154
62 98 162
62 98 161
61 96 159
61 97 155
60 95 154
61 96 155
60 95 147
61 95 150
60 95 152
60 94 150
60 93 144
60 94 152
57 88 131
53 75 103
64 76 73
76 78 28
58 61 15
74 75 21
81 82 29
86 87 23
83 84 29
90 91 28
82 83 32
70 74 28
91 91 31
85 86 34
70 72 34
91 92 36
103 104 45
92 93 40
94 95 47
103 102 51
98 99 33
110 107 50
100 100 37
108 108 42
108 106 46
109 109 48
103 103 40
113 112 50
126 124 53
115 114 53
126 123 57
122 120 51
123 120 50
132 128 59
134 131 65
124 122 58
136 133 60
136 132 61
133 129 54
134 131 60
134 130 62
137 134 66
135 132 58
148 143 64
143 138 58
135 132 60
136 133 56
150 145 65
146 142 61
145 140 63
152 148 60
149 144 62
149 143 62
148 143 62
152 147 67
144 139 58
145 140 51
150 146 61
151 147 65
151 146 62
155 149 68
149 144 62
152 146 66
153 148 70
158 153 70
149 143 61
158 153 63
156 150 68
152 147 60
161 157 67
151 146 60
156 150 67
150 144 64
155 149 70
155 150 67
158 151 67
156 150 67
165 158 73
158 152 67
157 152 64
151 145 65
152 146 61
158 151 63
150 145 61
155 149 60
154 148 62
159 152 65
150 145 56
155 148 64
150 144 59
151 145 65
150 145 56
142 137 54
147 142 61
158 152 60
155 150 57
153 147 63
151 146 62
138 133 56
147 142 59
150 143 62
144 138 61
152 146 59
141 136 48
144 139 54
138 132 53
144 138 59
135 130 47
131 126 51
136 132 44
139 134 56
138 132 56
131 128 45
130 127 45
138 136 47
132 133 45
142 144 37
146 150 32
145 151 41
144 155 30
155 165 28
149 163 16
152 165 25
157 171 22
158 172 11
165 180 19
161 177 11
164 184 11
170 189 0
171 190 0
166 186 0
170 192 0
172 194 0
168 188 0
169 189 0
169 190 0
168 187 0
170 191 0
167 191 0
173 196 0
173 196 0
169 193 0
173 195 36
170 194 25
175 197 25
169 192 25
172 196 36
176 199 57
177 199 62
175 198 44
171 195 57
174 197 67
178 200 84
175 198 62
174 196 62
174 197 72
173 195 72
180 202 88
173 195 84
176 198 80
176 199 84
176 197 99
178 199 92
177 198 99
175 198 80
176 198 92
177 200 95
176 198 95
177 200 88
175 197 105
176 199 80
179 201 88
182 202 111
185 205 130
180 202 120
179 200 105
176 197 105
181 202 125
178 200 99
174 195 99
179 200 99
182 204 102
177 198 105
183 205 117
174 195 88
178 200 92
186 207 117
183 204 111
176 198 88
178 199 105
180 202 105
176 198 92
176 197 102
179 201 111
174 196 84
178 200 88
172 195 67
176 198 76
176 198 92
176 198 92
174 196 84
175 197 92
174 195 76
175 197 88
173 195 67
170 193 36
169 192 25
169 192 51
166 189 0
164 186 44
166 189 36
168 191 25
169 191 25
165 188 25
170 193 0
164 188 0
168 191 0
167 191 0
168 192 0
166 190 0
168 191 0
161 185 31
128 154 102
92 121 132
61 96 157
61 96 155
62 98 161
61 97 166
61 97 160
61 97 164
60 95 161
59 95 162
60 97 163
61 97 167
61 98 169
60 96 168
61 97 166
60 96 168
61 98 173
61 97 172
61 97 171
60 96 168
59 95 167
60 96 172
60 97 174
60 96 173
60 96 173
61 97 173
60 96 174
62 99 176
60 97 176
60 97 174
60 96 171
60 97 175
61 98 175
61 98 177
60 97 173
61 97 175
60 96 174
61 97 175
61 98 177
60 97 176
60 97 177
61 97 174
61 97 177
61 98 178
60 97 175
60 96 176
61 98 177
60 97 176
61 97 175
61 97 173
62 98 178
61 97 175
60 97 175
62 98 176
61 98 177
61 97 175
62 99 177
61 98 175
62 98 175
61 97 176
61 98 175
61 98 176
62 99 176
61 97 173
61 98 174
61 97 174
61 98 175
62 99 175
63 99 176
62 99 177
61 98 170
61 97 173
62 99 175
62 99 175
61 97 171
62 99 176
62 99 176
62 99 175
61 98 171
61 98 175
62 99 172
61 98 170
62 98 173
63 100 180
62 99 174
62 99 173
62 99 175
62 98 169
62 99 176
62 99 174
61 98 169
62 99 171
62 98 169
62 99 176
61 98 170
62 99 172
62 99 173
62 98 168
62 98 171
62 99 172
62 99 172
62 98 172
62 98 164
63 99 171
62 99 176
63 99 175
62 99 177
63 99 170
61 98 170
62 98 166
62 98 168
62 98 168
62 98 165
62 99 170
61 98 168
63 99 170
62 99 173
62 98 165
63 99 169
62 98 167
62 99 171
62 98 163
61 98 163
62 98 166
61 98 162
62 98 166
62 98 166
62 98 164
62 99 168
62 98 163
62 99 171
62 99 168
62 98 161
62 98 163
62 98 163
62 98 164
61 97 163
61 98 165
62 98 168
62 99 166
61 98 164
62 98 168
62 98 164
62 98 164
61 97 163
62 99 164
62 98 159
61 98 162
62 98 163
62 99 167
62 97 161
62 98 164
61 97 163
61 98 164
62 97 155
62 98 163
62 99 166
62 98 159
63 99 166
62 98 162
62 97 156
61 97 155
62 97 153
62 97 159
61 97 158
61 97 161
62 98 159
61 96 149
61 97 162
61 96 155
62 97 156
61 96 157
61 96 149
60 94 144
60 95 150
62 97 159
59 93 144
60 94 154
63 94 142
68 88 115
71 82 85
61 68 51
69 71 16
79 81 18
74 76 26
86 86 30
69 72 30
68 71 21
83 83 25
80 83 32
87 88 34
81 82 29
90 91 42
94 93 40
98 97 39
104 103 43
103 102 40
104 105 39
98 97 39
96 95 38
109 109 47
113 112 45
120 117 53
124 121 53
117 115 51
108 107 46
106 106 43
124 123 55
121 119 50
107 106 42
127 124 58
134 130 61
130 128 53
129 126 51
131 128 57
126 123 58
128 124 59
137 133 59
137 134 63
133 129 57
139 136 54
141 138 62
138 135 55
143 138 61
141 137 57
144 140 62
146 142 61
145 141 68
144 139 60
145 140 59
151 146 69
148 143 63
158 152 71
149 144 63
151 146 69
146 141 60
162 156 62
152 146 63
152 146 60
153 147 58
160 153 69
158 151 65
150 144 63
161 154 71
156 151 68
146 141 60
157 151 69
158 150 71
156 149 68
154 149 62
156 149 71
156 150 64
151 146 58
152 147 56
154 148 61
154 147 62
151 145 61
153 147 61
151 145 62
160 153 72
150 144 61
154 149 64
154 148 56
152 146 62
148 144 52
156 150 60
156 150 58
148 142 53
147 142 59
153 146 60
141 134 59
148 141 52
149 142 59
142 136 47
153 146 63
137 131 53
142 136 53
157 149 70
134 130 47
145 139 56
145 139 44
145 139 57
124 120 42
132 126 45
139 134 51
135 131 44
138 132 45
136 131 47
137 132 52
134 128 51
135 132 45
136 134 36
140 140 41
133 133 36
143 144 42
142 149 30
146 151 32
143 149 25
153 168 22
160 173 28
161 177 19
157 172 19
160 176 19
161 179 11
164 184 0
170 188 0
169 188 0
169 190 0
165 186 0
168 188 0
167 187 0
170 189 0
171 189 0
168 189 0
170 190 0
167 187 0
171 194 0
169 192 0
174 197 44
172 196 25
176 199 36
171 195 44
173 197 57
174 197 57
174 196 76
175 198 72
175 198 67
174 196 84
178 201 76
176 198 88
176 198 76
177 201 76
174 196 80
178 199 92
178 200 84
180 201 102
176 199 76
177 199 95
181 202 108
182 203 102
180 201 111
179 200 95
182 204 114
186 206 125
180 201 111
182 203 111
176 199 105
180 202 99
180 202 111
180 202 105
182 204 117
179 200 111
180 202 108
183 204 128
181 202 114
180 201 120
181 202 120
188 208 142
187 208 133
178 200 95
180 201 120
184 204 137
180 201 122
179 201 99
180 201 120
182 203 117
182 203 114
177 199 99
181 202 108
175 197 114
179 200 114
179 201 111
178 199 99
181 203 120
179 200 102
172 195 84
173 194 92
174 195 92
179 201 95
177 198 92
179 201 88
172 194 76
176 197 84
172 195 92
176 198 88
169 192 57
165 188 25
169 192 57
171 194 44
173 196 36
169 192 57
169 192 44
168 190 36
167 189 25
163 186 25
165 188 0
167 190 0
165 188 0
168 191 0
155 178 54
134 158 94
81 112 148
60 95 144
62 97 162
61 97 160
61 97 154
62 99 166
60 96 160
61 98 165
62 98 165
61 97 170
60 96 168
60 97 162
61 97 165
61 97 168
60 96 168
60 96 169
61 97 168
60 97 167
61 97 172
61 97 175
60 96 171
61 97 172
59 95 173
61 98 171
59 95 172
61 97 174
60 97 173
60 96 173
60 95 171
61 97 176
60 96 177
60 97 174
60 96 173
61 97 176
59 95 173
61 98 178
61 96 175
60 96 175
60 97 175
60 96 176
60 96 172
61 97 177
60 96 173
60 96 175
61 98 177
60 97 176
61 97 176
61 98 176
60 96 176
61 97 176
61 98 175
60 97 174
61 98 176
62 99 178
60 96 175
62 98 175
61 98 177
62 98 174
61 97 173
61 98 175
62 99 177
62 99 178
61 98 174
62 98 174
62 99 177
61 98 175
62 99 178
62 99 178
61 98 175
61 98 176
61 98 172
62 98 173
62 98 175
61 98 172
62 99 177
61 98 173
61 98 177
62 99 173
62 98 172
62 98 166
62 99 169
62 98 172
61 97 172
62 99 173
62 98 169
62 99 173
62 98 170
62 99 174
62 98 169
62 98 171
61 98 167
61 98 171
62 98 174
62 99 173
62 99 173
62 98 169
62 99 171
62 98 168
61 97 162
63 99 173
62 98 162
62 98 171
62 98 167
62 98 166
61 98 169
63 99 171
62 99 168
63 99 174
62 99 170
62 99 170
62 98 165
62 99 170
62 99 169
62 98 168
61 98 164
62 99 167
63 99 169
62 98 168
62 99 172
62 99 167
63 99 177
62 98 164
62 99 165
62 98 162
62 99 169
61 97 161
61 98 162
61 98 169
61 97 162
62 98 174
62 98 165
61 97 158
62 99 171
62 98 168
62 99 164
62 98 167
63 99 168
63 99 167
63 99 162
62 98 164
63 99 166
62 98 162
62 98 164
62 98 163
61 97 156
62 98 162
61 98 161
63 99 167
61 97 163
61 97 160
62 98 164
62 98 165
62 98 158
62 98 161
62 97 160
61 96 152
61 97 158
62 98 161
61 97 159
63 99 167
62 97 155
61 96 155
62 98 156
61 96 153
61 96 155
61 96 155
61 96 156
61 97 152
61 96 146
60 95 152
62 98 163
60 95 151
61 95 147
60 94 145
60 94 142
58 92 145
58 90 134
61 91 131
59 83 110
73 82 69
65 72 53
81 81 24
73 74 21
73 74 29
65 67 18
76 78 32
75 76 23
83 84 26
81 83 27
84 86 30
92 92 37
85 86 34
88 91 34
88 90 38
87 89 33
87 88 32
98 99 33
103 102 43
93 94 42
100 100 48
93 94 36
102 102 39
118 116 48
117 115 51
120 118 52
117 116 43
114 112 45
119 118 51
127 125 57
124 120 51
134 130 60
128 125 50
134 130 51
130 126 56
135 132 56
122 120 52
133 129 47
133 131 60
136 132 51
143 140 56
139 134 63
146 141 61
141 137 59
132 130 55
142 138 63
143 140 57
148 143 57
144 139 56
133 130 49
146 142 61
143 139 61
144 139 63
156 151 63
149 144 67
151 146 66
145 141 63
144 140 59
146 140 56
147 141 56
142 139 53
148 143 62
160 153 72
153 148 64
151 146 58
155 149 71
154 149 61
150 145 56
151 145 63
152 146 67
152 146 64
155 149 62
149 144 57
155 147 60
151 145 59
159 152 65
153 146 64
156 149 61
149 143 60
147 142 52
148 142 52
151 144 61
154 149 57
153 147 61
143 139 51
151 144 61
152 147 59
151 144 58
151 144 64
145 139 54
154 148 61
152 146 51
150 145 59
139 134 52
143 138 49
145 138 53
137 131 53
142 137 48
135 130 54
139 133 52
143 137 57
144 139 49
142 135 56
140 134 52
137 131 58
132 128 45
137 132 48
129 124 44
137 133 47
133 129 42
135 130 49
142 141 44
140 141 45
149 150 48
139 144 30
145 153 32
143 151 28
156 166 30
160 172 25
154 166 25
152 166 19
157 172 19
158 175 11
165 183 11
168 187 0
163 180 0
166 186 0
171 192 0
166 187 0
166 185 0
166 187 0
169 190 0
170 191 0
170 190 0
169 191 0
169 189 0
170 193 25
173 196 51
175 198 44
174 196 67
173 196 25
173 197 57
173 196 57
174 196 76
177 200 67
173 195 72
174 196 72
180 203 102
180 202 95
179 201 88
182 203 108
178 200 108
179 201 111
174 197 99
182 204 108
182 204 114
179 199 125
177 199 102
182 203 117
186 206 137
180 201 117
184 205 122
184 206 125
186 207 133
179 200 111
185 206 125
180 201 120
179 201 114
185 206 130
181 202 122
185 205 120
177 198 117
183 204 140
181 202 120
182 203 125
183 205 122
185 205 140
178 200 117
185 206 122
180 201 114
177 199 99
180 202 108
182 203 122
185 206 130
181 203 111
182 203 114
183 203 128
178 200 108
180 201 120
179 199 133
181 202 114
179 201 114
177 198 108
177 199 105
176 198 102
184 204 135
180 202 117
177 198 114
178 200 95
180 201 102
178 200 108
176 199 92
176 197 92
173 195 88
171 194 67
171 193 67
170 193 62
170 192 62
173 195 84
170 192 57
168 190 44
168 191 44
167 190 44
171 194 36
166 189 0
166 189 25
166 188 0
166 189 18
162 186 36
153 176 72
130 154 108
73 105 139
60 96 155
61 97 161
59 95 157
60 96 152
61 96 163
60 96 158
60 96 162
62 98 170
60 95 160
60 96 168
61 97 170
60 96 163
60 95 166
61 97 164
62 98 168
61 97 168
62 98 173
61 98 173
60 96 172
60 97 172
59 95 168
60 96 173
60 96 170
60 97 173
60 96 173
61 98 176
59 95 170
60 97 173
59 95 171
61 98 178
60 96 173
61 97 174
60 96 175
60 97 176
59 95 172
61 98 177
61 97 175
61 98 175
61 98 179
60 96 176
60 97 175
61 97 177
61 98 176
61 98 176
61 98 179
61 97 176
61 98 176
60 97 178
61 98 178
62 98 176
62 99 177
61 98 175
61 99 178
61 98 177
62 99 177
60 97 173
60 97 177
61 98 177
62 99 175
61 98 178
61 98 176
61 97 174
62 98 176
61 98 174
61 98 174
61 98 174
61 97 169
62 99 171
62 99 175
61 98 175
62 98 176
62 99 178
63 100 174
62 98 171
61 98 172
62 99 174
61 98 171
62 99 173
62 98 171
62 99 176
62 99 172
63 99 175
63 99 177
62 99 174
62 99 171
61 97 165
62 99 175
62 99 175
62 98 171
61 98 173
62 99 172
62 98 170
62 98 169
62 98 168
62 98 168
62 98 170
62 98 168
62 99 169
62 98 170
62 98 167
62 98 167
63 99 175
62 99 173
62 99 176
62 99 168
62 99 171
62 99 170
61 98 172
63 99 172
62 98 168
62 99 172
62 98 168
62 99 165
62 98 169
62 99 169
62 99 169
63 99 169
62 99 171
61 98 165
63 100 170
62 98 167
62 99 166
61 98 170
62 98 163
61 98 165
63 99 170
62 99 167
63 99 166
61 97 163
62 98 168
62 99 168
62 98 164
62 98 163
62 98 165
62 98 164
62 98 157
61 98 160
62 99 166
62 98 163
62 98 166
62 98 163
62 99 167
62 98 165
62 99 166
62 99 169
62 98 163
62 98 163
62 98 165
63 99 166
62 98 162
61 97 159
61 97 159
62 98 159
61 97 156
62 98 160
62 98 165
62 97 161
61 97 160
61 97 155
62 98 161
61 97 158
62 98 164
61 96 158
61 96 154
62 97 162
61 97 155
60 95 151
61 97 157
59 94 148
61 97 159
61 95 153
61 96 155
59 94 143
59 93 146
59 92 136
60 93 147
58 91 141
65 87 111
66 79 93
63 70 51
78 79 33
76 76 29
77 78 22
74 76 28
94 93 32
85 86 32
71 73 29
89 89 30
92 92 31
98 99 36
96 97 38
84 86 23
99 99 34
103 101 34
100 101 38
107 105 42
108 107 48
111 109 43
112 111 42
110 110 39
109 109 36
111 109 46
107 107 46
108 106 44
118 116 56
124 121 45
124 122 55
121 120 47
121 119 54
121 119 45
133 130 45
116 114 39
133 129 49
126 124 51
122 120 49
120 117 55
137 134 50
138 134 60
128 126 55
140 136 57
142 137 63
137 134 53
145 140 57
140 136 55
145 139 55
138 134 58
143 139 55
145 141 57
146 141 57
150 145 64
143 140 50
146 141 58
144 139 60
146 143 61
150 145 58
145 140 60
150 145 58
138 135 52
146 141 54
157 150 64
151 146 63
152 146 64
150 145 55
155 149 65
146 141 57
156 150 70
154 148 60
151 145 62
153 146 71
151 145 60
145 141 48
151 146 59
155 150 66
153 146 59
155 149 67
152 147 60
151 145 59
161 155 64
149 142 57
145 140 54
146 140 49
148 143 53
152 146 61
148 143 53
141 136 52
154 148 54
147 141 49
147 142 45
146 141 57
143 137 54
137 132 48
148 142 59
149 143 61
146 140 59
137 133 52
138 133 47
144 138 52
146 140 59
137 131 49
146 140 56
139 133 52
139 133 51
133 128 47
133 129 42
139 133 49
115 110 39
138 132 51
136 135 34
130 128 45
125 126 28
138 139 42
146 148 37
143 148 28
141 150 16
149 158 19
151 162 19
152 163 22
152 165 25
160 175 19
160 177 11
158 175 11
161 180 0
168 187 0
170 190 0
162 181 0
166 185 0
170 191 0
170 190 0
170 188 0
167 185 0
169 190 0
170 191 0
169 190 0
172 191 0
171 195 0
172 194 51
170 193 36
172 196 51
176 199 62
173 196 72
178 201 80
172 195 57
181 202 88
179 201 99
179 200 105
173 195 76
178 200 99
179 201 92
183 204 128
179 201 84
179 200 108
185 205 137
185 206 137
183 203 137
180 202 111
185 206 120
182 203 125
183 204 125
184 205 142
187 206 147
185 206 130
187 207 151
182 204 122
186 207 135
190 210 157
187 207 147
187 208 151
185 207 135
184 205 133
189 209 149
187 208 144
186 207 140
188 209 140
187 207 133
187 208 135
188 207 161
187 207 142
187 207 144
182 202 125
185 205 133
187 208 135
186 207 147
186 206 135
182 203 128
185 206 130
183 204 130
186 206 153
188 208 151
182 203 130
183 204 133
189 209 144
184 205 130
187 208 144
180 201 111
181 202 122
182 203 125
184 204 133
181 202 125
179 200 120
181 202 122
180 201 99
178 199 88
177 199 99
174 195 95
175 197 88
178 200 105
171 194 57
170 193 62
177 199 92
169 192 57
172 194 51
173 196 62
172 194 62
172 194 62
167 191 36
168 192 25
160 183 60
153 177 72
128 153 108
74 106 144
61 96 154
61 96 151
61 97 157
62 98 168
60 96 154
61 96 162
60 96 163
61 96 164
61 97 166
60 96 163
60 96 167
60 97 172
60 96 166
59 95 165
60 96 168
60 97 172
59 94 168
61 97 173
61 97 172
59 95 168
60 96 171
60 97 174
59 94 167
61 98 177
61 97 173
61 98 177
58 93 171
61 97 174
62 98 175
60 96 176
61 98 177
60 96 173
59 96 174
61 98 176
60 97 174
61 97 178
60 96 175
60 96 176
61 98 178
61 98 175
62 99 178
60 97 176
60 96 175
60 97 175
62 99 177
62 99 176
60 96 174
62 98 179
62 99 180
61 98 178
60 96 173
62 98 175
61 98 173
62 99 178
61 98 176
61 98 175
61 98 178
61 98 174
61 98 177
61 98 174
62 98 175
61 97 169
61 98 177
62 98 175
62 99 176
60 96 173
62 98 176
62 99 175
61 97 173
62 99 176
61 98 170
63 99 177
61 98 174
62 99 172
61 98 173
62 99 175
61 97 169
61 98 173
62 98 170
62 99 175
61 98 173
62 99 175
62 99 172
62 98 172
62 99 171
62 98 170
62 99 170
62 99 171
62 99 171
62 98 168
61 98 174
63 100 174
62 98 166
62 98 169
62 98 166
62 98 174
62 98 166
62 99 170
62 98 167
62 98 167
62 99 172
63 99 171
63 99 171
62 99 173
63 99 173
63 99 172
63 99 167
62 98 170
61 98 166
62 99 173
62 99 172
61 98 167
61 98 166
62 98 168
62 99 170
62 98 165
63 99 171
62 98 164
62 99 174
63 99 164
61 98 170
62 98 165
62 99 169
61 97 154
62 98 164
61 98 161
62 99 166
62 98 166
62 99 167
63 99 169
62 98 169
62 99 166
61 97 157
61 97 158
61 98 159
62 98 165
61 97 160
63 99 164
62 98 162
62 98 163
62 99 169
62 98 162
61 97 159
62 98 160
62 98 158
61 97 153
62 98 164
62 98 162
62 97 158
62 98 168
61 97 154
62 98 163
63 99 166
62 97 157
61 97 161
61 97 161
61 97 159
61 96 156
62 98 162
62 98 161
61 97 160
62 97 157
61 97 159
61 97 153
60 95 143
61 96 154
61 97 158
61 96 155
61 96 154
60 95 156
61 96 154
60 95 153
61 95 149
59 93 145
59 93 142
61 95 148
60 89 123
64 88 122
67 81 94
78 81 41
84 85 21
81 82 25
77 79 24
70 70 22
77 78 22
67 69 23
81 82 25
88 89 32
97 97 33
88 90 23
90 91 34
98 98 37
100 101 35
85 87 41
101 101 40
103 103 39
111 110 38
102 102 42
113 112 39
108 107 39
121 119 48
109 107 46
113 112 40
121 120 42
121 119 58
115 115 50
121 119 44
116 115 48
129 126 53
119 117 50
122 120 46
130 127 54
138 134 59
137 134 55
141 136 59
128 124 59
138 134 58
128 125 52
137 133 59
144 139 65
139 134 51
142 137 64
138 134 55
140 136 56
132 129 57
141 137 49
140 136 52
140 135 65
145 140 63
148 143 62
144 139 54
155 148 70
144 139 54
151 145 55
139 134 57
147 142 56
153 147 60
163 156 72
157 150 73
149 143 58
147 142 53
149 142 53
153 147 58
153 147 65
143 139 56
151 145 63
155 147 63
151 145 62
149 143 63
157 151 65
147 142 52
148 142 52
154 149 56
155 147 66
153 147 59
146 141 53
155 149 54
152 146 61
143 138 58
155 148 59
148 142 59
149 143 60
147 142 57
145 140 49
139 133 41
147 143 45
142 136 53
155 149 64
141 136 53
144 137 53
149 143 53
149 143 58
150 145 62
146 141 57
143 137 57
134 128 48
145 140 42
139 133 48
143 137 48
138 132 53
140 136 52
137 131 47
124 120 45
140 134 51
135 129 44
135 131 49
130 127 39
125 123 39
139 137 44
147 147 42
137 140 32
134 135 34
152 160 32
146 156 19
151 161 28
158 169 25
155 168 25
153 166 28
162 175 16
163 181 16
167 184 11
165 186 0
168 187 0
167 184 0
169 187 0
170 189 0
169 188 0
168 187 0
172 192 0
167 187 0
168 188 0
170 187 0
170 191 0
168 187 0
174 196 57
175 198 72
177 199 62
175 197 80
177 199 105
177 200 99
178 200 99
181 202 92
177 200 99
178 200 92
182 203 117
186 207 130
176 198 95
181 203 102
181 203 105
184 205 128
182 203 125
187 207 128
183 204 128
185 207 133
185 206 128
189 210 151
189 209 151
184 205 137
187 208 151
182 203 128
183 203 135
191 211 159
186 207 130
189 209 149
189 209 155
187 207 133
189 209 153
188 209 149
188 208 149
185 206 137
192 212 157
183 203 137
181 202 130
192 211 157
185 205 142
190 209 167
187 208 149
189 209 151
187 208 147
188 208 157
189 210 159
188 208 149
186 207 147
183 204 149
191 210 161
189 209 159
186 206 159
188 209 151
188 208 147
185 206 140
186 207 133
186 206 147
184 204 140
179 199 130
183 203 149
185 205 142
182 202 144
180 200 130
185 206 135
175 197 111
179 200 114
180 202 122
181 202 105
181 203 120
179 201 99
179 200 111
175 198 80
176 198 92
170 192 72
180 201 88
172 194 67
163 186 44
171 194 57
169 191 57
173 196 67
168 192 25
156 179 57
145 169 88
118 144 124
77 108 149
60 96 154
61 96 153
61 97 159
60 96 156
61 97 162
60 96 157
61 97 158
60 96 160
58 92 158
61 97 171
58 93 148
60 96 172
59 95 162
60 96 172
60 96 165
59 94 160
60 97 168
59 95 170
58 94 166
61 97 174
60 97 175
58 94 165
59 94 171
60 96 174
61 97 174
59 96 173
61 98 177
60 96 173
61 98 173
58 93 168
59 96 175
60 96 174
60 96 174
60 96 174
59 95 171
59 95 172
59 95 175
61 97 177
59 96 176
59 95 174
60 96 173
61 97 177
60 97 177
61 98 176
60 96 174
61 97 177
61 98 175
60 96 173
60 96 172
60 97 176
61 99 179
61 97 176
61 98 177
61 98 176
61 97 174
61 97 171
61 97 174
61 98 176
61 98 176
62 99 172
62 99 176
61 98 173
61 98 174
62 99 174
62 99 178
61 98 175
62 98 175
61 98 173
62 98 174
61 98 173
62 99 173
61 98 175
61 98 174
62 99 176
61 97 171
61 97 172
62 99 174
62 98 175
62 99 174
61 98 170
61 98 169
62 99 173
61 97 165
62 98 166
62 99 173
62 99 175
62 98 168
62 98 170
61 97 169
62 98 168
61 98 170
63 99 166
63 100 173
61 98 165
62 99 172
62 98 167
61 98 173
62 99 169
61 97 161
62 99 168
62 98 168
62 99 168
62 99 169
62 99 169
62 98 164
62 99 174
61 98 163
61 98 166
62 99 165
62 97 161
62 98 165
62 98 164
62 99 169
61 98 167
62 98 164
62 98 169
62 98 168
63 99 176
62 99 171
63 99 170
63 99 171
63 99 167
62 99 169
62 98 164
62 99 168
62 99 166
63 99 167
61 98 161
62 98 167
62 98 164
61 98 166
61 97 163
62 98 163
62 98 162
62 98 164
62 98 161
63 99 164
62 98 161
61 97 161
63 99 171
62 98 165
62 98 162
63 99 164
62 99 163
63 99 162
63 99 165
62 98 164
62 98 159
62 98 161
62 98 160
62 97 155
61 97 162
61 97 161
62 98 161
63 98 162
62 97 157
63 98 164
61 97 154
61 97 160
61 96 156
61 97 157
61 96 155
61 97 158
59 95 156
62 98 160
62 98 159
61 96 153
61 96 149
61 96 156
62 97 154
60 95 142
60 94 139
60 94 142
59 93 143
60 93 145
59 92 144
59 92 144
66 89 113
58 72 76
82 87 50
76 79 28
66 68 17
83 82 19
75 76 28
80 81 30
76 76 13
79 80 19
90 90 27
80 82 29
78 79 27
94 93 23
87 87 24
93 95 29
92 92 31
99 99 39
106 106 37
104 105 39
96 96 37
106 104 44
95 95 36
107 106 39
119 118 47
115 114 40
107 105 41
125 123 48
113 112 45
117 116 37
127 124 47
117 114 46
126 122 48
126 124 48
122 119 52
126 124 45
138 134 58
138 135 53
136 132 48
137 133 61
125 122 51
134 129 49
133 130 55
139 134 55
133 129 53
140 136 51
139 134 56
133 129 56
148 142 61
138 134 49
149 143 66
144 139 55
141 136 59
149 143 56
133 130 49
150 144 60
150 145 64
140 135 61
151 146 59
151 146 58
146 141 52
149 144 56
151 146 56
153 146 64
147 143 51
145 139 56
153 147 59
154 147 57
155 149 65
144 139 56
153 146 64
158 150 71
151 145 61
150 144 54
148 143 56
145 140 49
154 148 56
153 146 61
149 143 60
148 143 57
152 146 62
146 140 54
145 140 52
152 146 54
149 144 63
146 141 61
148 142 47
141 136 53
154 148 59
152 146 61
149 143 54
148 142 59
144 139 51
148 142 64
149 143 61
140 135 36
140 135 47
146 140 49
147 141 59
138 133 44
140 135 51
136 131 48
146 140 58
146 141 57
142 136 39
128 123 41
130 126 44
129 124 44
142 137 52
136 135 32
135 133 39
135 135 41
138 142 34
141 144 39
148 156 34
146 154 25
147 155 28
154 164 22
150 160 25
157 171 25
165 181 25
165 181 16
163 179 11
168 186 0
166 185 0
165 181 0
165 183 0
169 187 0
164 181 0
166 186 0
169 188 0
172 192 0
164 183 0
171 192 0
169 189 0
168 188 0
167 187 0
178 201 88
174 197 80
176 199 76
178 200 72
178 200 84
176 199 92
183 205 108
181 203 105
181 203 120
176 199 88
181 202 105
184 205 135
181 202 122
184 205 117
188 209 151
186 206 133
186 207 137
188 209 149
188 208 144
186 207 140
183 203 125
187 208 151
184 205 133
183 203 120
187 208 142
189 209 163
188 208 163
196 216 179
191 210 165
193 212 179
193 213 169
188 207 163
188 208 165
189 210 159
193 213 179
194 214 165
189 210 153
190 210 159
189 209 163
195 214 175
197 216 182
191 211 169
192 212 163
194 213 173
192 212 165
193 213 173
191 212 173
187 208 153
185 205 142
187 207 163
186 207 155
185 205 142
194 213 181
192 211 171
186 207 151
187 207 147
189 209 155
189 209 142
186 206 155
189 209 149
188 208 142
186 206 144
187 207 147
186 207 144
182 203 133
183 204 130
188 208 147
185 205 147
181 202 128
175 196 105
179 200 120
183 204 120
177 198 108
178 200 84
181 202 130
178 200 88
179 201 95
178 199 99
169 192 51
175 197 67
172 194 60
162 185 65
163 186 76
146 169 84
118 144 133
74 106 158
60 96 154
61 96 157
61 96 161
61 97 161
62 98 162
60 96 165
59 94 156
59 95 161
59 94 163
59 94 160
59 95 164
60 97 167
60 95 165
59 95 166
60 96 168
60 96 169
60 96 171
60 96 167
59 95 170
59 96 169
58 93 168
59 96 169
60 95 170
61 98 175
61 97 175
60 96 173
59 94 171
58 94 170
60 96 173
60 97 176
61 97 174
60 97 175
60 96 171
59 94 171
60 96 174
60 96 176
60 96 172
60 96 174
60 96 171
61 97 177
61 97 175
60 96 174
60 96 176
61 97 178
60 96 172
61 98 178
61 97 177
60 96 175
62 98 175
61 98 177
61 97 172
61 97 174
61 97 174
60 97 174
62 98 177
61 97 175
60 97 173
61 98 173
61 98 175
62 98 173
61 98 175
61 97 173
62 98 173
61 98 175
60 97 173
62 99 177
61 97 169
61 98 175
61 98 172
62 98 173
62 99 173
62 99 178
62 99 173
61 97 173
62 98 170
62 99 176
62 98 173
61 98 172
62 98 168
61 98 169
62 98 170
62 99 175
62 98 172
61 98 170
62 98 168
62 98 169
61 98 166
62 98 173
63 99 175
62 98 173
61 97 165
62 99 173
62 98 172
62 98 169
62 99 173
61 98 168
61 97 165
62 99 169
62 98 164
62 99 168
62 99 170
62 98 166
62 98 166
61 98 166
62 98 171
61 98 162
63 99 174
62 99 165
62 98 163
62 99 168
61 97 160
62 98 167
62 98 164
62 98 167
62 98 167
62 99 166
63 99 172
62 98 166
61 98 163
62 98 168
63 99 172
62 99 168
61 97 155
61 98 168
62 98 169
61 97 160
62 98 168
62 98 164
62 98 166
62 98 165
62 98 161
62 98 164
62 98 166
62 98 158
63 99 166
62 98 167
62 98 163
62 98 166
61 97 156
62 98 160
62 98 165
63 99 164
61 97 157
60 96 155
61 97 158
62 98 156
62 98 159
62 98 159
61 97 157
62 98 158
62 98 161
62 98 165
61 97 158
62 98 162
63 99 163
62 98 163
61 96 149
61 96 156
62 97 155
61 97 160
62 98 162
61 97 158
62 98 156
61 97 154
62 98 160
62 97 155
62 98 163
60 96 151
61 97 153
62 97 155
61 97 151
60 95 140
60 94 149
60 94 150
61 95 147
61 95 147
63 95 140
62 86 105
68 81 91
69 75 55
71 73 26
75 76 24
73 74 12
82 82 21
92 90 19
74 73 24
88 87 15
86 86 22
87 88 31
92 94 33
83 84 28
89 89 19
85 85 29
102 101 28
91 91 29
99 100 38
103 102 38
116 113 47
108 108 39
112 111 33
110 108 37
104 104 37
118 118 42
105 106 36
125 122 48
115 114 44
122 120 41
115 113 41
112 111 39
125 123 45
121 119 48
129 127 49
126 123 53
125 122 46
125 123 41
134 129 59
121 120 50
138 133 58
136 133 51
136 133 51
135 131 51
133 129 50
144 140 55
131 126 56
149 144 63
137 134 53
151 145 65
146 142 54
146 142 57
142 138 57
136 133 50
149 143 55
143 139 49
143 139 48
151 146 61
151 145 66
141 137 52
149 143 59
150 146 45
150 145 58
151 145 61
155 150 59
150 144 59
146 141 56
144 140 51
146 141 53
149 142 57
150 145 54
148 142 53
153 147 65
150 145 59
142 138 52
146 141 52
154 148 65
142 138 51
149 144 61
148 143 56
146 141 53
150 144 52
150 145 61
156 149 67
141 135 54
144 138 39
147 142 58
147 142 54
138 133 42
151 145 60
148 142 51
149 143 59
142 135 49
150 144 60
151 143 59
140 136 45
143 138 49
145 139 57
139 134 57
147 141 54
144 139 52
138 133 45
148 142 58
132 127 37
134 130 51
128 124 37
129 125 44
124 121 39
134 131 42
132 132 41
133 132 34
134 137 32
141 147 34
145 151 30
137 142 32
143 152 25
141 150 22
155 166 25
149 161 19
158 174 16
163 179 0
157 170 16
163 178 11
164 182 0
165 182 0
164 181 0
169 188 0
168 187 0
169 190 0
167 186 0
170 190 0
166 185 0
168 187 0
171 190 0
164 183 0
171 192 0
168 186 0
175 198 67
182 204 111
181 203 111
179 201 122
182 204 120
177 199 99
180 202 108
184 205 125
180 201 120
178 200 114
184 205 135
180 202 125
183 203 140
185 206 147
186 207 151
187 208 153
183 205 125
188 209 157
189 209 153
191 211 157
191 211 159
188 209 155
189 209 157
191 211 167
192 212 167
186 206 151
190 210 157
192 212 161
188 209 157
191 212 167
192 212 171
195 215 186
191 211 175
190 211 163
191 210 167
193 213 175
196 215 184
197 217 191
193 213 179
188 208 165
195 215 181
190 211 167
192 212 173
194 214 179
189 209 165
191 211 175
195 214 182
192 212 169
187 208 153
193 213 173
191 210 161
190 210 159
190 210 161
189 209 157
191 211 165
195 215 181
186 206 157
189 210 167
189 209 165
192 212 163
185 205 155
185 205 153
189 209 161
188 208 157
188 207 155
183 204 137
189 209 147
184 205 137
185 206 142
182 201 153
185 205 140
175 195 120
184 205 133
179 201 111
176 197 95
184 204 130
177 198 102
176 198 84
173 195 80
168 190 86
171 193 99
163 186 86
164 186 82
149 172 92
118 142 133
85 114 150
62 98 159
67 101 155
65 99 162
62 97 156
61 97 163
60 96 164
60 96 156
61 97 161
60 95 159
61 96 163
57 93 158
60 95 167
60 96 168
60 95 167
59 94 163
59 95 171
58 93 169
61 97 172
60 96 168
60 96 167
59 95 173
59 95 172
60 95 169
57 92 167
59 96 173
60 95 174
61 98 173
59 95 173
59 95 174
60 96 174
58 93 168
60 96 174
60 96 172
60 97 173
60 96 175
59 95 174
59 95 176
60 96 173
61 97 177
60 96 175
61 98 178
62 98 176
59 95 175
62 99 178
61 97 176
60 97 177
59 96 172
60 96 171
60 96 175
60 97 176
61 98 172
60 96 175
61 98 179
60 96 169
61 97 175
61 97 176
62 98 174
60 97 175
61 98 174
61 97 173
61 97 169
60 97 173
62 99 177
61 98 172
62 98 176
60 97 174
61 97 169
62 98 177
61 98 176
62 98 176
60 97 170
61 98 169
62 98 171
62 98 173
62 99 172
62 99 173
61 98 171
62 99 178
61 98 170
61 98 172
62 98 175
63 99 175
62 98 176
62 98 171
61 97 167
62 98 167
62 98 170
62 98 166
62 98 166
62 98 173
62 98 173
62 99 168
62 99 169
63 99 172
61 98 173
62 98 170
62 99 171
61 98 171
62 98 165
61 98 170
62 98 167
62 99 170
62 98 166
62 98 167
62 99 169
63 99 172
62 98 166
62 98 163
62 98 165
61 98 164
62 98 164
62 98 162
62 98 169
62 98 165
61 97 157
62 98 165
62 98 165
61 98 163
62 98 167
62 98 167
61 97 158
62 98 165
62 98 167
62 98 169
62 98 164
61 97 160
62 98 163
62 98 164
62 98 162
62 99 167
63 99 172
62 98 160
62 98 166
61 98 163
61 97 155
63 98 163
62 98 165
63 99 165
62 98 166
63 100 172
62 98 162
61 97 164
61 97 159
62 98 166
63 98 160
63 99 162
61 97 154
62 98 163
62 98 159
61 96 148
62 98 162
62 98 163
62 98 159
61 97 155
62 98 160
61 96 155
61 97 156
61 97 156
62 97 161
62 98 161
62 98 162
61 96 157
60 95 151
62 97 161
61 96 153
61 96 154
60 94 150
61 96 157
61 96 156
61 95 152
60 94 147
60 94 144
60 94 146
59 93 148
59 93 141
60 94 143
58 90 132
59 86 120
75 88 89
60 67 51
79 79 27
85 84 10
80 80 19
82 80 17
86 86 20
84 84 21
81 83 26
84 85 26
91 88 23
90 90 29
90 89 28
92 92 29
89 91 33
85 86 35
93 93 33
103 102 33
93 94 33
104 103 36
115 111 45
108 107 43
106 105 30
105 105 37
121 119 46
110 108 37
110 108 39
128 125 52
123 120 40
119 116 42
123 121 47
128 125 46
119 116 45
129 125 52
117 115 45
126 123 51
117 116 40
124 120 40
130 127 54
125 122 51
130 126 50
133 129 50
138 134 57
132 128 47
144 138 60
135 131 56
144 139 58
134 131 50
142 139 56
142 137 56
141 138 52
141 136 47
151 146 61
147 141 66
155 149 61
148 142 59
149 144 58
147 142 56
151 145 60
154 148 61
144 139 55
150 145 54
146 142 47
148 142 58
147 142 58
148 143 54
145 140 51
138 134 50
150 144 62
144 140 53
142 137 48
146 140 51
148 142 57
151 144 57
154 148 61
145 140 49
148 143 49
144 139 54
149 144 53
144 138 56
144 139 51
146 141 41
146 141 49
146 141 54
140 135 54
148 142 56
145 139 48
146 140 54
147 142 47
145 139 51
143 136 47
145 139 54
137 131 45
149 143 53
126 121 36
134 129 45
139 133 47
138 132 49
133 128 41
139 133 49
137 131 48
132 126 48
135 130 47
138 132 47
131 127 42
127 122 37
140 137 41
138 135 42
136 135 32
144 145 49
136 141 30
145 149 39
146 154 32
146 153 28
146 155 25
149 158 28
156 167 28
156 168 25
161 176 16
161 175 19
164 180 0
165 184 0
165 183 0
166 187 0
167 186 0
170 190 0
166 185 0
169 188 0
169 188 0
168 189 0
164 183 0
170 191 0
169 188 0
171 192 0
167 186 0
170 190 0
179 200 88
179 201 99
182 204 114
182 204 117
179 200 120
183 204 125
185 205 128
181 203 125
183 204 120
189 209 149
188 209 151
188 209 147
186 206 140
190 211 151
190 210 157
192 212 159
187 208 149
191 212 163
188 209 153
187 208 153
191 212 171
192 212 171
193 214 173
189 210 161
193 214 177
195 215 182
191 211 171
194 215 177
194 213 186
190 210 165
195 215 184
190 210 182
193 213 175
191 211 175
191 211 177
193 213 186
195 215 188
192 212 189
195 215 186
196 215 184
193 212 175
190 210 175
198 217 193
195 215 186
191 211 175
197 217 196
197 216 191
196 216 188
193 213 182
196 216 193
194 214 188
190 210 171
197 217 193
193 213 179
197 216 189
191 211 169
191 211 173
196 215 179
193 212 179
193 212 175
184 204 149
191 210 173
189 210 159
186 206 155
190 210 169
189 209 161
187 207 144
185 206 142
183 204 130
186 207 140
187 207 153
188 207 157
185 206 147
181 202 133
183 203 133
184 203 135
175 197 111
185 205 137
176 198 99
173 194 105
167 190 88
168 190 92
158 180 103
151 173 121
127 151 147
78 109 155
61 97 152
68 101 164
63 97 159
61 97 165
64 98 162
60 96 159
58 94 160
58 93 156
59 94 160
59 94 159
59 94 160
60 96 167
59 95 163
60 96 164
59 94 165
61 97 168
61 97 172
58 93 160
60 96 168
59 95 172
59 95 167
59 95 167
60 96 170
59 95 168
59 95 171
60 96 171
58 93 170
60 96 175
60 96 174
60 97 176
58 93 171
58 94 172
58 93 171
59 95 174
60 96 174
58 94 170
59 95 172
60 97 175
61 97 175
60 97 176
59 95 172
60 95 175
61 98 177
60 96 176
60 96 175
59 95 175
60 96 172
60 97 176
59 95 172
62 99 179
61 97 174
59 95 173
61 98 179
60 96 173
60 97 175
62 98 173
59 95 174
61 98 174
60 97 173
62 99 175
61 97 169
61 98 172
61 98 174
60 97 169
61 98 175
60 97 170
61 97 175
62 99 174
62 98 174
63 99 175
62 98 171
61 98 172
61 98 174
62 98 171
62 99 173
62 98 177
61 98 170
61 98 168
61 98 171
62 99 170
63 99 175
62 99 175
62 99 172
62 98 167
62 98 169
63 99 173
61 98 174
62 98 168
62 98 169
62 98 169
61 98 169
62 98 168
62 99 171
62 98 168
61 98 168
62 98 164
62 98 167
62 99 167
62 98 167
62 98 169
62 99 171
62 98 163
62 98 167
62 99 171
62 98 172
62 99 169
62 99 168
62 98 167
63 99 173
62 99 168
61 97 160
62 99 170
62 99 171
62 99 169
63 99 172
62 99 167
62 98 164
62 99 168
62 98 162
62 98 163
62 98 164
61 97 163
62 98 165
62 99 165
61 98 160
62 98 165
62 98 163
61 97 160
62 99 170
63 99 163
62 98 167
62 98 168
62 98 163
62 98 161
61 97 162
62 98 159
62 98 159
61 98 163
61 97 157
62 98 169
62 98 162
63 99 164
63 99 166
62 99 166
61 97 160
63 99 164
62 98 161
62 98 165
62 97 156
62 98 164
62 98 161
61 97 154
62 98 165
62 98 159
62 97 161
62 98 164
62 98 160
62 99 168
62 97 153
62 98 169
61 97 152
61 97 159
61 97 160
61 97 161
61 96 153
60 95 142
63 98 162
61 96 156
61 96 159
61 96 154
62 97 158
60 95 152
61 95 142
60 95 147
61 96 149
60 94 150
58 91 134
64 88 112
72 86 95
74 81 53
72 73 15
72 72 18
75 75 17
70 72 12
83 82 14
93 92 17
89 90 15
77 77 16
81 82 24
80 81 26
93 93 19
96 94 30
95 95 28
100 99 37
104 103 35
101 101 28
97 97 27
95 95 30
98 98 36
103 102 32
111 109 41
109 106 38
120 118 44
122 119 41
110 109 42
113 110 37
118 117 40
119 118 46
119 116 46
120 118 40
117 116 45
122 119 43
124 122 45
126 123 39
132 129 51
129 127 38
138 134 52
129 127 37
131 128 47
134 131 44
141 136 54
136 133 48
138 135 52
134 130 51
138 133 57
144 139 52
131 127 55
141 136 55
144 138 54
139 134 53
143 138 53
139 135 49
145 140 50
141 136 51
140 135 45
144 137 58
146 140 57
143 138 57
147 141 51
143 138 52
142 137 52
146 141 56
148 143 53
152 146 64
145 140 54
141 137 44
148 143 53
143 138 48
149 144 53
151 145 58
145 139 51
152 146 52
154 147 60
152 147 54
148 143 62
144 139 44
152 147 61
140 135 45
147 140 54
139 133 49
145 139 52
143 138 47
149 143 53
143 138 51
143 138 48
139 134 42
139 135 44
146 141 47
133 129 36
138 133 51
141 136 54
138 133 39
138 133 42
137 131 44
144 139 44
140 135 44
142 136 54
137 133 39
138 132 47
141 135 49
135 131 52
136 133 42
141 136 47
127 126 37
141 139 39
135 133 44
131 132 36
138 138 36
138 142 28
137 142 22
144 149 28
144 153 30
146 157 19
159 171 19
157 170 25
155 168 19
157 171 19
157 173 11
164 181 11
166 185 0
168 186 0
163 182 0
168 188 0
164 182 0
170 190 0
165 181 0
168 188 0
169 189 0
171 189 0
165 184 0
168 187 0
170 191 0
172 191 0
168 188 0
182 204 108
183 204 125
185 205 130
187 207 130
183 204 117
183 204 140
186 207 142
185 207 135
186 207 140
186 207 140
187 208 144
184 205 137
186 207 137
187 207 155
188 209 159
192 212 165
191 211 163
195 214 184
196 216 182
190 211 159
192 211 179
192 211 165
193 213 175
198 217 193
191 211 163
195 215 184
197 217 193
192 212 181
196 216 184
198 217 198
197 216 198
193 213 182
198 218 201
197 217 189
197 217 194
199 217 196
196 215 194
195 215 196
199 218 199
198 217 198
194 214 184
197 216 191
198 218 193
195 215 186
195 215 186
199 218 203
201 220 206
200 219 203
201 221 209
195 214 186
200 219 199
199 218 198
196 215 198
202 220 212
193 213 184
196 215 189
192 213 169
195 215 181
193 213 182
196 215 186
196 215 191
197 216 191
194 213 188
190 211 182
189 209 159
191 211 167
187 207 163
188 208 159
187 207 165
190 211 163
180 201 137
190 209 159
188 208 144
184 204 144
182 202 133
189 209 142
188 208 149
182 203 137
182 203 120
181 201 129
177 198 133
172 192 136
171 192 134
155 178 136
117 141 140
98 125 167
83 112 162
74 105 162
74 105 163
67 100 159
64 98 161
60 97 162
59 95 164
59 95 162
61 96 166
58 93 162
59 95 167
59 95 167
59 95 164
60 96 166
60 97 166
60 96 170
60 96 171
59 94 169
59 95 169
58 94 165
59 95 171
59 94 167
59 95 172
59 95 168
60 96 176
60 97 175
59 95 175
58 94 171
59 94 169
59 95 173
60 96 175
60 96 174
60 97 174
60 97 175
61 98 177
59 95 174
59 95 173
60 97 174
60 96 175
59 95 175
60 96 172
59 95 175
60 96 171
61 98 176
61 98 176
61 97 173
61 97 176
61 97 173
61 98 177
60 96 175
61 97 173
60 97 173
60 96 175
61 97 176
62 99 179
60 96 175
61 98 170
61 97 173
60 97 175
62 99 178
61 98 178
61 97 173
60 96 172
62 98 176
61 98 175
60 97 172
61 97 174
61 97 170
61 97 171
62 99 174
62 98 167
61 98 171
62 99 176
61 97 166
62 98 173
61 97 174
61 98 175
62 98 171
61 97 169
61 98 169
62 98 169
62 98 171
62 98 170
62 99 174
61 97 165
61 98 172
61 98 171
62 98 175
62 98 167
62 98 166
62 98 170
61 97 165
62 98 172
62 99 171
62 98 170
62 98 167
62 98 167
62 98 168
61 98 169
62 98 165
62 98 166
62 99 168
62 98 168
62 98 169
62 98 165
63 99 171
62 98 168
62 98 162
62 98 168
62 98 164
61 98 166
61 97 161
63 100 171
62 98 162
62 98 161
62 98 164
63 99 167
63 99 170
62 98 161
62 98 170
62 98 157
62 98 166
62 98 164
62 98 169
62 99 170
62 99 169
62 98 162
63 99 163
62 98 165
62 99 165
61 97 162
63 99 169
63 99 171
62 97 158
63 99 169
62 98 158
62 98 167
62 98 160
63 99 169
61 97 152
62 98 157
62 98 162
63 98 163
62 98 157
61 96 153
62 98 159
62 98 162
61 97 157
63 99 161
61 96 151
61 97 155
62 98 160
61 97 157
62 98 160
62 97 159
62 98 157
61 97 155
61 97 157
62 98 161
61 96 153
62 98 159
59 93 147
62 98 157
61 96 154
61 96 152
60 96 154
61 96 153
61 96 150
61 96 150
59 93 147
61 95 150
60 94 139
61 95 146
60 95 149
59 92 135
61 96 149
59 92 133
63 86 110
61 77 83
68 74 65
73 76 30
77 78 20
89 89 23
75 75 24
68 69 8
93 92 7
81 81 21
87 86 17
87 86 27
87 87 23
84 84 20
90 91 24
91 89 23
92 92 24
100 101 28
96 96 31
97 97 26
96 96 33
107 104 34
83 84 32
101 99 31
112 111 28
109 108 33
104 102 39
110 109 36
113 112 42
106 106 45
126 123 45
124 121 49
130 127 44
131 129 46
122 120 31
131 127 42
123 121 36
129 127 50
139 134 52
132 127 49
141 136 48
127 125 42
131 129 47
124 120 51
136 131 55
137 132 44
131 128 41
138 135 49
145 141 59
138 133 47
143 139 47
139 135 45
141 137 50
142 136 49
136 132 52
145 139 52
146 141 51
143 137 58
148 142 59
138 135 46
145 140 42
144 139 51
139 134 46
145 140 50
152 146 56
150 144 62
150 145 56
148 141 53
146 141 53
146 141 53
148 143 53
149 143 53
145 141 57
153 148 54
156 150 58
143 137 52
145 139 52
146 139 56
144 139 54
146 141 48
147 141 61
135 131 47
141 137 47
144 138 53
149 145 47
141 136 51
142 136 47
140 135 45
144 139 52
138 133 49
146 140 56
136 130 41
136 132 41
145 140 54
147 142 44
131 126 37
135 130 48
140 134 39
135 129 51
140 135 48
137 131 45
136 129 42
139 133 45
132 127 41
137 132 37
133 127 39
138 134 39
144 146 39
136 137 28
138 140 28
141 144 34
146 155 22
150 156 37
149 159 25
142 152 19
151 161 19
157 169 11
158 170 22
158 174 19
161 175 16
160 177 0
162 179 0
164 181 0
168 187 0
169 188 0
168 187 0
168 188 0
168 186 0
171 191 0
166 184 0
165 183 0
171 191 0
168 186 0
170 190 0
166 186 0
167 186 0
165 184 0
186 207 137
187 208 137
186 207 137
187 207 142
189 209 155
186 207 157
187 208 135
190 210 159
183 204 122
189 209 159
191 211 163
191 211 161
190 211 165
191 211 163
192 210 171
191 211 163
192 211 177
196 216 181
194 214 182
190 210 169
200 220 199
193 213 179
196 215 184
196 215 196
198 218 199
197 216 198
198 218 193
191 212 175
195 215 193
196 216 193
199 218 203
195 214 194
200 219 207
198 218 198
195 215 191
204 223 221
197 217 199
197 216 201
197 217 198
200 220 209
199 219 199
199 218 204
199 218 203
202 221 217
199 218 203
201 220 211
201 220 207
201 220 206
203 222 217
199 219 203
198 217 191
197 216 196
200 219 207
200 219 204
196 216 199
197 216 198
199 218 203
197 216 186
199 218 203
200 219 207
192 211 171
200 218 199
198 217 196
192 211 181
195 214 188
192 211 179
194 214 184
187 206 163
188 207 165
190 209 161
189 209 171
189 209 161
185 204 149
189 209 157
190 210 167
183 203 151
183 203 137
182 202 130
181 201 136
177 197 148
177 197 148
179 199 154
159 182 122
158 179 140
138 160 149
92 119 166
90 117 168
85 113 166
69 101 151
71 103 164
65 100 169
60 96 162
61 97 165
60 95 163
60 96 165
58 93 163
59 95 162
58 94 163
60 96 173
59 95 166
59 95 161
59 95 166
59 95 167
60 95 169
59 95 163
60 96 170
58 94 170
60 96 170
60 96 170
58 94 169
58 94 172
60 97 173
60 96 174
58 94 171
60 96 175
60 96 176
57 92 171
60 96 172
58 93 169
58 93 167
59 95 175
60 95 172
59 95 173
58 94 170
59 95 171
59 95 173
59 96 175
60 96 172
59 95 173
60 96 173
59 95 174
61 97 176
61 98 175
59 95 174
59 95 172
60 96 173
60 96 175
60 96 175
61 97 174
61 98 177
61 98 178
62 98 176
61 98 174
60 96 170
61 98 173
61 98 174
61 98 178
61 98 173
61 97 171
62 98 175
61 98 171
60 96 169
61 97 173
60 96 169
62 98 169
61 98 176
61 97 170
61 98 173
61 98 169
61 97 173
62 99 174
62 99 175
62 99 176
62 98 174
62 98 174
61 98 174
62 99 169
61 98 162
61 98 170
62 98 168
62 98 169
63 99 174
62 99 171
62 99 169
61 97 166
62 98 167
61 98 170
62 98 172
61 98 165
61 98 171
61 98 167
61 97 162
61 98 165
62 99 168
62 98 168
61 98 165
61 98 168
61 98 165
62 98 168
60 96 160
62 98 171
61 98 161
61 98 167
63 99 173
62 98 169
62 98 168
62 99 169
61 97 165
62 98 171
63 99 166
61 97 161
62 98 161
63 99 173
62 99 169
63 99 174
62 98 168
62 99 166
63 99 170
61 98 161
62 97 158
61 98 161
63 99 165
62 98 163
62 98 164
62 98 165
62 98 160
62 99 171
62 99 169
62 99 166
61 97 159
62 98 164
63 99 165
62 97 163
63 99 170
62 98 157
62 98 160
62 97 156
62 98 161
62 98 164
62 98 160
62 99 169
62 98 161
61 97 153
62 98 161
60 96 153
62 98 162
62 97 162
62 98 163
62 98 165
62 98 163
62 98 161
61 97 150
61 97 152
61 97 154
61 97 155
61 97 155
61 97 154
61 97 151
61 97 156
62 97 155
62 98 162
61 96 148
62 97 156
61 96 148
60 95 146
60 94 139
61 96 157
61 96 152
60 95 147
60 94 145
59 91 142
59 92 137
58 91 142
59 86 111
73 88 89
83 87 66
86 87 23
88 88 20
77 77 14
83 84 12
82 81 19
75 74 22
81 82 22
80 80 20
98 95 19
77 77 20
83 84 18
83 84 28
89 89 19
94 93 31
96 94 27
96 97 31
103 102 29
107 105 34
105 105 34
111 110 37
106 105 24
113 111 37
101 101 28
118 116 43
117 115 36
111 109 35
113 110 32
126 122 44
122 120 38
123 120 42
123 120 41
122 119 38
119 116 42
122 121 35
128 124 46
130 126 49
126 123 37
128 125 32
126 123 47
125 122 40
127 123 47
130 127 47
143 138 49
139 134 55
139 133 50
143 138 62
134 131 37
134 128 49
140 136 49
139 136 42
130 126 36
138 134 47
140 136 48
146 140 50
147 142 56
143 137 55
143 138 43
140 137 43
144 139 57
145 140 53
144 139 50
153 147 58
151 145 56
143 139 39
143 137 56
154 148 56
150 144 54
147 141 59
147 141 60
154 147 56
139 134 48
144 138 52
149 144 53
147 140 48
152 146 58
144 138 51
152 146 57
141 134 51
135 131 37
141 135 48
144 139 48
144 139 49
140 134 44
140 136 37
150 144 59
138 134 47
146 141 54
142 137 44
138 133 39
147 140 54
143 137 52
137 131 44
135 130 45
138 133 47
132 126 42
130 126 41
137 131 51
128 124 37
136 130 51
128 123 45
138 136 39
130 125 36
136 133 45
135 134 41
142 143 36
138 139 22
141 143 32
141 146 34
148 153 36
147 155 22
146 157 19
153 163 25
156 170 16
154 168 19
162 175 16
168 186 19
161 179 11
160 178 0
164 180 0
170 188 0
163 181 0
169 188 0
163 182 0
172 190 0
170 189 0
166 185 0
164 181 0
165 183 0
166 186 0
167 187 0
169 189 0
170 189 0
170 190 0
168 189 0
187 207 144
182 204 122
193 213 167
192 212 159
187 208 142
188 209 149
189 210 159
193 213 173
191 210 163
191 211 173
192 212 165
192 212 173
191 212 163
194 214 186
193 213 175
196 216 186
194 214 177
191 211 177
193 213 179
196 215 186
198 218 198
198 218 196
196 216 196
200 219 203
197 217 199
203 222 215
198 217 201
199 218 201
199 219 201
198 218 198
198 218 204
200 220 207
197 217 203
202 221 212
203 222 226
203 222 214
202 221 220
199 219 206
205 223 226
201 220 214
202 221 218
200 220 218
203 221 223
201 221 220
196 216 203
200 219 212
202 221 223
201 220 211
195 215 191
199 219 206
199 218 203
198 218 201
199 219 201
199 219 203
203 222 211
199 219 203
198 217 193
200 219 201
201 220 206
197 216 194
202 220 209
196 216 194
200 219 206
198 217 196
198 217 193
199 218 199
200 219 207
196 215 198
198 217 193
199 218 196
194 214 179
194 214 175
191 211 171
185 204 155
194 213 181
192 212 175
188 208 165
188 207 151
185 205 153
182 202 160
177 197 149
171 192 148
169 189 152
163 184 148
139 161 155
103 128 176
90 118 169
86 114 173
77 108 165
83 112 171
80 110 169
59 95 162
62 95 153
59 95 160
59 95 161
61 96 170
60 95 157
59 94 162
60 95 163
59 95 165
59 95 166
60 95 170
60 96 167
59 94 168
59 94 168
59 94 168
59 94 171
59 95 171
58 94 169
58 93 167
60 96 175
57 92 166
59 95 171
58 94 171
59 95 175
59 94 172
58 93 171
58 93 170
59 94 171
59 95 172
58 93 169
59 94 171
60 97 175
60 96 175
58 93 172
59 96 170
60 96 175
60 95 170
59 95 172
60 96 174
60 96 173
59 96 174
60 96 175
60 97 177
61 98 174
61 97 175
60 95 170
60 96 172
60 96 173
61 97 174
61 97 172
60 96 171
61 97 168
60 97 172
60 97 172
61 98 174
61 98 176
61 97 174
61 98 174
61 98 176
61 97 173
62 99 178
61 98 172
61 98 174
61 97 173
62 99 176
61 98 166
62 99 175
62 99 175
61 97 167
61 98 172
62 98 174
61 97 169
61 98 171
62 98 167
62 99 170
62 99 169
61 97 169
62 99 169
62 99 174
61 97 163
63 99 171
62 99 167
61 97 169
62 98 171
61 98 163
62 98 174
62 98 169
62 99 168
61 97 169
62 98 169
61 97 163
62 98 168
62 99 176
62 98 164
62 98 170
61 98 169
62 98 167
62 99 171
62 98 161
62 98 165
62 98 166
61 97 161
62 99 169
61 98 167
62 98 166
62 99 172
62 98 163
62 98 167
63 99 170
62 98 166
61 97 161
62 98 165
62 98 161
61 97 155
62 98 166
63 99 170
62 98 170
62 99 166
63 99 168
60 96 151
62 98 164
62 98 164
61 98 163
61 97 158
62 98 165
62 98 157
63 99 165
62 98 165
62 97 155
63 99 162
62 98 161
62 98 160
62 98 164
63 99 166
62 99 167
61 97 155
63 99 165
62 98 164
63 99 167
61 97 160
61 97 155
62 98 157
62 98 163
63 99 169
62 98 161
62 98 157
62 97 153
61 97 155
61 96 150
62 99 165
61 97 161
59 95 143
61 97 159
62 97 156
62 97 153
62 97 158
62 97 155
60 96 158
60 95 147
62 97 158
62 97 154
60 95 149
61 96 154
59 94 143
61 96 147
61 96 158
59 93 140
60 94 150
61 96 153
60 95 148
59 92 136
60 94 145
65 88 116
69 84 89
75 80 57
90 90 36
85 84 21
99 97 16
72 72 13
69 70 20
74 74 16
85 85 22
87 85 23
92 92 16
98 98 22
83 86 21
101 100 20
89 89 27
93 93 21
84 84 29
88 89 26
95 94 36
95 95 30
100 100 38
114 113 35
104 103 27
103 102 33
108 106 35
98 98 34
110 109 36
117 114 40
115 113 42
117 115 41
127 125 43
130 126 46
131 126 42
119 117 41
119 118 25
121 119 44
127 123 45
122 119 41
124 122 44
125 122 43
128 124 53
119 117 45
129 126 42
133 128 41
139 132 47
145 140 55
136 132 47
144 139 51
137 133 51
141 135 49
139 134 51
140 135 50
135 130 48
140 134 50
143 139 45
135 131 46
144 140 51
146 140 63
135 131 44
149 144 53
146 141 53
140 134 52
137 132 45
142 137 45
152 145 61
143 137 51
139 134 51
144 138 58
146 141 51
149 143 49
134 130 44
147 142 51
145 139 58
144 138 60
144 139 53
141 136 42
142 137 47
151 145 54
142 138 42
139 134 49
135 132 32
143 136 49
142 138 41
140 135 48
143 137 42
137 132 45
139 133 47
128 123 41
143 138 48
139 132 39
136 130 39
141 135 53
139 134 44
137 132 36
134 128 49
135 131 42
130 126 32
134 128 47
133 128 28
119 116 28
131 128 39
128 125 30
131 130 34
127 127 30
119 118 34
139 140 25
145 147 34
135 139 22
137 140 37
150 156 30
153 161 34
152 163 19
146 157 11
149 160 22
152 164 19
159 173 0
160 176 11
166 184 0
158 172 16
163 179 0
166 181 0
169 187 0
165 182 0
170 188 0
162 177 0
168 187 0
168 185 0
167 183 0
168 186 0
165 183 0
168 187 0
170 189 0
167 187 0
165 184 0
167 187 0
168 187 0
187 207 135
190 210 159
186 207 135
189 209 155
192 211 169
189 209 163
193 212 175
192 212 163
194 214 182
197 217 188
194 214 175
197 217 191
192 213 181
196 217 194
192 212 179
194 215 193
198 218 199
194 215 191
194 214 191
195 215 186
198 218 203
196 216 193
200 219 207
199 218 209
196 216 194
196 216 196
203 222 220
198 218 206
201 220 215
198 218 212
201 221 218
206 225 230
205 224 226
202 221 217
206 225 230
202 222 220
200 220 214
203 222 220
200 220 217
206 224 226
202 222 223
204 224 227
204 223 228
205 224 230
205 224 228
200 219 214
204 224 227
203 222 223
202 222 226
204 224 227
199 219 209
203 222 220
200 219 207
200 220 212
204 223 221
204 223 223
201 220 209
203 222 224
200 220 212
202 221 215
194 212 194
201 221 211
201 220 203
198 217 198
193 213 186
197 217 199
195 215 189
195 215 193
198 218 199
198 217 193
194 213 179
198 217 193
199 217 206
191 210 167
192 212 165
192 212 173
190 210 163
186 206 155
185 205 164
183 202 165
181 200 169
169 189 162
177 197 148
166 187 155
144 166 161
117 140 177
101 126 171
107 131 178
90 118 171
79 109 165
79 109 170
70 103 168
69 102 168
60 96 162
65 99 162
60 95 159
60 96 167
60 96 168
60 96 171
60 95 164
61 96 169
60 95 167
59 94 169
57 92 165
57 92 164
56 91 161
58 94 170
60 96 174
59 95 170
59 95 173
60 96 172
59 95 172
60 97 176
58 93 170
58 94 169
59 95 172
59 95 173
59 95 175
59 95 173
59 95 173
60 96 175
60 97 177
57 93 173
57 93 170
59 95 174
58 94 172
59 95 173
60 96 175
60 96 175
60 96 174
59 95 171
60 96 173
60 96 176
59 95 173
61 97 172
59 95 167
59 95 174
61 97 172
61 97 166
61 98 172
61 97 172
61 97 174
60 97 173
60 96 173
60 96 173
61 98 175
61 97 174
62 98 172
60 96 174
61 98 175
60 96 163
61 98 173
62 98 173
62 99 175
60 97 171
60 97 169
62 98 172
62 99 177
63 99 175
61 98 176
61 98 173
61 97 165
61 98 173
61 97 169
61 97 171
61 98 168
62 99 174
61 98 170
62 99 176
63 99 172
62 98 171
62 99 167
62 98 170
62 98 164
61 98 168
62 98 167
62 98 164
62 98 173
63 100 177
61 98 164
61 98 166
62 99 173
63 100 175
62 99 168
62 99 169
61 97 164
62 99 167
62 98 166
62 98 169
62 98 169
61 98 164
61 98 162
61 98 162
62 99 172
61 98 163
62 99 168
64 100 171
62 98 169
61 98 162
62 98 165
62 99 167
61 98 161
61 97 158
62 99 168
61 98 165
63 99 169
63 99 166
62 98 164
62 99 168
62 98 159
63 99 165
62 98 159
61 97 158
63 99 169
62 98 161
63 99 166
62 98 162
62 98 164
61 97 158
62 99 164
63 99 167
62 98 163
62 98 164
62 99 168
62 99 163
63 99 160
62 97 159
62 99 166
61 97 155
61 97 156
63 99 163
61 96 150
61 97 159
61 96 153
61 97 158
63 99 168
61 97 150
61 97 159
61 97 153
62 98 163
61 97 154
61 97 153
62 98 155
62 98 162
61 96 149
61 96 153
61 97 153
61 97 156
61 97 154
62 97 157
61 96 154
62 97 152
60 95 140
60 94 141
60 95 148
62 97 151
60 94 144
60 95 151
60 95 152
60 95 147
59 94 148
59 92 137
62 95 142
62 87 111
70 84 88
80 86 65
77 80 37
78 77 20
85 83 16
81 81 24
91 90 21
81 81 8
90 90 22
76 76 14
85 84 25
91 91 23
82 82 21
92 90 24
88 89 19
96 94 22
87 89 26
92 91 26
86 85 25
93 91 30
103 102 20
96 96 26
91 92 23
96 95 31
99 98 29
102 101 26
111 108 37
113 111 39
124 121 35
111 108 31
115 113 34
115 114 38
125 122 41
110 108 40
117 115 25
124 121 45
121 118 34
132 128 44
130 126 43
123 120 43
136 132 41
132 127 44
131 126 48
131 128 32
134 129 47
127 124 45
133 127 42
135 130 49
145 139 59
139 134 44
144 140 49
138 134 47
132 128 45
137 134 40
134 130 51
139 134 47
147 140 48
142 136 49
140 135 49
143 137 45
137 134 43
153 146 52
143 138 47
134 130 45
136 131 37
134 129 45
142 137 42
135 130 45
140 134 49
141 135 51
144 138 53
145 140 47
146 141 44
141 136 41
143 138 45
143 138 48
146 140 53
141 137 42
143 138 52
143 138 48
140 135 49
144 139 51
147 141 52
134 130 30
140 135 45
137 132 45
139 133 45
138 134 41
138 132 41
136 130 42
134 129 42
134 128 41
141 135 44
138 133 51
137 131 49
134 128 39
139 132 49
132 127 41
120 114 34
136 131 47
124 119 36
136 134 45
126 126 30
134 133 34
139 140 36
133 134 32
137 140 30
142 147 30
140 147 28
148 155 32
142 150 25
157 167 25
158 170 28
152 165 22
156 172 0
160 173 22
159 175 16
163 178 0
167 185 0
166 183 0
164 182 0
164 182 0
165 183 0
167 186 0
168 190 0
167 185 0
165 184 0
165 183 0
170 188 0
164 181 0
168 189 0
170 188 0
164 184 0
166 186 0
170 189 0
169 190 0
183 205 140
193 213 175
190 210 161
191 212 165
191 212 163
194 214 179
195 214 179
196 215 181
194 213 188
195 215 191
199 218 204
193 213 184
197 216 188
193 213 182
197 217 198
199 218 204
197 217 196
199 219 211
197 217 199
195 216 194
199 219 207
198 217 194
203 222 215
202 222 217
200 220 212
201 221 223
203 223 220
202 222 218
197 217 203
204 224 230
205 224 226
204 224 231
204 224 233
204 223 224
202 222 223
203 223 224
204 224 230
204 224 231
200 220 215
208 226 237
203 223 226
204 223 223
203 223 227
204 223 227
200 220 214
204 223 223
206 225 234
206 226 234
204 223 224
206 225 230
203 222 224
205 224 227
201 220 220
206 225 234
202 222 220
201 221 214
202 221 217
204 223 221
203 222 220
201 221 215
201 221 214
201 220 211
201 221 218
204 222 221
201 220 211
203 222 212
199 219 207
195 215 191
197 216 194
199 218 198
200 219 201
200 219 201
190 210 175
195 215 184
193 213 182
193 212 177
194 213 181
193 212 181
180 200 156
183 203 185
173 193 165
177 196 180
165 186 160
162 183 163
141 163 164
124 147 176
118 140 183
108 133 184
105 130 180
90 118 178
90 117 172
83 112 175
69 101 169
64 100 165
66 100 167
64 99 171
59 95 164
59 94 165
60 96 170
56 90 159
59 95 162
59 95 168
60 96 170
59 95 166
58 93 165
59 95 173
57 91 160
57 92 167
60 96 171
59 95 171
59 94 170
58 93 170
58 93 171
57 92 168
58 94 172
57 92 167
58 94 172
60 96 174
58 94 173
59 95 175
59 96 173
58 94 172
59 94 169
59 95 175
58 94 172
59 95 170
60 96 174
59 95 173
58 94 170
60 95 173
60 95 175
59 95 171
60 96 171
60 96 173
59 95 167
60 96 174
61 97 176
60 97 178
60 95 169
60 97 171
59 95 174
60 96 175
60 96 168
60 97 174
61 98 173
60 97 173
61 97 172
60 96 171
61 97 173
60 96 172
61 98 171
61 97 169
60 97 175
60 96 169
61 97 171
61 97 172
61 98 171
62 99 174
62 99 175
61 97 168
61 97 169
62 99 173
62 98 170
61 97 170
62 99 172
61 98 170
62 98 169
62 98 174
61 98 170
62 99 172
62 99 173
62 99 170
63 99 169
62 98 169
62 98 169
61 98 169
63 99 173
62 98 162
61 98 162
62 99 171
62 98 169
62 98 170
62 98 169
62 98 170
62 98 169
63 99 173
62 99 167
62 98 166
62 98 162
62 98 171
62 98 162
62 98 164
62 98 162
61 97 161
62 98 163
61 97 161
62 99 172
62 98 161
62 98 164
62 98 167
62 98 163
62 98 162
62 98 164
61 97 162
61 97 157
62 98 163
62 98 166
61 98 164
62 98 165
62 99 169
62 98 161
62 97 154
61 97 155
62 98 162
61 97 159
62 98 165
62 98 160
62 98 160
62 98 162
63 99 166
62 98 160
61 97 160
62 98 162
62 99 165
61 96 149
61 97 154
62 98 162
61 97 161
62 98 163
62 98 162
62 98 163
61 97 155
61 97 153
62 97 158
61 97 154
61 97 158
62 98 162
62 97 152
62 98 158
61 96 152
62 97 153
62 98 162
61 98 159
61 96 155
60 95 148
61 97 156
62 97 160
61 96 150
61 97 154
61 96 143
61 95 146
61 97 158
60 95 146
61 96 148
61 96 153
60 95 143
62 97 151
61 95 149
61 96 149
60 94 150
59 93 145
60 94 149
61 93 140
70 92 117
89 97 89
72 79 56
88 88 28
83 83 20
80 79 16
86 85 3
81 79 19
82 81 12
84 82 16
89 89 14
86 86 20
90 90 24
87 88 16
84 84 26
98 94 21
96 96 21
90 89 24
86 85 24
103 102 32
88 88 18
103 100 23
100 99 32
105 102 31
100 98 29
114 113 29
98 96 20
111 109 35
124 122 39
109 107 22
114 112 32
119 117 38
126 122 40
112 109 36
128 124 36
118 115 32
121 119 37
122 120 37
132 128 42
131 127 51
122 120 42
120 115 31
131 128 43
134 130 46
136 132 49
127 124 38
132 128 53
121 118 36
142 137 42
137 132 48
134 130 42
131 128 42
135 131 37
129 125 36
134 129 42
143 139 47
141 137 44
134 130 43
141 136 47
143 138 49
143 139 48
145 139 54
135 130 48
146 140 53
144 139 53
143 137 48
147 142 52
148 141 56
146 140 52
141 137 39
134 130 37
135 130 39
139 134 45
140 135 48
145 140 51
141 136 53
143 139 45
144 137 49
144 136 54
140 134 44
133 128 41
140 137 39
136 131 42
136 131 37
132 127 39
151 144 49
138 134 44
140 134 51
144 138 52
133 127 42
139 135 37
130 125 34
143 137 52
134 129 36
135 130 44
125 120 25
137 132 42
131 126 39
121 117 34
137 132 44
140 136 48
140 137 34
132 129 41
136 137 36
133 135 32
139 138 34
149 151 41
142 146 25
142 145 34
145 154 19
144 151 25
153 165 19
149 163 16
153 167 16
158 172 0
154 168 11
163 178 0
165 181 19
154 168 0
163 179 0
161 176 0
164 184 0
167 185 0
169 188 0
167 186 0
167 184 0
168 186 0
166 184 0
167 185 0
165 184 0
167 184 0
165 186 0
166 184 0
166 186 0
168 186 0
162 180 0
171 192 0
192 213 167
191 212 167
187 208 155
195 214 186
198 218 189
189 209 169
202 220 201
199 218 204
193 213 175
194 215 191
195 215 191
200 219 203
198 218 203
199 218 199
199 218 207
197 217 196
203 222 220
202 221 215
203 223 224
204 223 224
205 224 226
202 222 224
201 220 217
198 218 203
203 223 226
202 222 223
203 223 230
202 221 226
202 222 227
203 222 226
206 225 236
203 223 228
203 222 220
204 223 230
204 224 226
201 222 224
207 226 238
206 226 236
204 224 236
204 224 231
203 222 227
206 225 238
203 223 231
206 225 233
207 227 241
205 225 236
205 225 234
207 226 240
206 225 236
204 224 228
206 226 241
205 225 236
207 226 242
206 226 237
206 225 230
204 224 230
205 224 228
201 221 214
204 223 224
204 224 230
201 221 212
206 225 228
206 224 224
204 223 221
205 223 223
204 222 221
201 220 215
202 220 215
200 219 207
198 217 198
199 218 201
203 221 218
195 214 194
202 221 204
198 217 201
196 215 194
191 211 176
196 215 183
190 209 183
186 205 195
178 197 184
174 194 180
169 190 173
178 198 189
162 182 191
125 147 177
120 143 185
119 141 188
111 135 184
103 128 178
90 118 175
83 113 175
99 125 183
76 107 168
76 107 168
70 102 170
68 102 172
60 95 170
59 95 162
61 97 170
59 94 165
58 93 163
58 94 169
58 93 167
58 93 167
55 89 161
59 95 171
57 92 168
57 92 166
58 93 166
57 93 168
59 95 171
56 91 165
58 93 169
56 90 164
58 94 170
58 94 170
59 94 168
58 94 170
58 93 171
58 94 173
59 95 171
56 91 169
58 94 171
58 94 171
58 94 168
58 93 171
59 96 172
59 95 171
57 93 169
59 95 173
60 96 173
60 97 174
60 96 174
59 95 173
61 97 175
60 97 175
61 97 174
60 96 172
59 95 167
60 96 170
61 97 172
61 97 173
59 95 168
59 94 167
59 95 169
61 97 173
61 97 166
60 97 172
61 98 171
59 95 169
61 98 174
61 98 173
61 98 175
61 97 173
61 98 170
61 97 173
62 99 176
61 98 171
62 99 173
61 98 172
62 98 171
62 99 175
62 98 172
61 98 170
61 98 170
61 97 163
62 98 167
62 98 173
60 96 161
62 98 166
63 99 175
62 98 163
62 99 173
60 96 167
61 98 166
62 98 170
61 97 163
63 99 169
62 98 166
61 98 165
62 99 170
62 98 168
62 98 169
62 98 167
62 98 165
62 98 167
62 98 162
62 98 163
62 99 171
61 97 161
63 99 168
62 98 166
62 99 168
61 98 168
62 99 171
62 98 163
62 98 164
63 99 164
62 98 167
61 97 157
62 98 164
62 99 164
61 98 166
62 97 153
63 99 163
62 98 167
62 98 163
63 99 162
61 97 157
61 97 158
61 97 155
62 98 160
62 98 164
61 97 158
63 99 166
62 99 170
63 99 164
61 97 155
62 98 161
62 99 164
63 98 163
62 98 161
63 99 165
62 99 166
61 97 160
61 97 156
62 98 165
61 97 158
62 97 155
61 98 159
62 97 157
63 99 160
63 99 166
61 97 153
62 98 157
62 98 154
62 98 159
61 97 151
62 99 166
61 97 156
62 97 153
61 97 151
61 96 153
61 96 156
61 96 153
61 96 151
61 97 149
61 97 151
62 97 153
60 95 148
63 98 160
61 96 149
61 96 147
62 96 145
59 92 137
60 94 147
59 93 141
60 94 142
61 96 153
60 93 133
61 94 143
60 93 137
60 85 121
78 88 88
74 78 50
96 93 16
92 90 12
83 80 9
83 81 14
86 85 18
90 89 16
88 83 16
81 80 16
85 84 14
86 85 14
87 87 19
89 89 25
76 80 22
94 91 8
95 94 16
104 102 24
91 91 23
93 93 23
94 95 14
104 102 20
106 106 37
107 106 30
107 105 36
107 106 28
114 113 32
122 120 47
129 126 37
120 118 30
116 112 30
116 114 38
117 113 36
129 124 46
118 116 33
125 121 35
123 121 37
124 121 46
118 115 36
124 120 36
126 123 40
129 125 48
118 115 37
128 124 31
130 126 42
136 131 42
131 127 43
127 124 40
141 136 51
134 130 40
135 131 42
130 126 49
133 129 39
139 135 49
138 133 44
141 137 42
148 143 52
137 132 49
134 130 31
144 139 50
144 138 55
145 140 52
140 135 44
137 132 39
138 133 42
141 137 42
133 128 41
142 136 49
139 135 42
140 135 42
142 139 39
142 136 48
142 136 54
147 141 48
138 135 34
139 135 45
137 131 37
136 132 47
134 129 41
141 136 49
134 128 42
144 139 45
147 141 49
138 133 39
139 133 45
137 133 37
138 134 44
141 136 39
139 133 49
134 128 42
135 130 41
132 129 36
136 131 47
129 123 39
136 130 47
131 127 36
137 130 45
133 128 36
124 121 25
130 129 34
134 131 34
133 130 39
137 136 32
136 138 28
130 132 28
140 145 25
143 148 30
150 159 19
146 156 19
150 157 25
151 162 25
151 163 16
157 171 19
157 168 19
158 170 11
163 178 0
167 183 0
162 179 0
164 180 0
164 181 0
166 182 0
169 189 0
165 184 0
169 184 0
165 183 0
169 186 0
164 180 0
167 184 0
166 185 0
169 187 0
168 186 0
168 188 0
167 185 0
166 183 0
170 188 0
167 185 0
190 210 167
196 215 184
191 211 173
192 213 179
192 212 186
197 216 186
199 219 204
196 216 196
195 215 189
201 220 209
198 218 201
197 217 204
206 225 224
200 219 209
201 220 215
204 223 221
202 222 221
203 222 220
204 224 228
205 224 228
205 224 230
206 225 233
207 226 237
201 221 224
204 224 231
203 223 223
203 223 228
203 223 230
202 223 231
205 224 233
205 224 228
202 222 223
204 224 238
206 226 240
205 225 240
206 225 238
206 226 240
207 226 242
205 225 238
206 226 240
205 224 230
206 226 244
205 225 234
208 227 242
209 229 250
207 226 242
207 227 244
206 226 248
206 226 240
206 225 237
206 226 241
208 228 248
206 225 234
205 225 238
205 225 237
206 226 237
206 225 236
206 225 236
205 224 230
207 226 237
205 224 238
204 223 221
203 222 221
207 226 237
205 225 230
206 225 230
207 226 231
203 222 214
202 221 221
207 226 233
200 220 206
205 224 223
206 224 224
206 224 217
200 219 206
199 218 201
200 219 213
189 208 191
190 210 207
188 207 195
181 200 200
173 192 186
165 185 177
166 186 180
151 172 187
131 153 194
138 159 196
128 151 199
112 136 184
108 132 182
102 127 175
84 112 172
81 110 172
89 117 175
84 113 171
72 104 170
70 103 171
58 94 160
60 96 168
58 94 162
59 95 167
58 93 167
58 93 159
58 93 164
58 93 168
57 91 163
57 92 166
58 93 165
58 93 171
58 94 172
58 93 173
58 93 171
59 95 175
55 90 166
57 92 169
58 94 172
57 93 166
59 95 174
57 93 172
56 92 168
60 96 173
56 91 168
59 95 172
58 94 171
58 93 172
59 95 172
58 93 169
60 97 173
60 96 174
59 96 172
61 97 171
59 95 171
59 95 168
60 96 172
58 93 170
60 96 173
59 95 171
60 96 172
59 94 168
60 96 172
62 98 171
60 97 173
60 97 170
61 97 172
60 97 172
60 96 172
60 97 172
61 97 169
62 98 175
61 98 170
61 97 172
61 97 170
61 97 173
61 98 175
61 98 170
60 97 172
62 98 172
62 98 175
61 98 173
61 97 169
61 98 174
61 98 170
61 98 166
60 96 161
62 99 174
61 98 170
61 98 166
61 97 171
62 99 171
61 97 168
61 98 167
62 98 167
63 99 173
62 98 162
61 98 168
63 99 173
62 98 166
62 98 170
61 98 166
61 97 162
62 98 166
62 98 165
62 98 165
62 98 168
62 97 158
62 98 167
61 98 161
62 98 170
62 98 167
61 97 163
62 99 167
62 98 161
61 97 157
61 97 163
62 99 170
61 97 162
63 99 167
62 98 166
62 98 159
62 98 162
61 97 158
62 98 161
62 98 165
61 98 161
62 97 156
62 98 161
63 99 162
62 98 165
62 98 163
61 97 160
63 99 168
62 97 159
61 98 161
61 96 153
62 99 165
62 98 156
63 99 161
61 97 157
62 98 161
62 98 162
62 98 159
62 98 165
62 97 156
61 97 161
61 97 157
62 98 162
61 96 154
63 98 160
61 98 162
61 97 159
62 98 159
61 97 159
62 97 154
63 99 167
62 98 160
61 97 162
61 97 157
61 96 147
61 97 155
62 98 156
62 98 161
62 97 154
62 98 157
62 98 159
62 97 150
63 98 162
60 96 152
61 96 154
61 97 156
61 97 158
60 95 143
61 96 151
59 93 142
60 95 153
58 91 135
61 96 151
61 96 142
61 96 152
60 94 142
59 93 131
58 92 133
60 94 140
58 91 137
73 95 116
83 93 79
88 91 53
82 82 31
77 77 12
96 93 23
73 73 16
83 82 19
77 77 11
81 79 12
83 82 12
99 98 14
88 88 22
97 95 3
90 89 14
100 100 18
96 94 21
100 98 24
91 89 18
92 92 20
106 105 21
111 109 29
95 96 18
109 107 34
95 93 25
98 96 30
109 107 32
111 111 34
122 117 30
111 108 31
110 108 37
123 119 45
116 113 40
114 112 35
119 115 42
120 118 35
116 112 36
117 113 36
131 128 42
128 124 44
128 126 38
122 118 38
122 120 31
135 130 44
136 132 50
129 125 36
137 132 45
132 128 39
136 131 42
143 137 52
140 136 47
132 127 42
125 121 40
140 134 50
143 137 49
138 133 30
131 128 37
129 125 37
135 130 47
148 142 49
136 131 40
147 142 47
142 138 41
134 129 43
142 136 51
140 135 52
142 137 45
143 137 47
140 136 39
140 136 36
136 131 41
141 136 41
132 127 41
140 135 45
133 130 28
146 141 39
141 135 51
135 129 45
139 133 49
134 129 37
143 137 41
141 135 42
134 128 42
138 133 39
140 135 42
137 134 30
143 135 54
143 138 45
135 130 42
144 137 47
133 127 32
136 129 37
133 128 39
134 128 44
125 120 36
134 130 34
131 125 34
138 134 36
136 132 37
131 127 36
134 130 41
134 134 25
145 143 41
136 134 32
141 142 28
139 142 30
146 152 19
144 152 16
146 154 25
152 160 22
151 161 16
150 163 11
161 174 28
159 175 11
159 175 11
158 171 11
168 185 0
164 179 0
168 185 0
166 182 0
163 178 0
164 182 0
166 184 0
166 184 0
166 185 0
166 184 0
169 186 0
168 188 0
164 183 0
167 186 0
162 180 0
170 188 0
167 185 0
169 187 0
168 186 0
170 189 0
168 189 0
195 215 182
197 216 186
198 218 196
199 218 204
197 216 194
198 218 194
196 216 189
201 220 211
201 221 215
199 219 207
199 219 206
199 219 212
204 223 223
204 222 221
202 221 217
203 223 234
200 220 218
201 220 218
205 225 233
205 224 228
204 224 228
206 225 236
205 225 237
209 227 242
206 225 237
205 225 240
205 225 236
205 225 236
205 225 240
206 225 238
208 227 245
205 226 244
208 227 248
207 227 250
208 228 248
207 228 252
207 227 248
204 225 238
208 227 245
208 227 248
208 227 248
207 226 242
209 228 248
207 227 246
207 227 248
208 228 246
208 228 250
207 227 245
209 228 245
208 227 249
206 226 245
208 227 248
209 228 246
205 225 240
204 224 234
206 226 241
208 227 244
206 225 240
210 229 249
208 226 236
207 226 237
206 225 233
207 226 236
209 227 240
205 224 227
205 225 230
202 221 217
205 224 226
205 224 228
204 224 227
203 222 221
205 224 224
203 222 223
204 223 218
201 220 212
202 221 211
196 215 205
195 214 203
192 211 217
182 201 199
177 196 203
176 195 199
174 195 189
168 187 197
169 189 199
139 160 196
118 142 190
128 150 190
129 151 194
121 144 195
105 130 181
94 120 172
103 128 184
99 125 183
83 112 177
86 114 175
70 103 168
63 98 172
69 101 170
58 93 159
59 94 165
56 91 165
57 92 164
59 94 166
58 94 165
59 94 167
59 95 170
57 92 168
56 91 162
58 93 170
58 93 167
58 94 170
59 95 171
57 93 169
57 92 169
59 95 173
58 94 169
59 95 172
58 93 171
59 95 171
58 93 169
58 93 167
58 93 171
57 93 171
57 92 169
59 95 173
57 91 166
59 94 171
59 94 171
60 96 173
60 95 173
59 95 174
59 95 174
61 98 175
60 96 173
60 96 171
61 98 177
59 95 171
60 96 174
58 94 167
60 97 175
59 96 174
61 98 174
61 97 171
61 97 174
60 96 170
61 97 172
61 97 173
61 97 172
60 97 172
61 97 171
61 97 173
61 97 169
62 98 173
61 97 168
61 97 167
62 98 172
61 97 172
61 98 174
61 98 170
61 98 171
62 98 171
61 97 170
61 97 165
61 98 172
61 98 171
62 98 166
62 98 167
62 98 169
61 97 163
60 97 166
61 97 169
60 97 167
62 98 169
63 99 166
61 97 167
61 97 161
62 99 167
61 97 162
62 99 169
62 98 168
63 99 167
61 98 164
62 98 160
61 98 169
61 97 162
62 98 169
62 99 168
62 99 169
62 98 159
61 97 159
62 98 159
62 98 163
61 98 165
61 97 162
62 98 168
63 99 170
62 99 168
61 97 161
62 98 168
61 97 157
62 98 166
62 98 164
62 99 164
62 98 160
61 97 155
62 98 166
61 97 158
62 98 159
61 97 159
62 98 163
62 98 163
62 99 167
62 98 160
61 97 157
61 98 162
62 98 164
62 98 163
62 98 164
63 99 165
63 99 165
62 98 165
61 97 158
63 99 161
62 98 161
60 96 149
62 98 159
61 97 160
61 97 156
62 98 163
62 98 164
61 97 158
61 97 152
61 97 151
62 98 164
62 98 160
62 97 155
62 97 152
62 98 159
62 97 153
62 97 154
61 97 156
60 95 142
62 98 160
62 98 163
62 98 156
61 97 155
62 98 159
61 97 152
62 97 151
61 96 153
62 98 163
61 96 153
61 97 155
60 95 147
61 95 148
61 95 151
60 95 145
59 93 132
60 94 146
59 93 134
58 92 131
61 94 142
66 90 113
86 91 54
69 76 50
90 89 14
76 75 8
89 88 0
79 78 22
76 74 14
89 87 0
89 86 10
94 93 14
84 82 21
83 81 5
74 74 15
80 81 14
89 87 22
101 99 20
100 97 18
91 92 23
100 98 18
108 106 24
100 98 19
108 105 26
97 96 16
111 109 23
105 103 23
99 98 21
97 95 24
116 113 23
118 116 29
113 109 39
113 111 35
113 112 36
131 127 38
114 110 27
120 117 28
124 121 41
122 119 39
127 124 35
128 124 30
118 115 28
128 123 34
123 119 23
129 124 32
138 134 39
133 127 45
129 126 42
119 115 39
130 126 35
140 135 42
125 121 35
130 128 24
133 129 37
139 135 43
133 128 45
134 130 37
128 124 37
148 141 51
134 130 34
136 132 31
135 130 39
142 136 45
132 129 47
139 134 39
142 136 42
144 138 45
140 135 45
142 137 48
137 132 40
140 135 39
134 131 32
140 134 44
145 140 41
146 139 52
133 128 41
134 129 45
136 131 41
136 131 41
140 135 44
139 132 39
140 135 45
140 136 32
135 130 34
140 134 44
130 126 39
134 130 42
133 128 34
136 132 36
135 129 32
135 130 39
131 126 44
135 130 41
129 123 36
127 121 28
136 130 41
132 127 44
117 112 28
126 121 37
128 127 41
138 136 37
133 134 30
136 137 34
136 137 36
138 139 25
140 145 25
148 154 34
142 146 30
143 146 22
143 148 16
150 160 19
151 161 11
154 168 11
152 163 0
155 169 11
160 176 16
163 180 0
163 179 0
161 177 0
168 184 0
166 183 0
169 188 0
169 185 0
167 184 0
165 182 0
164 181 0
171 188 0
165 184 0
164 182 0
166 186 0
164 182 0
162 181 0
164 179 0
162 178 0
166 185 0
164 180 0
168 187 0
166 184 0
194 214 193
195 215 189
198 217 199
196 216 201
200 219 206
201 220 217
200 220 209
198 218 196
199 219 207
202 221 215
202 222 221
204 224 230
205 225 233
202 222 223
204 224 234
202 222 226
206 225 234
203 223 228
206 225 236
205 225 236
205 225 236
206 226 241
207 227 242
207 227 246
206 226 245
207 227 246
208 227 249
205 226 246
208 228 250
205 225 242
207 228 252
206 226 244
209 228 250
209 228 253
207 227 253
208 228 250
207 227 252
208 228 254
207 227 253
207 228 254
207 227 253
208 228 254
207 227 253
207 227 249
209 228 253
210 229 255
208 228 252
209 228 253
209 228 252
209 228 252
208 228 252
207 227 249
208 228 249
207 227 249
209 228 252
209 228 249
208 228 252
209 228 249
207 227 246
206 226 241
208 227 246
208 227 244
208 227 244
207 226 237
208 227 241
207 226 237
210 229 245
208 226 237
208 226 236
205 225 231
206 225 233
203 222 217
206 225 227
206 224 226
204 222 218
204 223 217
201 220 219
193 212 209
188 207 210
188 207 216
183 202 214
180 200 207
176 195 207
177 196 204
166 186 203
152 172 203
127 149 197
138 159 203
132 154 199
137 158 198
110 135 189
112 136 181
104 129 183
102 126 182
100 126 182
87 115 178
72 104 172
74 106 174
67 100 168
57 92 166
59 94 167
60 95 170
59 95 173
58 92 167
59 94 168
58 93 165
57 91 167
55 90 166
57 93 169
59 94 171
56 90 163
57 92 167
58 93 166
57 91 166
57 92 171
58 93 171
58 94 171
56 91 168
58 93 173
59 95 172
57 92 170
58 94 171
57 92 169
60 96 174
58 94 171
60 96 175
60 96 174
59 95 174
59 96 174
59 95 172
59 95 170
60 96 175
60 97 175
59 95 174
59 94 171
60 96 175
60 97 175
59 95 170
60 97 174
60 96 169
61 99 178
59 95 171
58 94 169
61 97 170
60 96 166
60 97 171
61 97 173
61 98 175
61 98 176
60 96 168
61 98 171
60 96 171
61 97 170
61 98 170
60 96 166
61 97 169
60 96 173
62 99 173
61 97 170
62 98 173
62 99 173
60 97 170
62 98 170
61 98 170
62 98 167
60 96 164
60 97 167
62 98 169
62 98 171
61 97 167
61 97 162
62 98 166
61 98 170
62 98 165
62 99 171
61 97 163
63 99 170
62 98 169
62 98 168
62 98 169
62 98 168
62 98 164
62 99 171
62 98 161
62 98 170
62 98 167
62 98 166
62 98 160
62 99 171
62 99 170
61 96 150
61 97 159
62 99 167
61 98 161
62 98 165
62 98 161
62 98 164
60 97 160
62 98 164
62 98 160
62 99 169
61 97 161
61 97 156
61 97 157
61 98 159
61 97 160
63 99 165
61 97 162
62 99 167
62 98 157
61 97 159
62 98 160
61 97 156
62 98 159
61 97 152
62 98 156
62 98 161
62 98 161
62 98 161
60 96 153
62 98 160
62 98 161
62 98 163
62 97 157
62 98 159
63 99 164
62 97 159
61 97 152
62 98 163
61 97 161
61 97 156
62 99 166
62 98 158
62 98 159
62 98 161
61 97 154
61 96 151
61 96 150
61 97 152
63 98 158
62 97 152
62 98 162
62 97 155
61 97 152
61 96 145
61 97 154
62 98 161
61 96 152
59 93 134
61 96 149
61 96 153
61 96 153
61 95 149
61 95 151
60 95 148
60 95 148
60 95 147
61 95 139
59 93 139
60 93 135
59 92 138
59 93 144
58 90 135
68 89 110
84 94 72
80 82 38
95 95 21
76 74 11
96 95 25
85 82 14
87 87 11
93 90 16
82 82 18
88 87 0
95 90 22
88 87 21
103 99 14
91 88 14
95 93 21
95 94 22
95 93 23
85 83 8
101 98 8
95 93 0
100 99 19
98 97 26
91 89 22
115 111 27
107 106 31
118 114 28
111 107 23
112 109 33
114 111 27
108 106 28
115 111 23
112 110 29
117 114 36
119 115 29
117 113 36
120 118 32
117 113 25
124 121 29
123 121 43
125 122 31
131 126 37
137 132 32
123 119 38
125 121 34
128 122 45
122 118 28
122 119 30
130 127 36
125 121 32
137 133 44
131 127 42
129 126 42
133 128 41
133 128 41
144 139 47
134 130 32
138 131 38
139 135 39
127 123 29
132 126 42
137 132 37
130 124 34
141 135 44
142 137 51
139 132 44
140 134 39
137 132 36
139 134 37
134 130 34
135 130 37
141 134 48
139 133 45
137 132 32
136 131 42
140 136 39
137 132 39
140 135 44
137 132 39
131 125 39
130 126 32
136 131 44
142 137 47
141 135 44
138 133 47
138 133 49
136 132 32
133 127 42
129 124 37
136 131 41
132 125 41
134 128 39
131 126 41
131 125 37
126 121 28
122 118 37
133 129 36
134 130 41
131 130 37
138 136 34
140 141 34
127 128 28
145 148 34
138 144 16
146 151 30
141 148 16
147 155 19
152 163 28
153 164 16
151 162 19
153 164 11
155 168 11
158 173 0
159 176 11
162 177 11
161 176 0
157 171 0
167 183 0
161 176 0
167 184 0
163 180 0
165 182 0
159 176 0
163 178 0
164 180 0
163 181 0
165 185 0
169 188 0
164 181 0
163 180 0
165 184 0
167 183 0
165 185 0
166 184 0
168 189 0
167 186 0
167 186 0
198 218 194
199 219 207
197 217 204
199 220 212
198 218 206
202 221 215
198 217 204
200 220 212
201 221 217
203 223 226
201 221 217
206 225 231
208 227 240
205 224 230
203 223 231
204 224 234
207 227 245
204 224 233
206 225 234
206 226 240
204 225 237
207 226 241
206 226 245
208 228 250
205 226 245
204 226 249
206 227 252
206 227 248
206 227 252
207 227 249
205 226 250
206 227 252
208 228 254
205 226 253
208 228 255
206 227 253
206 227 255
207 228 254
207 227 254
207 228 255
208 228 255
208 228 255
208 228 255
207 228 255
207 227 255
208 228 255
207 228 255
208 228 254
206 227 253
207 228 254
209 229 255
208 228 254
207 228 253
209 229 255
207 227 252
208 227 250
208 228 254
208 228 252
209 229 252
208 228 252
209 229 250
208 228 249
209 228 248
209 229 252
209 228 248
208 227 244
210 229 252
208 227 240
208 227 238
208 227 237
207 226 236
210 228 244
208 226 231
206 224 226
208 226 231
202 221 223
201 220 212
197 216 223
183 202 214
189 208 226
192 211 231
179 199 221
183 202 224
172 192 206
173 192 211
163 183 215
146 166 207
134 155 198
142 163 201
134 156 198
134 156 205
124 147 193
102 128 183
111 136 189
114 138 190
105 129 182
89 117 180
76 107 172
73 105 174
57 91 161
69 102 173
58 93 167
57 92 166
58 93 169
58 92 160
57 92 164
59 94 169
56 91 165
55 89 158
57 92 166
58 93 170
57 92 169
59 94 171
57 93 168
57 92 166
59 94 170
57 92 169
57 92 170
58 94 170
58 93 171
58 94 169
59 95 173
57 93 171
58 93 169
59 95 175
58 93 172
57 92 166
58 94 172
55 90 166
58 94 170
61 97 177
58 93 169
59 96 175
59 95 170
60 96 170
59 94 165
59 95 172
60 96 170
60 97 172
58 94 169
60 96 171
60 96 172
60 96 172
61 97 168
61 96 168
60 97 171
59 95 169
59 95 169
61 97 172
60 96 167
61 97 172
62 98 174
61 98 171
62 99 169
62 98 171
62 98 169
60 96 170
61 97 168
60 96 163
60 96 169
61 97 167
61 98 166
62 98 170
62 99 173
61 98 168
61 97 166
62 98 173
61 97 169
61 97 167
62 98 171
62 99 171
62 98 165
62 98 167
63 99 172
61 98 168
60 96 158
62 98 169
61 97 162
62 98 166
62 98 166
61 97 164
62 98 166
62 98 169
61 97 162
61 98 165
62 99 167
63 99 168
62 98 162
62 98 162
63 99 170
63 99 166
62 98 168
62 98 160
62 98 164
62 98 164
62 99 170
61 98 170
62 98 166
61 97 157
62 99 165
61 97 161
62 98 162
62 98 163
61 97 159
62 99 165
61 98 166
62 98 162
62 98 162
62 98 164
62 98 160
62 98 163
62 98 160
62 98 160
62 98 163
62 98 160
62 98 158
61 97 160
62 99 166
62 98 162
61 97 156
63 99 161
62 97 157
60 96 152
61 97 158
62 98 158
61 97 153
62 98 161
62 98 160
62 98 161
61 97 153
62 98 159
62 99 164
62 97 157
61 97 155
62 98 161
62 98 158
61 97 152
62 97 153
62 97 157
62 98 154
62 97 154
61 96 150
62 97 152
62 97 156
62 97 155
61 96 144
62 98 159
60 95 151
61 96 153
63 98 154
62 97 156
61 96 144
61 96 155
61 96 146
61 96 150
59 94 132
62 97 153
60 95 150
60 94 140
59 92 136
60 94 141
58 91 131
70 99 134
70 89 109
81 90 77
82 84 45
92 93 16
82 81 0
90 91 14
82 79 12
84 79 8
94 90 12
91 87 3
89 87 11
94 89 14
85 84 8
93 90 11
93 91 13
98 95 21
95 92 14
106 103 20
91 88 21
99 96 8
89 89 16
98 97 14
100 99 22
103 101 22
108 105 19
109 106 14
98 95 18
103 99 35
112 110 20
96 94 26
118 114 33
126 122 30
116 114 22
114 112 24
126 122 39
111 106 33
115 112 31
115 112 30
120 118 31
128 124 29
125 121 34
128 124 28
111 108 29
125 122 36
134 129 39
124 119 36
122 118 35
131 125 46
128 124 33
133 130 30
125 121 30
128 124 35
126 121 30
127 124 31
132 128 37
131 126 40
139 134 44
130 124 41
129 126 28
134 130 33
135 130 43
132 129 29
138 134 40
131 128 37
137 132 41
135 129 36
137 131 42
138 134 32
140 134 45
135 130 32
135 130 39
134 129 41
135 131 37
135 130 36
126 121 34
137 131 41
133 129 36
131 126 37
124 120 30
133 128 30
137 131 42
122 117 30
129 124 37
141 134 45
136 131 44
131 126 37
138 132 42
137 131 39
118 115 25
136 130 32
122 117 32
120 116 19
133 128 36
133 129 41
128 126 32
124 122 30
128 125 22
128 126 28
137 135 36
139 140 25
143 144 30
138 138 36
141 142 28
143 147 28
140 144 28
151 159 16
150 159 22
141 150 11
149 161 25
152 164 16
159 170 19
149 161 11
163 179 0
157 172 11
163 179 11
163 178 0
164 180 0
162 178 0
168 186 0
164 181 0
164 180 0
163 182 0
164 181 0
163 178 0
164 179 0
166 186 0
169 187 0
167 187 0
167 186 0
159 177 0
166 182 0
166 183 0
165 182 0
163 181 0
167 185 0
165 185 0
169 188 0
200 220 207
200 220 212
200 220 214
202 222 220
201 221 214
203 222 221
203 223 228
202 222 223
204 224 230
206 225 234
206 225 236
207 226 240
203 224 233
206 226 240
209 228 249
207 227 244
205 225 240
205 226 244
207 227 250
205 225 242
206 226 246
208 228 253
207 227 249
207 227 252
205 226 253
206 227 249
207 227 250
207 228 254
206 227 254
206 227 253
206 227 254
208 228 255
206 227 255
207 227 255
206 227 255
207 228 255
207 228 255
206 227 255
207 228 255
206 227 255
205 227 255
206 227 255
206 227 255
205 227 255
205 226 255
207 228 255
207 227 255
207 228 255
206 227 255
208 228 255
206 227 255
208 228 255
208 228 255
208 228 255
208 228 255
208 228 254
207 227 253
208 228 255
209 229 255
206 227 250
210 229 254
209 228 254
208 228 252
208 228 250
211 230 253
210 229 252
209 228 246
210 229 249
208 227 242
208 227 242
207 226 240
209 228 246
210 228 244
208 226 233
208 226 233
207 226 239
205 223 237
194 213 227
197 216 237
186 205 228
188 207 228
175 194 221
176 195 214
172 191 214
169 189 214
160 180 213
153 173 209
162 181 215
127 149 195
130 152 197
130 152 201
114 138 192
117 140 190
114 138 191
117 140 188
106 131 188
104 129 188
86 115 179
76 108 174
79 109 176
62 96 168
70 102 175
60 94 166
59 95 169
57 92 170
58 93 169
56 90 163
58 93 168
58 93 168
58 94 171
58 93 169
57 91 169
58 93 171
56 90 162
59 95 175
56 91 167
58 93 171
58 94 169
57 92 169
58 94 174
59 95 173
58 93 168
58 94 175
58 93 170
59 94 168
56 91 169
57 92 169
58 94 170
60 97 175
56 91 165
58 94 170
58 93 168
59 95 172
60 96 174
61 97 173
59 95 172
59 96 174
59 95 167
60 96 173
59 95 171
59 95 164
60 97 171
60 96 170
58 94 163
61 97 171
59 96 169
61 97 172
61 98 175
61 97 175
61 97 171
60 95 170
61 97 170
60 96 169
60 96 163
60 96 167
62 98 172
61 98 169
61 97 167
61 97 169
61 97 168
59 95 166
61 97 168
61 98 170
61 98 169
61 98 170
61 97 164
62 99 172
61 98 165
61 97 164
61 98 167
61 98 163
61 97 168
61 98 165
61 97 163
61 97 163
62 98 170
62 98 164
61 97 161
61 97 166
62 98 166
62 98 167
61 97 163
61 97 159
61 97 163
61 97 166
60 97 163
63 99 171
62 99 171
63 99 165
63 99 173
61 97 161
62 98 163
61 98 162
62 98 166
62 98 168
62 98 168
63 99 168
62 99 166
62 98 165
62 98 168
62 98 162
62 98 166
62 98 162
64 100 170
61 97 160
61 97 160
61 97 160
61 96 155
63 99 164
61 97 158
62 98 160
61 97 160
61 97 159
62 98 163
62 98 159
61 97 158
61 97 158
62 98 161
62 98 159
62 98 161
62 98 161
63 99 167
61 97 160
62 98 161
63 98 160
61 97 157
62 98 159
63 99 169
62 98 158
62 98 161
61 97 152
61 97 161
61 97 156
61 97 149
62 98 159
63 99 162
62 97 158
62 98 158
61 96 154
62 98 156
62 97 158
62 97 154
61 97 151
60 95 148
62 97 154
61 96 145
61 97 147
61 96 148
62 97 159
61 96 147
62 96 146
61 97 149
61 96 149
63 99 160
61 97 152
61 96 152
61 95 149
59 94 136
62 97 154
60 95 139
60 95 149
60 94 140
58 92 132
69 88 99
77 87 72
94 94 39
93 91 8
93 91 18
90 88 14
92 91 8
83 80 14
93 89 12
76 75 14
90 91 12
94 90 18
87 86 11
86 85 18
91 89 16
102 99 11
100 96 8
100 98 12
97 95 19
92 91 14
96 95 8
93 91 24
95 92 24
113 109 16
100 98 16
109 104 24
112 109 22
108 106 30
100 98 27
107 104 18
117 114 21
114 112 39
110 106 16
109 106 19
117 113 27
120 118 14
114 112 28
114 111 34
116 113 34
119 116 30
127 122 33
119 117 32
132 127 37
115 112 31
122 118 29
124 119 37
127 123 45
124 121 29
131 126 37
126 120 43
136 131 39
125 121 26
133 128 36
134 129 42
130 126 30
138 133 37
129 125 41
138 133 42
131 126 37
132 128 38
131 126 36
129 126 35
127 123 30
135 131 32
130 126 31
132 127 37
135 129 47
131 127 36
137 132 33
129 126 30
133 130 25
136 130 39
132 126 32
132 126 34
133 128 39
126 121 30
130 126 32
135 130 37
135 131 39
128 123 37
136 131 34
130 125 36
127 123 32
141 137 36
127 123 22
131 127 30
134 128 37
130 125 37
139 134 39
118 114 28
128 126 32
124 120 32
127 122 34
122 119 19
119 117 16
139 135 42
136 135 32
133 134 32
124 124 22
139 140 28
134 138 30
139 146 28
142 148 22
136 139 11
143 149 16
143 150 25
140 149 0
153 165 0
158 173 0
153 168 0
162 176 0
156 169 11
160 175 0
168 184 0
158 172 0
170 188 0
163 179 0
163 180 0
163 179 0
165 182 0
163 178 0
161 178 0
161 175 0
165 182 0
168 186 0
166 183 0
166 184 0
166 183 0
160 179 0
168 185 0
166 186 0
165 183 0
164 181 0
167 188 0
166 185 0
166 186 0
170 190 0
199 219 209
201 221 215
199 220 207
202 222 223
201 221 220
206 225 233
204 224 230
205 225 238
208 227 244
209 228 249
205 225 240
206 226 241
208 228 248
205 225 241
206 225 240
205 226 248
209 228 253
208 228 252
207 227 252
207 227 253
206 227 249
206 227 254
208 228 254
207 227 252
206 227 253
207 228 255
206 227 255
206 227 255
208 228 255
205 226 255
204 226 255
206 227 255
206 227 255
205 227 255
206 227 255
206 227 255
205 226 255
206 227 255
205 226 255
206 227 255
204 226 255
205 227 255
205 226 255
205 227 255
205 227 255
206 227 255
205 227 255
204 226 255
205 227 255
206 227 255
205 227 255
206 227 255
206 227 255
206 227 255
206 227 255
205 227 255
207 227 255
208 228 255
208 228 255
207 228 255
210 229 255
208 228 255
208 228 253
210 229 255
210 229 255
207 227 252
208 228 250
209 228 253
209 228 253
209 228 253
209 228 248
209 228 246
209 228 249
208 227 240
208 227 242
208 227 242
200 219 227
196 215 240
193 211 233
200 218 245
196 215 244
181 201 224
185 203 232
171 191 217
175 195 226
176 195 227
154 174 213
159 179 216
141 162 203
148 169 213
144 165 207
113 138 190
125 148 196
113 138 193
114 139 192
107 132 188
109 133 185
97 122 182
96 122 180
99 124 183
72 104 171
62 97 169
69 101 171
58 94 167
56 91 166
59 95 169
57 92 164
57 92 166
59 95 169
58 93 166
54 88 163
58 93 169
59 95 172
56 91 169
57 92 169
58 94 168
57 92 169
56 91 168
57 92 168
56 91 168
57 93 168
56 90 168
57 92 170
58 93 167
57 93 171
57 93 167
56 92 165
57 93 172
58 94 169
61 97 172
60 96 173
59 96 174
60 96 172
60 96 171
58 94 171
59 94 169
58 93 167
60 96 174
59 95 171
61 97 171
59 94 168
61 97 173
60 96 171
60 96 174
58 93 165
59 95 169
62 98 173
61 97 170
60 96 169
60 96 164
60 96 163
60 96 170
61 97 174
60 96 167
60 95 164
60 96 171
61 97 167
61 97 170
61 97 169
61 96 165
62 98 166
62 98 170
62 98 167
61 97 164
61 97 168
61 97 159
61 97 173
61 97 165
61 97 165
62 98 166
61 97 164
61 97 165
61 98 169
62 98 169
62 98 168
61 97 167
63 99 172
62 98 162
62 98 169
62 98 166
61 97 165
62 97 162
62 98 161
62 98 162
61 97 157
62 98 164
61 97 159
62 98 164
62 99 173
62 98 162
61 97 164
62 98 164
62 98 163
62 98 163
62 98 162
61 97 154
61 97 153
63 99 167
62 98 165
61 97 160
63 99 163
62 98 156
62 98 164
62 98 165
60 97 157
62 98 167
61 97 159
61 97 157
62 98 164
62 98 163
62 98 160
62 99 167
62 97 157
62 98 156
61 96 154
61 98 161
61 97 155
62 98 165
62 98 163
61 97 152
62 98 162
62 98 163
62 98 166
61 96 150
61 97 153
62 98 164
62 97 152
61 96 153
61 96 144
63 99 162
61 97 159
62 98 156
61 97 153
61 97 155
62 98 159
61 96 151
62 97 160
61 97 148
61 97 151
61 96 154
61 97 148
61 97 154
61 96 144
62 98 159
61 96 154
60 95 145
61 97 150
61 96 151
62 98 160
63 99 162
61 95 145
60 94 138
61 97 152
61 96 152
61 96 145
61 95 144
60 94 142
58 91 131
59 93 137
61 95 143
59 92 130
58 92 137
59 91 124
72 90 96
86 94 71
96 95 29
90 89 16
92 91 11
91 90 18
95 93 18
98 97 8
82 82 9
93 90 14
76 73 3
94 92 18
83 80 9
87 86 8
99 96 12
89 87 11
85 83 11
108 104 14
79 80 22
100 99 18
90 88 23
100 99 16
104 102 24
100 98 11
107 103 24
87 86 3
105 103 18
105 104 16
109 106 23
110 108 32
107 105 29
102 100 24
104 102 19
113 111 21
108 105 21
124 119 38
119 117 33
134 130 36
110 106 25
122 116 42
116 113 22
127 124 28
118 114 32
113 109 25
119 117 29
125 120 33
116 113 25
119 115 33
122 118 22
126 122 31
121 118 31
128 124 37
126 124 35
123 119 34
127 124 22
125 122 36
137 133 32
121 117 28
124 120 37
139 133 41
136 130 32
140 134 35
130 126 41
122 118 30
140 134 36
135 129 41
137 131 37
134 129 30
132 127 42
135 130 35
127 123 28
134 130 36
134 129 32
134 130 36
138 133 44
135 129 42
133 127 37
128 123 37
134 128 37
134 129 28
136 131 34
121 116 34
125 119 36
129 124 34
140 134 32
122 118 32
128 124 32
130 124 39
129 124 30
129 124 34
132 129 25
126 120 30
133 129 36
142 139 36
131 130 19
137 135 32
129 127 32
134 133 30
139 139 22
138 141 25
138 141 19
135 138 25
146 152 28
136 142 11
142 150 11
149 158 11
152 163 19
147 155 19
154 167 16
153 166 0
159 175 0
159 175 0
159 173 11
164 180 0
166 184 0
168 183 0
162 178 0
165 180 0
164 180 0
161 176 0
165 181 0
166 185 0
169 185 0
168 186 0
162 180 0
167 184 0
166 183 0
158 176 0
169 188 0
167 187 0
167 184 0
167 185 0
165 182 0
162 179 0
167 185 0
167 187 0
166 183 0
200 220 212
203 222 224
205 224 228
205 224 230
204 223 227
204 224 234
205 225 236
204 224 234
206 226 246
206 226 242
207 227 246
204 225 245
208 228 252
206 226 249
206 227 248
207 227 250
207 228 255
208 228 255
207 228 255
205 226 254
207 228 255
206 227 255
205 227 255
204 226 255
206 227 255
205 227 255
206 227 255
204 226 255
204 226 255
203 225 255
205 226 255
205 226 255
204 226 255
204 226 255
204 226 255
205 227 255
204 226 255
204 226 255
204 226 255
204 226 255
203 225 255
203 225 255
204 226 255
204 226 255
204 226 255
203 226 255
204 226 255
205 227 255
204 226 255
204 226 255
205 227 255
205 227 255
205 227 255
205 227 255
206 227 255
207 228 255
206 227 255
206 227 255
206 227 255
207 228 255
208 228 255
206 227 255
208 228 255
207 228 255
208 228 255
207 228 255
210 229 255
208 228 255
210 229 255
211 229 253
209 228 249
210 229 253
211 229 253
211 229 250
210 228 249
210 228 242
206 225 242
204 222 244
194 213 241
193 212 242
197 215 242
189 209 241
179 199 231
177 197 228
182 202 229
164 184 218
167 187 226
166 186 220
150 171 214
156 176 217
136 158 206
119 143 193
132 155 204
128 150 198
125 148 199
122 145 194
108 132 191
96 122 179
94 120 173
93 120 182
93 120 183
72 103 174
64 99 170
61 94 167
66 100 176
59 96 171
59 95 168
57 92 166
57 92 162
58 93 168
57 93 168
57 92 170
56 90 165
56 91 166
57 92 171
54 89 166
58 94 171
56 91 166
57 93 167
57 92 171
60 96 173
57 92 172
55 90 164
56 91 167
57 92 169
57 92 170
58 94 171
58 94 170
58 94 170
59 95 171
59 95 173
58 94 171
58 94 167
60 96 175
58 94 168
58 93 167
59 94 171
57 92 167
60 96 171
57 92 162
59 95 166
60 96 172
58 94 165
60 96 165
59 95 165
60 96 170
62 99 170
60 97 168
59 95 167
61 97 168
61 97 169
60 96 169
60 96 172
60 97 173
60 96 167
62 98 170
61 97 167
61 96 167
60 97 166
62 98 168
60 96 165
62 98 173
61 97 165
60 96 160
62 98 165
62 98 166
61 98 168
62 98 170
61 97 161
60 96 156
62 99 168
61 97 165
61 97 164
60 96 158
61 97 165
62 99 168
62 98 169
62 99 165
60 97 163
61 96 157
62 98 164
62 98 163
61 97 161
62 98 167
61 97 161
62 99 170
62 98 166
62 98 167
62 98 167
62 98 166
61 97 154
62 98 169
61 97 159
62 98 163
62 98 164
62 98 170
61 97 160
62 98 163
62 98 156
62 98 163
62 98 157
62 98 163
62 98 161
63 99 163
62 98 162
62 98 161
62 97 155
61 97 159
61 97 159
61 97 164
61 97 156
62 98 159
62 98 159
63 98 160
61 97 154
61 98 160
61 97 156
62 98 162
63 99 167
62 98 158
62 99 166
61 97 161
62 98 160
62 98 155
62 98 161
61 97 154
62 98 158
62 98 162
62 98 162
61 97 156
62 98 162
62 98 160
60 95 152
62 97 153
62 98 160
62 97 149
62 97 160
61 97 151
61 97 150
61 97 152
61 97 158
62 97 151
61 97 151
61 96 148
61 96 149
61 96 154
60 96 150
61 96 151
62 97 153
61 96 153
60 95 142
60 96 146
60 95 142
61 95 145
59 92 139
62 97 150
59 93 135
60 94 136
59 94 135
59 93 138
59 92 131
59 91 136
59 88 121
74 89 98
81 87 62
88 90 37
89 90 16
100 101 18
87 87 11
92 90 20
100 97 3
95 92 8
88 85 0
90 88 0
96 93 0
79 78 9
90 88 12
90 87 14
88 86 14
96 93 8
86 85 13
94 92 18
97 94 21
97 94 11
99 96 16
93 91 16
102 100 9
105 102 11
94 92 14
112 107 8
115 111 24
107 104 26
100 99 25
115 113 29
115 112 25
111 107 22
112 109 18
115 111 35
117 114 30
115 112 16
115 112 32
116 114 26
115 111 29
120 117 26
121 117 16
120 116 19
126 124 34
125 121 32
131 126 37
126 121 22
121 117 34
125 121 29
128 124 33
134 130 40
118 114 32
126 122 30
128 124 35
128 126 28
114 111 24
127 123 29
130 126 30
130 125 25
135 130 37
125 121 32
141 135 36
129 125 37
131 126 37
129 125 40
135 129 37
131 125 34
135 130 28
132 128 28
135 129 34
130 126 22
139 135 39
128 123 28
136 132 22
135 130 32
133 129 36
132 126 34
130 125 36
130 126 32
130 125 36
124 118 32
127 121 37
129 123 37
138 133 36
131 127 30
132 125 32
131 125 32
127 121 30
129 125 28
125 120 30
130 125 37
128 124 34
125 121 25
134 131 39
120 119 22
132 134 30
141 141 36
133 133 28
136 138 16
140 145 19
131 135 11
154 161 19
143 150 16
145 151 11
147 157 19
150 161 16
148 159 0
153 165 11
150 163 11
151 161 0
155 168 0
162 178 0
164 180 0
162 180 0
158 171 0
160 175 0
161 176 0
163 179 0
158 174 0
166 183 0
168 184 0
166 182 0
162 178 0
162 178 0
164 180 0
165 183 0
164 180 0
168 185 0
168 185 0
166 183 0
168 186 0
166 186 0
170 188 0
165 181 0
168 189 0
161 177 0
167 187 0
204 223 228
200 220 215
204 223 230
206 225 233
202 223 226
209 228 250
206 226 244
204 224 236
207 227 245
208 228 248
207 227 250
206 227 253
207 227 252
206 226 248
206 227 253
205 226 254
207 228 255
206 227 255
207 228 255
206 227 255
207 228 255
206 227 255
204 226 255
203 226 255
203 226 255
204 226 255
205 226 255
203 226 255
203 225 255
204 226 255
203 225 255
203 226 255
204 226 255
204 226 255
203 225 255
203 225 255
202 225 255
203 225 255
203 226 255
204 226 255
203 226 255
202 225 255
203 225 255
202 225 255
202 225 255
202 225 255
203 225 255
203 225 255
204 226 255
201 224 255
203 226 255
202 225 255
203 226 255
204 226 255
204 226 255
205 226 255
203 225 255
204 226 255
205 226 255
206 227 255
206 227 255
205 227 255
206 227 255
206 227 255
207 228 255
208 228 255
208 228 255
208 228 255
209 229 255
208 228 255
211 230 255
209 229 255
210 229 255
210 229 253
209 229 253
209 228 250
207 225 242
208 227 252
204 222 246
199 218 244
193 212 242
193 211 239
182 202 236
179 198 233
189 208 238
175 195 227
160 181 219
159 180 219
152 173 211
155 176 218
154 174 211
145 166 210
149 170 211
122 146 197
126 149 201
119 143 196
113 138 190
114 138 192
105 130 189
105 129 187
94 121 183
75 105 173
68 100 168
67 99 170
67 98 169
57 92 167
56 91 165
58 93 167
58 93 172
54 88 160
56 91 163
58 93 171
56 91 164
55 89 164
54 87 162
57 92 169
55 90 165
55 89 165
57 92 169
57 92 170
55 89 163
57 92 167
55 89 165
56 91 168
54 88 165
57 93 168
58 93 168
57 91 169
59 94 172
57 92 168
58 94 169
55 89 164
59 95 166
58 94 169
59 94 171
58 94 169
58 93 171
57 91 165
59 95 172
57 93 167
61 97 174
60 96 162
60 96 169
59 94 168
59 95 167
59 95 170
60 95 164
61 97 168
60 96 170
60 96 172
62 98 171
59 94 167
60 96 171
61 97 169
61 98 170
61 98 171
61 97 169
62 98 169
60 95 161
60 96 164
61 97 168
61 98 171
62 98 170
61 98 171
60 95 164
62 98 172
61 98 164
61 98 164
61 96 157
61 97 165
62 98 166
62 98 165
61 97 163
61 97 164
61 97 162
61 97 163
60 96 162
62 98 162
62 98 164
62 98 161
61 97 163
62 98 165
61 97 165
61 97 161
61 97 164
61 98 163
63 99 166
62 98 161
62 99 165
62 98 161
61 97 161
62 98 165
61 97 159
62 99 169
62 98 163
62 98 164
62 98 166
62 97 155
62 98 166
61 97 157
62 98 166
62 99 168
61 97 160
62 98 159
62 98 157
61 97 154
61 97 160
62 98 154
63 99 167
61 97 155
62 97 153
62 97 158
61 97 154
62 98 160
61 96 150
62 99 164
61 97 155
62 97 153
61 97 157
62 98 156
62 98 161
62 99 164
62 97 159
62 98 164
61 97 155
61 97 151
61 97 148
62 97 154
62 98 160
62 97 155
62 97 155
62 98 158
62 98 156
60 95 148
62 97 153
62 97 158
62 97 153
60 95 142
61 96 151
61 96 151
61 97 152
62 98 162
60 95 155
62 97 153
61 95 146
60 95 147
61 97 155
61 97 152
60 95 142
61 97 152
61 95 145
61 96 159
60 95 152
61 96 147
60 95 145
60 94 139
60 95 138
60 94 145
58 92 131
61 95 139
61 94 145
59 91 135
70 91 113
82 94 96
77 84 64
98 101 38
101 100 14
92 93 0
96 96 14
87 84 8
87 86 12
86 83 9
92 89 14
93 91 11
95 92 8
89 86 11
95 92 8
93 91 0
87 84 11
91 90 8
94 90 14
97 94 8
103 101 14
102 100 0
92 91 18
96 95 11
96 93 20
105 103 11
101 100 21
105 102 25
111 109 20
98 94 19
108 106 11
111 109 18
100 98 14
103 101 25
119 117 18
101 99 16
115 111 30
105 102 16
109 107 24
115 111 25
115 112 29
118 114 31
117 114 31
114 111 20
118 114 28
122 119 28
115 112 26
122 118 30
120 118 18
125 119 35
116 113 21
124 120 28
132 127 33
120 117 34
123 119 30
130 125 34
121 117 24
128 123 34
133 129 37
124 119 30
124 120 16
125 120 22
127 123 32
129 123 38
131 127 32
125 119 41
132 128 34
133 128 34
123 118 28
128 124 30
128 122 25
134 129 25
124 120 30
128 125 25
126 123 30
125 119 22
123 118 28
134 129 30
125 119 32
128 125 34
129 124 32
134 129 44
124 120 25
126 120 32
130 125 19
129 123 37
118 114 30
133 128 25
119 115 28
125 120 25
131 126 30
130 127 37
126 123 32
120 119 22
124 122 19
130 127 28
131 135 22
132 133 25
138 142 16
138 141 22
140 142 19
150 156 22
149 159 19
140 150 0
142 150 11
151 159 0
150 159 11
153 163 16
160 174 0
154 165 0
167 181 0
162 177 0
164 177 0
169 186 0
164 180 0
166 183 0
165 181 0
161 178 0
158 171 0
159 172 0
165 181 0
161 178 0
167 183 0
162 180 0
161 179 0
164 183 0
168 186 0
162 180 0
168 185 0
164 180 0
166 183 0
169 186 0
166 184 0
169 188 0
164 183 0
167 185 0
170 188 0
168 186 0
204 223 233
204 224 238
203 223 234
206 226 246
208 227 246
205 225 238
205 225 244
208 228 249
207 227 250
205 226 249
205 226 248
208 228 253
205 226 252
206 227 254
206 227 255
206 227 255
206 227 255
205 226 255
205 226 255
205 227 255
204 226 255
204 226 255
203 225 255
203 225 255
204 226 255
203 225 255
203 225 255
202 225 255
202 225 255
203 225 255
202 225 255
201 224 255
201 224 255
201 225 255
202 225 255
200 224 255
201 224 255
202 225 255
203 225 255
201 225 255
202 225 255
201 224 255
201 225 255
202 225 255
203 225 255
202 225 255
201 224 255
203 226 255
200 224 255
203 225 255
201 225 255
202 225 255
204 226 255
203 226 255
202 225 255
203 226 255
203 226 255
203 225 255
204 226 255
203 226 255
205 226 255
205 227 255
206 227 255
205 226 255
207 228 255
207 228 255
206 227 255
206 227 255
209 229 255
208 228 255
207 227 255
210 229 255
209 229 255
209 229 255
210 229 254
209 228 252
209 229 252
209 228 251
205 224 250
202 221 248
201 220 249
191 211 243
195 214 244
190 209 240
175 195 233
180 199 230
176 196 232
178 198 234
173 193 228
162 182 223
154 175 217
151 172 214
137 159 206
145 166 209
125 148 197
133 155 205
117 140 194
122 146 199
106 131 188
84 113 178
92 120 183
85 113 172
85 114 180
83 112 179
68 100 173
59 94 171
59 92 162
57 92 162
57 92 171
56 90 164
56 91 165
57 92 169
53 86 158
57 93 168
57 92 170
55 89 167
57 91 166
55 89 162
56 90 168
57 92 170
56 90 167
54 88 166
56 90 168
55 89 166
57 92 171
57 92 168
58 93 168
56 91 167
58 93 168
57 92 169
58 93 168
58 94 170
58 94 169
59 95 173
59 95 171
58 94 171
58 94 168
60 96 173
59 95 170
60 96 172
60 96 172
59 95 170
60 95 169
58 94 168
60 96 169
58 94 166
58 94 168
60 96 171
58 93 165
61 97 170
61 98 171
59 94 167
60 96 166
61 97 166
60 97 171
60 96 170
61 98 167
60 96 168
60 96 166
61 98 171
61 97 162
60 96 160
61 98 169
61 97 167
61 97 173
61 98 167
60 96 157
62 98 165
61 97 165
61 98 165
62 99 166
62 98 164
61 97 160
62 98 160
61 96 157
60 96 159
60 96 160
62 99 170
62 98 168
62 98 164
62 98 163
60 97 157
61 97 161
62 98 163
60 96 162
61 98 163
61 97 159
61 98 164
61 97 160
61 97 160
62 98 156
62 98 157
61 97 159
61 96 155
62 98 160
61 97 159
62 98 171
62 98 159
62 98 159
61 97 155
62 98 160
62 98 159
61 97 157
61 97 156
62 98 166
62 99 167
62 98 161
62 98 163
62 98 157
63 99 165
61 97 158
62 98 159
62 98 159
62 97 155
61 97 152
61 97 157
62 98 161
62 97 158
62 98 164
62 98 158
62 98 157
61 97 154
62 98 161
61 98 164
61 97 155
62 98 157
60 96 158
60 96 145
61 97 153
61 96 150
62 98 163
62 97 159
62 98 156
62 98 158
61 97 158
62 98 154
62 97 153
61 97 155
61 97 147
62 98 160
63 98 157
62 97 156
61 96 149
62 97 149
62 98 162
60 96 144
61 96 146
61 97 155
61 96 154
61 96 151
59 93 128
61 96 150
61 97 151
61 96 143
60 94 144
61 96 150
59 93 136
59 94 142
59 93 132
58 90 133
59 93 135
58 90 130
69 93 110
76 91 92
96 100 54
100 101 26
98 98 8
102 102 0
87 85 11
89 91 8
90 87 16
90 90 12
91 89 0
92 91 0
79 78 9
96 93 14
90 89 12
90 88 11
92 90 8
93 90 3
93 90 14
107 103 3
103 100 16
91 89 8
93 90 3
99 96 12
107 104 18
112 109 16
90 89 18
102 99 8
94 92 22
99 96 11
106 104 11
118 114 16
114 111 18
119 114 28
107 104 18
114 111 31
104 100 28
110 106 18
118 115 24
107 104 22
115 114 18
109 108 16
121 117 28
113 109 25
128 124 36
121 116 22
122 118 29
120 117 25
131 127 35
118 115 22
126 121 34
125 120 30
117 112 19
121 117 22
129 125 25
122 119 22
116 113 19
126 122 36
118 114 25
124 120 21
124 121 24
132 127 30
129 124 25
136 131 37
124 119 28
132 127 34
120 115 32
137 133 22
120 116 28
133 127 37
126 121 42
130 124 37
119 115 28
128 122 30
128 123 25
129 123 30
126 121 22
128 125 28
132 126 36
120 116 22
124 118 34
127 122 22
130 126 25
133 127 34
136 129 42
121 117 25
120 116 19
130 125 32
135 131 39
128 124 32
129 125 32
133 130 25
119 118 19
137 133 32
124 127 19
134 135 25
136 139 11
141 145 19
131 136 22
138 142 25
137 140 28
144 147 25
143 153 11
143 152 0
149 158 11
156 167 11
155 165 0
163 178 0
157 170 0
157 168 0
158 171 0
161 174 0
164 179 0
159 173 0
161 175 0
156 170 0
162 176 0
167 184 0
163 179 0
164 180 0
163 179 0
162 178 0
167 184 0
162 177 0
168 186 0
163 179 0
168 185 0
164 181 0
164 180 0
164 181 0
164 183 0
162 178 0
164 178 0
165 181 0
167 186 0
163 179 0
163 182 0
167 185 0
204 224 230
209 228 246
205 225 237
209 228 249
208 228 249
207 227 252
208 227 248
206 227 249
206 227 254
205 226 253
207 227 255
206 227 255
206 227 255
205 226 255
205 226 255
204 226 255
204 226 255
203 225 255
204 226 255
203 225 255
203 226 255
204 226 255
203 226 255
201 224 255
203 226 255
202 225 255
200 224 255
202 225 255
200 224 255
202 225 255
201 224 255
199 223 255
201 224 255
201 224 255
200 224 255
201 225 255
201 224 255
200 224 255
200 224 255
200 224 255
201 224 255
200 224 255
199 223 255
200 224 255
201 224 255
199 223 255
201 225 255
199 224 255
202 225 255
199 224 255
200 224 255
201 224 255
201 224 255
202 225 255
202 225 255
203 225 255
201 225 255
203 225 255
203 225 255
205 226 255
202 225 255
204 226 255
205 227 255
204 226 255
205 227 255
205 227 255
205 226 255
204 226 255
206 227 255
205 227 255
208 228 255
207 227 255
209 229 255
209 229 255
209 229 255
209 229 255
209 229 255
211 230 255
206 225 252
207 226 254
199 218 247
200 219 248
197 216 246
191 210 240
196 215 245
175 195 232
178 198 233
171 192 229
165 185 224
164 185 224
160 181 223
148 170 214
157 178 219
130 153 203
124 147 197
131 154 203
130 153 202
119 143 196
96 123 184
114 138 194
95 122 185
99 126 187
97 124 185
85 113 179
78 108 175
84 111 175
67 99 172
67 101 175
58 93 170
56 91 166
56 91 165
57 91 163
59 94 172
54 88 165
55 90 165
56 91 166
56 90 165
52 85 160
53 87 163
58 94 169
57 92 170
56 90 165
57 92 165
55 89 166
56 91 168
56 91 167
58 94 169
56 90 167
57 92 168
57 92 168
57 91 168
57 93 171
59 94 169
58 93 169
58 93 166
57 92 165
59 95 171
59 95 171
60 96 173
59 95 170
59 94 168
61 96 168
59 95 170
60 96 170
60 96 170
60 96 169
60 96 170
59 95 166
59 94 166
59 95 162
60 97 172
60 96 167
60 95 169
61 98 168
62 98 167
61 97 165
60 96 166
60 95 161
61 98 169
60 96 162
60 96 167
62 99 171
60 96 161
60 96 165
61 97 160
61 98 164
60 96 155
61 97 163
61 97 165
61 97 159
61 97 164
61 98 165
60 96 160
61 97 163
62 98 165
63 99 171
62 98 162
61 97 166
61 98 168
61 98 161
62 98 167
61 97 158
62 98 164
62 98 168
63 98 162
61 97 164
62 98 163
61 96 156
62 99 167
62 98 163
62 98 161
61 97 160
62 98 161
62 99 164
62 98 164
61 97 158
62 98 160
62 98 163
62 98 164
61 97 159
62 98 163
61 97 156
62 98 165
62 98 167
61 96 161
62 98 162
63 99 165
62 98 159
61 96 149
62 98 159
62 98 162
61 96 153
62 97 153
62 98 158
61 97 157
62 98 158
63 99 170
61 97 155
62 98 162
61 97 157
62 98 157
62 98 161
61 96 153
62 98 161
61 97 152
62 98 157
62 98 159
62 98 163
62 98 157
61 96 152
61 97 152
62 98 159
62 98 158
62 97 158
62 97 159
61 97 152
62 98 152
62 97 157
62 97 151
60 96 148
61 97 152
61 96 149
61 97 153
60 96 145
61 96 150
61 97 154
61 96 147
62 97 154
60 95 141
61 95 149
61 96 142
61 96 148
61 96 148
61 96 148
60 94 139
61 96 149
60 96 151
60 95 141
61 95 148
59 92 131
60 94 141
58 91 134
67 90 108
79 91 79
91 98 63
99 99 18
104 103 0
107 108 0
92 91 8
98 95 8
97 95 8
87 86 0
86 84 0
96 94 0
92 90 8
91 87 1
96 95 1
88 85 8
88 82 12
97 93 12
90 86 0
95 92 11
81 78 8
104 100 14
90 86 0
96 93 11
94 91 18
99 96 16
97 93 18
98 96 14
109 106 22
103 100 11
110 104 22
105 101 14
113 109 16
100 98 14
110 105 11
113 111 8
104 101 21
114 111 19
121 117 28
112 109 19
115 111 21
113 109 26
110 107 22
118 115 11
115 113 31
117 112 20
116 113 26
116 113 11
125 121 24
109 106 22
112 108 21
122 119 22
126 122 32
124 119 34
118 115 18
125 120 32
124 120 11
124 119 30
129 125 19
125 120 19
127 122 28
123 120 11
128 124 19
127 124 25
133 129 28
127 121 25
130 125 37
127 122 28
126 123 30
126 122 28
122 118 28
127 124 25
122 119 22
123 119 22
130 124 36
127 121 30
126 122 28
125 121 28
125 120 34
130 124 32
122 117 22
124 119 22
135 129 32
119 114 28
122 117 30
124 120 22
122 119 25
122 118 16
113 110 19
132 129 28
129 126 32
124 123 25
134 132 25
142 143 28
130 128 30
133 135 22
137 140 19
132 133 16
138 142 0
144 148 22
143 151 0
154 164 19
151 160 22
149 155 16
152 164 11
160 170 11
151 162 0
154 167 11
160 173 11
149 159 0
161 173 0
162 178 0
163 178 0
162 177 0
161 173 0
165 181 0
165 181 0
165 178 0
167 185 0
164 180 0
162 178 0
160 175 0
162 179 0
166 183 0
168 185 0
166 184 0
164 182 0
168 186 0
164 181 0
163 180 0
165 182 0
164 181 0
165 181 0
170 188 0
162 179 0
166 185 0
164 183 0
163 181 0
205 226 245
207 227 245
205 226 246
205 226 246
206 227 249
207 228 255
206 227 250
207 228 255
207 227 255
205 227 255
207 227 255
204 226 255
205 227 255
205 227 255
204 226 255
203 226 255
202 225 255
203 226 255
203 226 255
202 225 255
203 225 255
201 224 255
202 225 255
201 225 255
199 223 255
201 224 255
200 224 255
200 224 255
199 223 255
200 224 255
200 224 255
200 224 255
200 224 255
200 224 255
199 223 255
199 223 255
199 223 255
200 224 255
201 224 255
199 224 255
200 224 255
199 223 255
199 223 255
198 223 255
199 223 255
200 224 255
200 224 255
201 224 255
200 224 255
200 224 255
200 224 255
201 224 255
201 224 255
202 225 255
201 225 255
202 225 255
200 224 255
201 224 255
202 225 255
203 225 255
203 225 255
204 226 255
202 225 255
204 226 255
204 226 255
204 226 255
205 226 255
204 226 255
204 226 255
205 227 255
205 227 255
207 228 255
208 228 255
206 227 255
207 228 255
209 229 255
209 229 255
209 229 255
208 228 254
211 230 255
205 224 252
203 223 251
196 215 245
201 220 248
181 201 235
185 205 238
173 193 230
170 191 228
179 199 234
167 187 227
163 183 222
147 169 214
148 169 215
136 159 207
139 162 211
133 156 208
127 150 202
119 144 201
119 143 197
116 139 194
114 138 191
115 139 192
87 115 179
90 117 181
87 115 181
67 101 177
65 97 172
60 93 167
68 100 173
61 95 170
57 92 167
55 90 165
57 92 171
54 87 158
55 89 165
54 87 160
54 88 163
56 90 168
54 89 162
57 93 173
56 90 165
53 86 159
56 91 170
55 89 166
56 91 164
55 89 166
54 87 162
59 95 170
57 91 167
56 90 162
57 92 171
55 90 163
59 95 171
57 92 167
58 94 163
59 94 168
58 93 167
58 94 171
60 96 171
60 96 171
56 91 163
59 95 167
59 95 170
60 95 165
58 94 165
59 95 167
60 96 168
60 95 166
59 94 165
62 98 170
60 96 167
61 96 169
59 95 164
59 95 166
60 96 166
60 96 166
61 97 167
60 96 170
61 97 168
60 96 165
61 97 168
62 98 165
61 97 164
62 98 172
61 97 171
62 98 162
61 98 169
61 97 167
61 97 163
60 96 161
61 97 160
62 98 165
61 97 164
62 98 166
62 98 165
61 97 160
62 99 171
61 97 161
62 98 169
62 98 166
62 98 160
62 98 165
62 98 167
61 97 162
62 98 164
61 97 163
62 98 162
61 98 164
62 98 159
62 98 161
61 97 162
62 98 161
61 98 160
62 98 166
61 96 154
62 97 157
62 98 164
62 98 158
63 99 169
61 97 157
61 97 162
61 98 163
62 98 159
62 97 159
61 97 155
62 98 160
62 98 163
62 99 163
63 99 163
61 97 158
62 98 163
62 97 162
62 98 160
62 97 159
62 98 158
61 97 159
62 98 158
62 98 160
61 97 154
61 97 153
61 96 150
62 97 153
62 97 155
61 97 155
62 97 153
62 98 158
61 97 155
63 99 162
62 98 155
62 98 157
62 97 153
61 96 151
62 97 153
61 97 153
61 97 158
62 98 158
60 95 147
61 97 154
61 97 151
61 96 152
60 96 148
62 98 160
61 95 147
61 96 148
61 96 152
61 96 145
62 97 151
61 96 147
62 97 152
61 96 145
60 96 148
60 95 143
60 94 145
60 95 148
60 95 141
58 93 133
59 93 138
60 94 129
59 92 134
59 93 130
61 95 144
59 91 131
76 94 107
83 93 59
98 105 41
106 108 16
104 106 12
102 102 0
95 94 12
95 97 11
104 101 16
100 99 16
95 93 0
110 108 14
85 84 0
99 97 18
89 87 0
95 92 8
94 91 0
89 86 0
94 93 11
98 94 8
100 97 8
94 91 8
94 92 8
96 92 0
102 99 0
96 94 9
106 102 8
107 102 16
108 104 14
100 98 0
109 106 14
104 101 14
106 103 8
105 102 0
108 105 16
120 116 30
112 107 21
116 112 11
109 107 8
110 106 22
101 98 16
114 110 26
117 114 18
113 109 26
121 117 29
111 107 19
111 107 21
119 115 19
109 106 19
122 118 28
111 108 25
123 119 18
120 117 11
119 115 22
123 118 22
119 116 11
123 118 22
122 118 30
118 115 16
121 117 16
127 122 28
126 121 19
119 115 25
126 121 22
130 125 22
119 115 28
122 118 28
124 119 30
128 125 25
118 113 19
121 116 25
123 119 19
128 124 32
132 126 25
117 113 16
127 122 25
127 122 22
116 111 22
126 121 22
125 121 25
119 115 16
121 116 22
131 127 28
131 127 19
129 124 37
126 122 22
114 112 11
131 128 37
131 131 28
131 129 30
130 130 19
137 137 19
124 123 28
129 128 22
134 137 25
138 146 11
133 138 19
143 150 16
137 142 25
139 143 19
152 160 19
145 153 0
147 156 11
150 162 16
155 166 0
148 160 0
157 169 11
162 177 0
162 175 0
161 173 0
163 179 0
166 179 0
162 175 0
160 176 0
162 177 0
162 177 0
162 176 0
167 182 0
162 176 0
162 177 0
160 176 0
162 179 0
164 181 0
159 174 0
165 182 0
165 182 0
164 178 0
166 184 0
164 183 0
163 181 0
167 183 0
165 183 0
168 186 0
163 180 0
169 187 0
163 181 0
166 186 0
168 187 0
208 227 246
205 226 249
208 228 253
206 227 252
206 227 253
207 228 255
206 227 255
206 227 255
205 227 255
205 227 255
205 226 255
205 227 255
203 226 255
202 225 255
203 225 255
203 225 255
203 225 255
201 224 255
201 224 255
200 224 255
201 224 255
200 224 255
201 224 255
200 224 255
200 224 255
200 224 255
199 223 255
200 224 255
199 223 255
199 223 255
200 224 255
199 223 255
199 223 255
199 223 255
199 223 255
198 223 255
198 223 255
198 223 255
198 223 255
198 223 255
199 223 255
198 223 255
199 223 255
198 223 255
198 223 255
199 223 255
199 223 255
197 223 255
199 223 255
198 223 255
198 223 255
200 224 255
200 224 255
200 224 255
199 224 255
200 224 255
200 224 255
200 224 255
200 224 255
200 224 255
200 224 255
201 224 255
202 225 255
202 225 255
203 225 255
203 225 255
204 226 255
205 226 255
203 226 255
204 226 255
203 226 255
207 227 255
205 227 255
206 227 255
206 227 255
208 228 255
208 228 255
208 228 255
209 228 255
207 227 254
204 224 252
207 227 254
203 222 251
205 224 252
190 210 242
186 206 240
190 210 242
177 197 233
177 198 233
176 197 233
153 175 220
176 196 231
155 177 219
152 173 218
147 169 214
142 165 211
147 168 213
137 158 207
128 150 201
140 161 208
116 140 198
109 134 188
104 129 189
100 125 184
78 108 179
85 114 181
75 106 179
69 101 172
61 94 171
59 94 172
57 92 168
58 94 174
55 89 162
56 91 166
56 91 169
57 92 166
56 91 167
55 89 167
56 90 167
54 89 166
54 88 162
54 88 165
56 89 163
58 93 171
55 89 163
56 91 169
53 86 160
56 91 167
56 91 167
58 93 171
57 91 167
57 93 165
55 90 161
59 95 171
59 95 168
58 93 167
58 93 169
57 93 170
59 95 171
57 91 164
59 94 166
59 95 172
58 94 167
59 95 171
59 95 168
60 96 172
60 97 168
59 94 160
59 95 169
60 96 168
59 95 161
62 98 167
60 95 167
61 97 169
58 93 159
59 94 155
61 97 169
61 97 168
60 97 164
61 97 168
61 97 163
60 96 161
61 97 164
61 97 169
61 97 162
61 97 164
61 97 162
60 97 163
60 96 163
60 96 162
61 98 164
61 97 164
61 97 162
60 96 159
61 97 160
60 96 157
61 97 162
61 97 165
61 97 161
62 98 160
62 98 161
62 99 168
62 98 168
63 99 168
61 97 162
60 96 153
60 97 163
62 98 162
61 97 157
62 98 165
62 99 171
61 97 159
61 97 159
62 97 158
61 97 160
62 98 159
61 97 159
61 96 157
62 99 167
63 99 162
61 97 159
61 97 158
61 97 156
63 99 161
62 98 166
62 98 159
62 98 161
61 97 153
62 98 158
62 98 159
62 97 157
61 97 158
61 97 152
62 97 156
61 97 159
62 98 166
62 98 159
62 98 158
62 98 160
62 97 154
61 97 153
61 96 150
61 96 147
62 98 158
62 98 161
62 98 161
61 97 154
62 98 155
60 96 148
61 97 153
61 97 151
61 96 153
61 96 151
61 97 158
61 96 152
61 96 152
61 97 153
62 98 158
61 97 148
61 97 151
61 96 149
61 97 152
62 97 155
60 95 141
62 98 156
62 98 157
61 96 148
60 95 144
61 96 146
60 95 147
60 95 142
61 97 147
60 94 144
59 94 137
61 95 144
60 94 133
60 94 135
59 93 138
57 89 121
60 94 141
58 91 130
60 92 131
76 98 102
89 99 75
100 107 40
104 107 18
106 107 11
109 109 16
105 108 11
100 98 0
99 100 0
102 102 0
104 102 11
98 97 11
86 86 0
95 94 14
90 89 0
93 91 8
106 101 11
90 87 8
97 94 16
97 93 8
76 71 0
96 93 3
88 87 11
94 91 0
102 98 14
93 91 14
97 95 11
93 90 12
95 91 16
93 89 0
112 106 14
94 90 0
98 96 8
107 103 14
104 102 11
95 92 19
119 114 11
115 111 22
108 105 22
112 107 14
98 97 14
114 110 21
103 100 11
114 110 14
112 109 11
111 107 14
124 120 25
120 116 28
119 116 19
121 118 16
121 117 24
120 116 24
110 107 18
119 116 0
117 114 22
119 115 21
115 110 25
120 116 16
112 108 19
115 112 16
117 112 22
123 118 30
124 121 19
122 119 19
120 116 25
122 117 19
130 125 22
127 123 19
130 126 25
131 126 36
124 119 16
124 120 19
127 123 19
125 120 28
122 117 25
112 108 19
127 121 32
120 115 16
123 118 19
127 121 32
119 113 30
127 122 25
121 118 16
126 121 28
123 119 19
131 127 30
124 120 19
127 126 22
125 124 19
133 129 25
128 130 28
126 125 32
128 129 16
138 143 19
134 134 30
150 157 19
136 140 16
145 154 16
139 141 16
141 149 16
140 147 19
147 155 0
144 152 11
150 161 11
153 165 11
152 161 0
158 172 0
159 170 0
162 176 0
159 173 0
162 176 0
158 172 0
159 176 0
165 181 0
160 175 0
163 178 0
163 179 0
162 180 0
165 180 0
166 184 0
163 179 0
165 180 0
162 179 0
164 179 0
166 184 0
163 181 0
165 183 0
163 180 0
165 184 0
163 182 0
166 184 0
164 184 0
168 186 0
167 186 0
166 182 0
168 187 0
164 183 0
165 185 0
205 226 250
206 227 252
207 227 254
208 228 255
206 227 255
206 227 255
205 227 255
205 227 255
204 226 255
206 227 255
204 226 255
203 226 255
202 225 255
203 226 255
203 225 255
201 225 255
202 225 255
200 224 255
201 224 255
200 224 255
201 224 255
199 223 255
200 224 255
198 223 255
199 223 255
198 223 255
200 224 255
201 224 255
197 222 255
197 222 255
197 222 255
198 223 255
197 222 255
197 222 255
196 222 255
198 223 255
198 223 255
198 223 255
197 222 255
198 223 255
197 222 255
197 222 255
197 223 255
198 223 255
199 223 255
197 222 255
198 223 255
198 223 255
198 223 255
198 223 255
198 223 255
199 223 255
198 223 255
198 223 255
199 223 255
200 224 255
198 223 255
199 223 255
200 224 255
199 223 255
201 224 255
201 225 255
201 224 255
201 225 255
202 225 255
202 225 255
201 225 255
203 225 255
202 225 255
203 226 255
205 226 255
204 226 255
205 226 255
206 227 255
207 227 255
207 228 255
206 227 255
207 228 255
207 228 255
209 229 255
208 228 255
205 225 253
207 227 254
201 221 250
196 216 246
197 217 246
195 215 246
185 205 239
173 194 231
178 199 235
170 191 228
173 194 231
171 191 227
164 185 225
156 177 221
154 175 219
133 155 206
141 163 210
132 155 202
138 160 208
116 140 197
107 132 191
117 140 197
92 119 181
112 136 194
87 115 178
82 110 176
67 99 170
66 97 167
60 93 167
58 93 170
57 92 169
57 93 173
56 90 165
58 94 171
55 89 165
58 93 172
54 87 162
54 88 167
57 91 169
57 92 169
55 90 163
55 90 166
56 90 167
56 90 166
54 88 164
58 93 167
56 91 168
56 90 166
58 93 166
55 89 163
57 92 166
60 96 171
58 93 168
56 90 162
57 91 164
58 94 170
56 91 166
59 95 170
59 94 170
59 95 171
59 95 171
58 92 163
59 94 166
59 95 167
59 94 170
58 94 163
59 94 169
61 97 168
60 96 169
59 95 164
60 97 169
59 95 168
62 98 168
60 96 165
60 96 166
61 97 160
61 96 165
60 97 168
61 97 165
62 98 167
60 96 162
61 97 166
61 98 168
62 98 169
61 98 169
60 95 164
61 98 167
60 95 161
62 98 168
60 96 160
61 97 163
60 96 162
60 95 158
62 98 163
61 97 166
62 98 163
62 98 166
62 98 161
60 96 157
61 97 164
62 98 163
62 98 162
61 96 155
61 97 163
62 98 167
60 96 153
62 98 158
61 97 163
60 96 155
62 98 168
61 97 158
62 98 163
62 98 165
62 98 162
62 97 153
63 99 165
62 98 163
62 97 148
62 97 156
62 97 158
61 97 161
62 98 164
62 98 165
61 98 163
62 98 160
62 98 162
62 98 158
63 99 164
62 98 159
62 98 158
61 97 155
62 98 159
63 98 154
61 96 153
62 98 163
61 97 157
61 97 154
62 97 150
61 97 153
62 98 164
61 97 154
61 97 154
61 97 155
61 96 151
62 98 166
60 96 151
62 98 156
63 98 161
61 97 157
62 98 154
61 96 148
61 97 153
62 98 153
60 96 143
62 97 150
61 96 148
61 97 154
63 99 158
61 97 156
61 96 152
61 97 152
62 97 149
60 95 139
61 96 144
60 96 148
60 96 149
62 97 152
61 96 148
61 96 150
61 96 152
61 96 145
61 95 148
60 95 145
60 94 146
60 95 142
59 92 142
60 94 142
60 94 137
59 92 131
60 93 143
63 88 116
77 94 92
93 100 64
94 100 31
99 99 0
101 102 0
91 91 11
106 105 11
101 103 0
103 102 11
100 98 8
101 100 11
101 99 0
95 92 0
104 103 0
91 92 0
93 91 0
88 86 0
97 93 0
100 98 14
85 81 11
96 95 14
104 100 16
99 95 8
98 96 0
93 90 18
88 84 0
106 101 11
97 93 14
103 99 11
104 100 11
103 101 11
110 105 12
103 99 0
94 90 14
110 106 8
102 98 16
109 104 9
105 100 18
111 106 18
109 103 28
115 112 19
117 113 16
118 113 16
110 106 16
116 113 19
109 105 22
114 111 16
107 104 11
117 114 26
119 117 11
115 113 19
114 110 0
109 104 19
115 111 16
121 116 22
123 118 19
117 112 22
125 120 16
119 114 28
123 119 19
121 116 28
123 119 16
121 117 19
123 117 25
125 120 22
121 117 16
122 119 11
130 125 22
117 113 30
123 117 30
132 126 19
131 126 19
124 119 19
128 123 28
115 110 28
128 123 22
120 116 22
121 116 22
123 118 19
117 113 22
120 117 16
125 121 30
123 121 28
124 123 22
119 113 25
119 117 22
130 129 25
125 123 19
130 130 22
123 123 16
131 130 28
121 121 11
123 126 11
136 137 25
134 136 22
138 143 16
138 141 22
141 150 16
145 153 16
151 162 11
145 155 0
154 164 16
160 174 19
152 164 0
157 165 0
156 171 0
159 172 0
160 173 0
166 180 0
162 178 0
163 179 0
161 174 0
164 180 0
163 180 0
164 181 0
163 180 0
159 175 0
163 180 0
160 175 0
166 180 0
168 184 0
165 181 0
164 181 0
165 182 0
161 176 0
161 178 0
163 180 0
165 180 0
164 183 0
166 183 0
163 182 0
160 178 0
159 175 0
166 186 0
164 180 0
167 186 0
166 184 0
165 185 0
207 228 255
207 228 255
208 228 255
207 228 255
206 227 255
206 227 255
204 226 255
204 226 255
203 225 255
204 226 255
203 226 255
202 225 255
201 224 255
201 224 255
201 224 255
201 224 255
198 223 255
200 224 255
200 224 255
199 223 255
198 223 255
198 223 255
197 222 255
198 223 255
197 222 255
198 223 255
198 223 255
196 222 255
197 222 255
198 223 255
197 222 255
198 223 255
196 222 255
197 222 255
196 222 255
196 222 255
196 222 255
197 222 255
197 222 255
196 222 255
197 222 255
196 222 255
196 222 255
196 222 255
198 223 255
197 222 255
198 223 255
196 222 255
197 222 255
197 222 255
198 223 255
197 222 255
197 222 255
198 223 255
197 222 255
197 222 255
199 223 255
199 223 255
198 223 255
199 223 255
200 224 255
199 223 255
200 224 255
200 224 255
202 225 255
201 224 255
201 225 255
201 224 255
202 225 255
202 225 255
204 226 255
203 225 255
204 226 255
203 226 255
204 226 255
205 227 255
206 227 255
206 227 255
206 227 255
207 228 255
208 228 255
207 227 254
209 229 255
199 218 248
199 219 248
200 220 250
197 217 247
191 211 243
183 203 237
186 206 240
184 203 237
162 183 224
167 188 227
166 187 226
163 184 225
151 173 219
152 173 216
141 163 211
142 165 213
137 159 207
128 151 205
121 144 197
109 133 190
116 140 193
105 131 191
99 125 185
92 120 184
79 109 176
74 105 173
72 103 175
67 98 170
62 95 169
56 91 171
56 90 167
56 89 162
55 89 167
56 91 166
53 86 156
57 91 166
54 88 166
55 90 167
56 90 168
54 88 162
55 90 167
54 89 164
54 88 163
57 92 168
54 89 168
55 90 166
56 91 165
58 94 170
55 90 167
55 89 160
57 92 166
57 92 166
55 89 163
58 94 168
58 93 168
58 93 162
57 93 164
60 96 170
60 96 170
58 94 166
58 93 160
60 95 170
60 96 164
60 96 165
59 94 164
59 94 165
61 97 167
59 95 164
60 95 165
60 95 167
59 95 164
60 95 161
61 97 168
60 96 166
61 97 165
60 95 165
60 96 167
61 96 163
61 97 166
61 97 160
61 97 160
60 96 160
60 95 161
60 96 161
60 96 159
61 97 165
61 98 166
61 97 170
61 97 164
60 96 156
60 95 158
61 97 161
60 97 161
61 97 159
61 97 160
61 97 163
62 99 167
60 96 160
61 97 163
61 97 158
61 97 162
60 96 160
62 98 163
61 97 160
61 96 153
62 98 161
61 97 162
62 98 161
62 98 163
61 97 157
62 98 158
61 97 160
62 97 159
62 98 156
60 96 147
61 97 158
62 98 159
62 98 155
63 99 165
62 97 162
62 98 160
61 97 159
62 97 157
62 97 155
62 98 158
61 97 153
61 97 154
61 97 158
61 96 152
62 98 156
62 98 156
62 98 157
62 98 160
60 96 157
60 96 155
63 99 162
61 97 151
60 95 143
62 98 159
63 98 158
61 96 150
60 96 156
61 97 156
62 97 153
62 98 153
62 98 154
61 97 159
61 97 151
60 96 147
60 96 143
61 96 149
61 97 151
60 96 141
61 95 144
61 97 150
62 98 161
61 95 140
60 95 145
60 95 137
60 95 145
62 97 152
61 97 155
60 95 139
61 96 143
60 95 148
59 95 149
60 95 142
61 97 153
62 97 151
61 96 141
59 94 135
59 94 135
61 96 146
59 93 140
60 95 128
58 93 135
58 92 127
60 94 144
72 96 117
88 102 98
92 98 57
104 108 33
109 112 0
103 103 0
109 110 0
107 108 0
114 115 0
102 101 0
102 103 3
102 101 0
98 96 0
94 92 0
100 99 8
86 82 0
90 87 18
94 93 0
102 98 14
84 82 14
93 90 0
97 92 0
87 83 0
96 92 14
106 102 16
79 78 8
85 83 14
91 87 0
106 104 0
103 98 14
102 98 0
103 100 8
100 96 12
91 86 8
90 87 0
104 101 0
108 105 0
97 95 0
110 107 11
116 111 16
109 105 16
99 94 16
110 105 11
100 98 0
122 118 0
112 109 0
114 110 19
110 106 22
113 110 26
111 107 19
112 107 14
107 103 19
106 103 11
111 107 25
117 112 11
117 113 18
120 116 16
118 115 16
117 113 16
125 122 25
122 117 19
120 118 16
130 123 28
122 118 22
120 117 16
115 110 25
117 112 19
122 117 16
109 105 11
113 108 25
122 116 16
122 117 16
126 120 32
113 108 11
116 113 11
121 115 22
126 121 32
121 117 16
123 118 22
125 120 30
118 115 16
120 116 19
123 120 25
117 112 16
132 133 22
134 127 28
127 127 19
130 129 16
127 125 25
124 124 16
132 133 25
133 136 16
126 126 19
139 143 16
134 137 16
138 142 22
148 155 22
134 141 0
146 154 19
155 164 11
148 156 0
153 163 11
153 161 11
153 160 0
149 161 0
163 173 0
155 166 0
156 169 0
160 173 0
160 174 0
153 166 0
159 171 0
163 176 0
160 173 0
165 180 0
161 174 0
156 171 0
158 174 0
158 172 0
163 177 0
163 180 0
162 178 0
166 183 0
167 185 0
165 182 0
168 185 0
162 179 0
166 182 0
162 178 0
165 184 0
161 179 0
163 178 0
170 188 0
161 180 0
167 183 0
165 184 0
169 188 0
166 184 0
165 183 0
207 228 255
205 227 255
205 226 255
205 227 255
204 226 255
204 226 255
203 225 255
202 225 255
202 225 255
201 225 255
202 225 255
200 224 255
202 225 255
201 224 255
200 224 255
199 223 255
198 223 255
199 223 255
198 223 255
198 223 255
198 223 255
198 223 255
197 222 255
197 222 255
197 222 255
197 222 255
197 222 255
197 222 255
196 222 255
196 222 255
197 222 255
196 222 255
196 222 255
196 222 255
196 222 255
195 221 255
195 221 255
195 221 255
196 222 255
196 221 255
196 222 255
196 222 255
196 222 255
196 222 255
196 222 255
196 222 255
196 222 255
195 221 255
196 222 255
196 222 255
196 222 255
196 222 255
196 222 255
197 222 255
196 222 255
196 222 255
197 222 255
197 222 255
199 223 255
199 223 255
199 223 255
199 223 255
198 223 255
200 224 255
200 224 255
200 224 255
201 224 255
200 224 255
202 225 255
201 224 255
202 225 255
202 225 255
202 225 255
203 226 255
203 225 255
205 227 255
204 226 255
205 227 255
206 227 255
207 228 255
207 227 255
207 228 255
208 228 255
206 226 254
203 222 251
197 217 248
196 216 246
191 211 244
186 207 240
185 206 240
185 205 238
181 201 236
180 200 234
178 198 234
169 190 228
166 187 226
160 181 223
146 168 215
145 167 215
129 152 203
128 151 203
126 149 202
127 150 201
111 136 195
111 137 197
97 124 188
95 123 188
91 119 184
79 108 177
75 106 175
62 97 175
65 98 174
60 94 167
61 95 170
56 90 166
55 90 163
56 90 168
55 89 167
54 88 165
56 90 166
54 88 162
54 88 163
57 92 169
56 90 168
55 89 164
55 89 166
54 88 164
55 89 162
55 89 161
55 89 160
54 88 159
56 90 165
57 91 166
57 92 168
56 90 161
55 88 162
59 94 171
56 90 163
57 92 163
56 90 158
59 95 168
59 95 170
55 89 155
57 93 165
59 95 167
60 96 171
57 91 157
60 96 168
59 94 169
58 93 158
61 97 168
59 95 164
60 95 166
60 95 166
62 98 173
60 96 167
60 95 163
60 95 166
61 97 157
61 98 167
61 97 166
61 97 167
61 97 162
61 97 164
61 97 167
61 97 167
60 96 160
61 97 165
60 96 162
62 99 166
61 96 162
60 97 167
62 98 166
61 97 164
61 97 157
61 97 162
62 98 163
62 98 164
61 97 165
61 96 157
62 98 165
61 97 166
61 97 166
62 98 160
61 98 167
62 99 168
63 99 168
61 97 160
62 98 161
63 99 162
61 97 160
61 96 148
61 97 155
62 97 157
62 98 157
60 96 157
62 98 157
61 97 155
62 98 159
62 98 158
61 97 155
61 97 151
61 97 155
62 99 163
61 97 155
61 96 151
61 96 155
62 98 161
62 98 160
61 97 157
62 98 161
62 98 158
61 97 153
62 97 154
62 98 161
63 99 163
62 97 153
62 98 160
62 97 155
61 97 155
62 98 159
61 97 152
62 98 155
61 97 154
62 98 157
62 98 152
62 98 155
63 98 157
61 97 148
61 96 144
61 96 149
62 97 152
62 98 157
61 97 154
61 97 148
61 96 150
61 96 148
62 98 158
60 96 147
61 97 150
61 96 148
62 97 154
62 98 157
61 96 147
61 97 149
61 96 150
61 97 152
60 95 147
60 95 143
60 95 142
59 94 137
62 97 148
59 93 140
60 95 133
61 95 150
60 94 141
59 93 134
59 93 129
58 91 123
60 94 130
64 94 131
71 92 96
90 102 87
89 96 51
93 100 36
110 114 0
106 109 0
98 99 0
102 103 0
100 101 0
110 110 0
103 107 0
105 105 11
106 106 0
98 97 0
97 94 0
98 96 16
96 94 0
94 94 8
100 100 11
84 80 3
94 88 0
88 85 8
94 93 0
105 102 0
95 93 0
95 92 0
98 96 0
102 97 0
101 96 0
102 98 0
98 94 11
103 99 0
100 96 11
106 101 0
106 101 0
110 107 11
105 101 8
104 100 16
113 108 14
110 105 16
107 104 0
113 109 19
99 96 14
110 107 11
104 100 11
112 108 0
112 107 11
113 111 21
114 110 24
113 108 16
113 109 19
119 115 11
114 109 16
115 111 19
109 106 16
115 112 0
118 113 11
107 103 0
118 112 19
118 113 25
122 117 25
115 110 19
113 107 16
114 109 22
117 112 11
110 105 25
116 111 19
117 112 19
123 117 19
118 114 22
121 117 19
116 112 11
120 114 19
123 117 19
121 114 22
119 114 25
114 109 19
121 119 22
104 99 11
122 119 22
122 117 11
121 119 11
123 119 25
132 128 19
127 124 19
131 130 19
127 126 16
130 130 22
136 133 22
135 139 22
129 131 16
138 138 19
143 145 22
142 148 19
139 146 0
138 143 11
149 155 28
147 156 0
148 155 0
150 158 16
150 161 16
152 162 0
153 162 0
157 171 0
160 171 0
160 171 0
161 174 0
156 168 0
160 172 0
162 177 0
156 171 0
159 171 0
159 175 0
159 174 0
165 179 0
162 178 0
165 181 0
158 172 0
164 182 0
158 171 0
162 177 0
164 180 0
165 181 0
164 182 0
164 179 0
165 182 0
168 185 0
167 185 0
163 181 0
165 183 0
165 182 0
166 183 0
157 172 0
164 181 0
161 178 0
164 182 0
166 184 0
162 182 0
168 185 0
205 227 255
205 227 255
204 226 255
204 226 255
203 226 255
203 225 255
203 225 255
202 225 255
203 225 255
200 224 255
200 224 255
200 224 255
199 223 255
199 224 255
199 223 255
198 223 255
199 223 255
198 223 255
198 223 255
197 222 255
196 222 255
197 222 255
196 222 255
196 222 255
197 222 255
196 222 255
196 222 255
197 222 255
195 221 255
197 222 255
195 221 255
195 221 255
195 221 255
196 222 255
194 221 255
196 222 255
195 221 255
196 222 255
194 221 255
195 221 255
195 221 255
196 222 255
195 221 255
194 221 255
195 221 255
194 221 255
195 221 255
195 221 255
196 222 255
195 221 255
196 222 255
195 221 255
195 221 255
195 221 255
196 222 255
196 222 255
196 222 255
197 222 255
197 222 255
197 222 255
198 223 255
197 222 255
199 224 255
199 223 255
199 223 255
199 223 255
200 224 255
201 225 255
201 225 255
200 224 255
201 224 255
202 225 255
202 225 255
202 225 255
203 225 255
204 226 255
203 226 255
205 226 255
205 226 255
205 227 255
205 226 255
208 228 255
207 228 255
205 226 254
205 225 253
202 222 251
191 211 243
197 218 248
192 212 244
188 208 241
183 204 238
182 202 237
176 196 233
170 191 229
167 188 228
168 188 227
155 176 219
166 187 226
157 178 219
150 171 216
144 165 212
127 150 203
144 165 212
117 140 195
116 140 196
105 130 190
110 135 193
97 123 185
94 120 184
83 111 178
79 108 178
71 102 172
67 98 170
61 94 167
57 92 168
58 93 170
57 92 168
56 91 169
55 89 161
57 91 167
56 90 166
56 90 166
53 87 158
56 91 168
52 85 160
56 90 165
56 91 165
55 89 164
55 90 161
54 88 162
55 89 162
56 91 167
55 90 163
57 92 165
55 90 163
57 92 164
54 87 157
59 94 170
59 94 166
59 94 168
56 91 166
58 93 158
59 95 171
56 91 163
58 92 163
60 96 167
59 95 165
59 95 166
58 94 165
59 95 165
59 95 161
61 97 168
61 97 168
59 95 163
61 96 160
61 96 169
60 95 162
59 94 158
60 96 166
61 97 170
60 96 158
61 97 164
61 97 156
61 96 162
61 97 160
60 96 163
60 95 158
61 97 167
61 97 163
61 97 164
60 96 155
63 99 174
61 97 164
61 97 161
61 96 160
62 98 167
61 97 163
62 98 162
60 96 158
60 97 160
62 98 159
61 97 163
62 98 163
60 96 155
61 97 157
60 96 155
61 97 155
62 98 162
61 98 162
62 98 164
61 97 154
62 98 160
63 99 165
61 98 161
61 97 156
61 97 157
61 97 154
62 98 161
62 99 167
61 96 151
61 97 154
61 97 158
62 98 162
61 96 150
62 98 159
61 97 150
62 98 158
62 97 155
62 98 159
61 96 149
61 96 154
61 97 162
62 97 159
61 97 156
61 96 153
62 97 157
62 97 155
62 98 156
60 96 142
61 97 152
61 97 147
62 98 156
61 96 149
60 96 148
62 97 156
61 96 152
60 95 148
60 96 151
62 98 155
61 96 144
62 97 154
61 97 156
61 96 150
62 98 162
62 97 158
61 96 135
61 96 149
62 97 154
61 97 147
62 98 158
61 97 153
61 96 148
61 96 144
60 95 141
61 95 145
61 96 147
61 96 142
62 97 154
61 97 150
61 96 144
60 95 137
60 95 145
60 95 134
60 95 136
59 93 139
60 94 141
60 94 140
58 91 132
57 89 131
59 93 128
65 95 121
78 101 102
96 106 76
93 104 63
109 113 0
113 120 0
107 113 0
117 119 0
107 112 0
103 108 0
101 102 0
99 99 0
108 108 0
94 93 16
104 106 0
98 98 0
94 93 0
100 96 11
94 88 19
95 92 0
99 97 0
97 91 0
91 89 8
107 103 0
84 80 8
101 98 0
88 84 0
86 84 0
96 92 0
104 102 0
91 86 0
105 98 0
101 97 8
93 90 11
108 105 3
98 94 11
98 94 0
102 98 14
100 95 14
106 102 0
91 88 0
115 110 11
101 97 16
101 97 0
109 103 16
110 105 16
113 108 19
104 101 8
105 100 0
112 107 0
111 107 11
114 111 11
105 101 16
108 102 16
109 104 16
118 114 0
113 110 11
103 98 19
122 117 19
128 122 0
112 108 19
116 112 11
116 110 25
110 107 16
114 110 25
115 110 19
116 111 22
114 108 11
114 108 22
107 104 11
103 98 0
108 105 19
124 118 25
120 115 16
114 108 11
115 113 16
119 117 16
116 111 11
130 126 16
121 119 22
120 115 16
125 124 0
132 129 19
121 119 22
120 121 11
123 122 11
135 136 16
131 129 16
137 139 0
120 121 0
142 146 11
134 135 0
128 131 16
136 140 11
144 149 19
145 149 16
144 151 0
153 161 11
137 142 11
149 155 0
148 156 11
156 166 11
153 161 11
156 167 0
159 170 0
154 166 0
157 167 0
152 161 0
160 171 0
160 174 0
158 170 0
159 171 0
163 177 0
161 176 0
160 170 0
161 177 0
153 170 0
160 175 0
163 178 0
160 177 0
169 185 0
164 182 0
165 180 0
160 173 0
163 178 0
161 177 0
163 179 0
167 184 0
164 182 0
164 181 0
166 184 0
160 178 0
164 182 0
160 176 0
167 184 0
163 181 0
158 174 0
164 180 0
163 181 0
167 185 0
204 226 255
203 225 255
204 226 255
202 225 255
203 225 255
202 225 255
201 225 255
200 224 255
200 224 255
200 224 255
200 224 255
199 223 255
199 223 255
197 222 255
199 223 255
198 223 255
197 222 255
198 223 255
196 222 255
197 222 255
196 222 255
197 222 255
195 221 255
196 221 255
196 222 255
194 221 255
196 222 255
195 221 255
195 221 255
193 220 255
194 220 255
195 221 255
194 220 255
194 221 255
194 221 255
194 221 255
194 221 255
195 221 255
194 221 255
194 221 255
194 220 255
194 221 255
194 221 255
194 221 255
194 220 255
195 221 255
193 220 255
194 221 255
195 221 255
195 221 255
195 221 255
195 221 255
195 221 255
195 221 255
196 222 255
195 221 255
196 222 255
195 221 255
197 222 255
197 222 255
196 222 255
198 223 255
198 223 255
198 223 255
198 223 255
198 223 255
199 224 255
199 224 255
199 223 255
201 225 255
199 224 255
201 224 255
202 225 255
202 225 255
202 225 255
203 226 255
202 225 255
203 225 255
204 226 255
206 227 255
205 226 255
204 226 255
206 227 255
208 228 255
206 227 255
205 226 254
201 221 250
204 224 253
193 214 245
199 220 250
185 206 240
189 209 242
176 197 234
176 197 234
180 200 235
171 192 230
160 182 224
155 177 220
158 179 222
158 179 222
143 165 212
142 164 212
139 161 208
122 146 201
130 153 203
117 140 197
94 121 183
99 125 187
97 123 186
92 119 186
91 119 187
78 109 180
75 106 177
71 102 173
59 92 167
60 94 167
56 90 165
56 90 167
56 91 166
56 90 165
53 86 161
55 89 164
56 90 165
57 92 170
55 89 163
56 91 165
55 89 165
55 89 165
53 87 155
54 88 157
54 89 164
56 89 160
56 90 164
55 89 162
56 91 163
57 92 161
56 90 164
56 90 161
58 93 167
56 92 168
55 89 162
58 94 168
58 94 166
58 94 160
60 97 171
57 92 163
59 94 158
59 95 160
60 96 164
59 94 159
58 93 158
59 94 164
60 96 164
59 95 160
61 97 166
60 97 165
59 94 162
60 96 168
59 94 161
61 97 168
59 95 160
62 98 166
59 94 159
60 95 158
59 94 155
62 98 162
62 98 167
61 98 166
61 97 168
61 97 161
61 96 159
61 97 154
61 97 163
60 96 160
61 96 158
61 97 166
60 95 153
60 95 159
60 96 155
60 96 161
61 96 158
61 97 160
62 98 161
61 98 162
62 98 158
62 98 166
61 96 151
61 97 151
61 97 158
61 97 162
62 98 159
62 98 162
61 97 155
62 97 157
61 97 154
62 98 159
61 97 153
62 98 157
62 98 159
61 97 153
63 99 163
60 96 149
62 98 158
62 97 150
62 98 161
62 97 161
62 98 154
62 98 160
62 98 157
62 97 151
61 97 152
61 96 152
62 98 158
61 96 148
61 96 148
62 98 160
62 97 153
62 97 152
61 97 153
61 97 151
61 96 152
62 97 153
63 98 162
62 98 156
62 97 149
61 97 152
61 97 156
60 95 148
60 95 142
62 97 152
61 96 148
62 97 152
61 97 154
61 97 152
63 98 153
61 96 144
61 96 145
62 98 160
61 96 150
60 96 148
61 97 147
61 97 151
61 96 142
60 95 145
60 95 137
59 94 135
62 97 150
61 97 147
61 96 151
61 96 146
61 96 147
60 94 137
61 97 150
60 94 137
61 95 145
59 93 140
61 96 136
61 95 140
60 95 141
59 93 136
56 89 122
78 96 95
93 101 77
109 114 31
110 115 0
108 112 0
107 112 0
116 118 0
111 114 0
110 114 11
107 108 11
95 97 0
102 102 0
107 109 0
107 107 0
113 111 11
96 95 0
98 96 0
90 87 8
103 103 8
98 96 0
103 102 8
103 100 0
92 88 0
93 90 0
82 77 0
88 81 0
93 91 11
102 100 0
97 92 0
99 92 0
83 80 0
90 85 3
101 95 0
107 102 0
94 90 11
105 101 8
99 93 0
95 90 0
105 100 11
102 99 0
94 91 0
104 100 11
109 103 11
110 105 0
120 114 11
99 95 0
106 103 8
112 108 0
102 99 16
111 105 16
109 106 11
100 95 0
114 108 11
105 100 11
120 116 11
107 102 11
107 102 22
110 106 16
110 106 11
122 116 16
119 114 25
96 91 11
122 116 19
103 99 19
114 108 16
118 114 11
117 112 25
117 112 11
122 117 11
116 112 16
121 116 22
122 118 19
103 99 16
124 119 30
109 106 0
122 118 19
121 117 16
118 115 16
124 123 25
134 135 0
118 118 25
121 119 11
125 123 16
124 121 16
128 128 0
135 130 22
138 139 16
127 129 11
136 138 16
132 136 0
137 141 11
133 137 16
139 145 0
145 152 16
144 150 16
141 150 0
146 155 0
144 152 16
150 160 11
156 167 0
152 163 0
150 159 11
158 168 0
155 166 0
157 169 0
158 170 0
154 166 0
158 170 0
161 174 0
161 172 0
161 175 0
158 171 0
160 173 0
159 174 0
162 178 0
159 172 0
161 175 0
162 177 0
162 181 0
164 178 0
165 181 0
160 173 0
166 182 0
159 176 0
166 183 0
164 179 0
163 179 0
166 186 0
165 180 0
164 184 0
165 182 0
169 187 0
161 178 0
166 183 0
166 183 0
166 184 0
165 180 0
163 181 0
166 184 0
202 225 255
203 225 255
203 226 255
202 225 255
201 224 255
200 224 255
202 225 255
200 224 255
200 224 255
198 223 255
199 223 255
198 223 255
199 223 255
197 222 255
196 222 255
195 221 255
196 222 255
196 222 255
196 222 255
196 222 255
195 221 255
194 221 255
195 221 255
194 221 255
195 221 255
196 222 255
196 221 255
194 221 255
193 220 255
194 221 255
193 220 255
193 220 255
194 221 255
193 220 255
193 220 255
193 220 255
194 221 255
193 220 255
192 220 255
193 220 255
193 220 255
194 221 255
194 220 255
192 220 255
193 220 255
194 220 255
193 220 255
193 220 255
194 220 255
193 220 255
194 221 255
195 221 255
195 221 255
195 221 255
195 221 255
196 221 255
195 221 255
196 222 255
196 221 255
196 222 255
196 222 255
196 222 255
196 222 255
197 222 255
197 222 255
197 223 255
198 223 255
198 223 255
199 223 255
199 223 255
200 224 255
200 224 255
200 224 255
201 224 255
201 225 255
202 225 255
201 225 255
203 225 255
204 226 255
204 226 255
204 226 255
204 226 255
204 226 255
206 227 255
206 227 255
204 225 254
204 225 254
204 224 252
197 217 248
194 215 246
194 214 246
187 207 241
180 201 236
178 199 236
176 196 233
171 192 231
165 186 227
163 184 226
164 185 225
145 167 214
157 178 220
154 176 220
142 164 212
138 160 209
136 158 207
125 148 202
113 137 193
113 138 195
99 125 185
99 126 190
118 141 197
92 118 182
76 106 176
64 97 170
61 95 166
61 95 171
55 89 163
55 90 163
54 87 159
54 87 158
56 91 164
55 89 164
55 89 162
54 88 162
56 90 163
55 89 164
55 89 164
53 86 160
57 92 165
53 86 157
54 88 159
56 90 165
53 86 159
55 89 163
56 91 163
55 88 159
56 90 163
56 90 162
57 91 165
57 91 160
59 95 169
58 93 164
58 93 158
59 94 165
59 96 168
58 93 163
58 93 160
60 95 164
58 93 154
58 93 158
60 96 160
59 94 160
58 93 158
60 95 158
59 94 157
60 96 163
59 94 152
60 96 158
60 96 163
59 95 161
60 96 156
58 93 153
60 96 160
60 95 155
60 95 161
61 96 160
61 96 162
60 96 157
60 96 163
62 98 161
60 96 163
61 98 167
62 98 162
60 96 153
61 96 157
60 96 159
60 96 156
60 97 165
60 96 155
60 96 153
62 98 167
61 98 159
61 97 160
61 97 157
61 97 155
61 97 161
61 97 160
61 97 159
61 96 153
61 97 158
62 98 162
61 97 161
61 97 157
63 99 166
61 96 159
62 98 157
62 98 164
61 97 156
61 97 155
62 97 155
62 97 156
61 97 162
61 97 152
60 96 150
61 97 158
60 96 147
60 96 148
62 98 159
62 97 155
61 96 156
61 96 150
61 96 154
62 97 152
62 97 153
62 97 153
62 97 155
61 97 156
61 96 149
62 98 153
61 96 148
62 97 156
62 97 151
60 96 150
61 97 156
62 98 161
62 97 154
62 97 149
61 96 150
60 95 144
62 97 152
62 98 161
61 96 137
61 97 150
61 97 153
60 96 148
61 96 148
61 97 149
59 94 136
61 96 147
61 96 144
61 97 150
60 96 137
60 95 134
59 94 134
61 96 148
61 97 150
60 95 138
61 96 146
61 96 136
61 96 147
60 95 148
59 93 136
60 94 134
61 95 130
59 92 132
60 94 141
59 93 132
61 95 145
58 91 132
58 92 125
69 97 113
80 97 96
93 104 63
120 126 31
105 110 0
112 115 11
108 109 0
119 119 11
115 119 0
115 114 11
100 103 0
104 105 0
94 96 0
97 99 0
104 105 0
92 92 0
103 108 0
105 105 0
89 87 0
111 110 8
102 100 14
88 84 11
97 96 0
95 90 0
94 90 14
92 89 0
112 108 0
100 96 8
96 92 8
99 95 0
98 94 0
113 111 0
99 96 8
102 99 0
91 86 11
108 101 0
94 91 0
103 99 11
92 88 0
108 103 0
91 87 0
99 95 0
119 116 11
105 99 11
107 102 11
112 109 0
111 106 11
108 104 11
101 97 0
112 107 11
104 99 11
115 110 14
102 98 11
106 101 0
109 104 16
118 113 0
109 103 11
123 118 11
109 103 16
112 109 11
120 114 22
102 98 11
110 106 11
110 105 16
103 99 11
115 112 16
112 106 11
116 111 19
122 116 16
119 114 16
119 114 0
116 111 11
116 113 16
116 112 16
115 111 22
122 120 0
123 120 11
124 119 22
123 120 25
131 129 25
120 118 11
119 115 22
129 127 19
123 124 0
129 131 19
132 134 16
123 125 11
138 139 25
139 142 11
139 145 11
131 135 19
138 144 0
137 143 11
131 133 0
145 149 0
145 148 22
148 155 0
147 155 11
158 172 0
157 170 0
151 158 0
153 166 0
157 170 0
152 164 0
151 161 0
153 165 0
160 169 0
155 168 0
158 170 0
155 166 0
155 168 0
157 169 0
160 175 0
152 164 0
157 170 0
157 171 0
161 175 0
160 175 0
153 164 0
165 180 0
164 180 0
161 175 0
159 172 0
160 175 0
165 183 0
163 178 0
161 177 0
162 179 0
160 176 0
165 181 0
161 176 0
167 185 0
166 183 0
169 186 0
166 183 0
167 183 0
166 184 0
164 183 0
164 183 0
167 185 0
202 225 255
202 225 255
202 225 255
200 224 255
201 224 255
200 224 255
199 223 255
199 224 255
198 223 255
198 223 255
199 223 255
197 222 255
197 222 255
197 222 255
196 221 255
196 222 255
196 222 255
196 222 255
196 222 255
196 222 255
195 221 255
195 221 255
193 220 255
194 221 255
194 221 255
194 220 255
194 220 255
193 220 255
193 220 255
193 220 255
192 220 255
193 220 255
192 220 255
193 220 255
193 220 255
193 220 255
192 219 255
193 220 255
192 219 255
193 220 255
193 220 255
193 220 255
192 219 255
193 220 255
193 220 255
193 220 255
192 220 255
192 220 255
193 220 255
193 220 255
194 220 255
193 220 255
194 221 255
194 221 255
194 221 255
195 221 255
194 221 255
195 221 255
195 221 255
195 221 255
195 221 255
196 222 255
197 222 255
196 222 255
197 222 255
197 222 255
197 222 255
198 223 255
198 223 255
198 223 255
200 224 255
199 223 255
199 224 255
200 224 255
201 224 255
201 224 255
201 225 255
202 225 255
204 226 255
202 225 255
203 226 255
203 226 255
205 227 255
205 227 255
205 227 255
205 226 255
204 225 254
201 222 252
199 219 250
202 222 251
194 215 246
192 213 245
189 209 242
183 204 239
181 201 236
172 193 231
174 195 233
160 181 224
166 187 228
152 174 218
148 170 217
154 175 218
133 156 207
133 156 207
140 162 211
140 161 210
130 154 205
119 143 199
110 135 195
101 127 188
99 125 188
82 110 179
92 118 183
77 106 176
77 106 171
60 94 167
61 95 170
58 92 167
56 90 166
57 91 166
52 84 155
56 90 160
54 88 161
54 88 160
53 87 160
52 86 157
54 87 157
52 85 154
56 91 162
55 88 160
56 91 164
55 89 162
55 89 160
55 89 162
55 89 163
58 93 167
57 92 162
57 91 162
56 90 159
58 93 168
59 94 167
55 90 159
59 94 168
58 94 165
59 94 160
59 95 168
58 93 162
59 95 166
61 97 165
60 96 168
58 94 158
60 96 168
60 96 166
60 96 164
59 95 165
60 96 162
58 93 157
60 95 167
60 96 159
61 98 169
60 96 162
60 96 158
60 96 162
60 96 161
61 97 165
60 95 159
60 97 161
61 98 168
60 96 162
61 97 160
60 96 155
60 96 164
60 95 154
62 98 163
61 97 156
60 96 161
60 96 157
61 97 167
62 98 162
61 97 164
60 96 159
62 98 162
61 97 162
60 96 153
62 98 164
61 97 163
61 97 159
61 97 162
61 97 154
61 97 154
61 97 154
61 96 154
60 96 158
62 98 159
61 96 153
62 97 152
62 97 157
62 98 161
62 98 164
62 98 160
63 99 164
61 97 156
61 97 154
61 97 153
62 98 157
62 98 159
62 97 157
60 96 153
62 97 153
61 97 155
61 97 155
62 98 161
61 97 153
62 98 159
60 96 143
61 96 153
62 98 163
62 97 153
62 98 159
61 97 153
61 96 154
61 97 149
61 97 153
61 96 153
62 98 161
61 96 151
61 96 149
62 97 157
62 98 151
62 98 155
61 96 152
61 97 149
61 97 151
61 97 145
61 96 148
61 96 149
61 96 144
61 97 148
60 95 147
62 98 152
61 97 154
61 97 149
61 96 149
60 95 139
61 96 146
61 96 147
61 96 149
61 97 148
60 95 139
60 95 143
59 93 133
60 94 137
60 94 125
60 94 139
59 94 135
60 94 137
60 94 132
59 92 123
61 95 139
59 92 132
76 100 109
88 102 82
93 98 47
118 125 25
107 112 0
101 105 0
105 106 11
103 104 0
103 103 11
112 113 11
109 113 0
103 105 0
116 120 0
109 112 0
96 97 11
102 102 0
112 111 0
98 99 0
102 102 11
108 109 0
86 85 0
96 94 8
96 96 0
94 93 0
113 113 0
92 90 0
87 84 8
83 83 0
105 102 2
98 93 0
90 87 12
100 95 0
101 97 8
104 102 8
115 108 0
103 98 3
97 95 8
101 97 11
106 102 0
100 98 8
106 100 0
95 91 0
95 91 0
101 95 0
100 96 0
104 99 0
103 97 0
109 102 8
107 103 0
108 103 11
106 101 11
117 113 8
113 107 11
102 97 0
115 110 0
117 114 16
113 110 11
105 101 0
111 107 11
109 105 11
110 107 16
102 97 0
115 111 16
111 106 16
121 115 16
119 116 0
110 105 11
120 113 11
113 108 11
123 121 22
111 106 0
117 115 16
118 117 11
120 117 0
127 125 19
118 113 16
126 124 16
123 123 16
122 123 11
124 123 22
130 129 19
123 123 11
133 134 11
128 126 16
133 133 11
135 138 11
124 128 0
128 129 0
128 131 0
134 136 0
141 145 11
142 146 16
141 145 11
144 150 11
143 147 16
150 159 0
144 151 0
150 159 0
153 163 11
153 160 0
148 158 0
157 165 0
155 166 0
157 168 0
158 170 0
157 167 0
160 173 0
155 166 0
157 168 0
160 175 0
156 171 0
151 163 0
158 172 0
160 176 0
163 178 0
160 174 0
163 179 0
159 174 0
161 175 0
161 174 0
161 177 0
162 177 0
161 178 0
161 176 0
166 184 0
168 184 0
163 179 0
163 181 0
160 177 0
167 187 0
164 179 0
161 176 0
162 180 0
164 182 0
166 184 0
162 179 0
166 184 0
162 180 0
163 181 0
168 187 0
201 225 255
201 224 255
200 224 255
201 224 255
199 223 255
200 224 255
199 223 255
199 223 255
198 223 255
197 222 255
197 222 255
196 222 255
197 222 255
196 221 255
195 221 255
196 222 255
194 221 255
194 221 255
194 221 255
194 221 255
192 220 255
194 221 255
193 220 255
193 220 255
193 220 255
193 220 255
193 220 255
193 220 255
192 220 255
192 220 255
192 219 255
192 219 255
193 220 255
193 220 255
193 220 255
192 220 255
192 220 255
192 219 255
192 220 255
191 219 255
191 219 255
192 220 255
192 219 255
192 220 255
192 219 255
192 220 255
192 219 255
193 220 255
193 220 255
192 220 255
192 220 255
192 220 255
193 220 255
193 220 255
193 220 255
194 221 255
194 221 255
195 221 255
195 221 255
194 220 255
195 221 255
195 221 255
195 221 255
195 221 255
196 222 255
196 222 255
197 222 255
197 222 255
197 222 255
199 223 255
199 223 255
199 223 255
199 223 255
198 223 255
199 223 255
200 224 255
201 225 255
201 225 255
202 225 255
202 225 255
202 225 255
202 225 255
204 226 255
204 226 255
204 226 255
205 226 255
204 226 255
203 224 254
205 226 254
201 222 252
195 216 247
199 219 249
195 216 247
192 212 244
183 204 239
184 204 239
170 191 231
172 193 231
179 199 235
165 186 226
156 178 222
154 176 220
161 182 222
159 180 222
133 156 207
132 155 207
124 147 201
128 151 203
107 133 195
122 145 199
105 130 190
92 119 185
93 121 185
94 120 182
79 108 179
68 100 174
70 100 169
59 91 165
52 85 156
55 89 165
56 91 168
56 91 163
50 82 154
51 84 155
55 89 161
54 88 165
56 91 166
53 87 163
55 89 163
55 90 164
54 87 160
55 89 165
56 91 162
55 88 155
55 89 160
56 90 160
53 87 158
56 90 161
57 91 157
58 93 164
56 91 155
56 91 160
57 92 162
58 92 158
57 92 162
58 93 164
59 94 159
58 92 161
58 94 162
57 92 164
58 94 163
58 93 163
58 94 162
60 95 161
61 97 165
62 98 166
60 96 165
59 95 165
61 97 165
60 96 159
59 95 163
61 97 167
61 97 165
61 97 164
61 97 163
61 96 160
61 97 167
62 97 166
61 97 162
60 96 161
60 95 159
60 96 160
61 97 167
62 98 164
61 97 164
60 95 156
62 97 163
62 98 168
61 97 164
60 96 153
62 97 162
61 97 159
61 97 151
61 96 153
61 96 153
61 97 154
61 97 160
62 98 163
61 97 157
62 97 157
60 96 147
61 96 151
60 96 156
61 97 154
62 98 158
62 98 162
61 97 155
60 95 150
61 97 162
61 97 155
62 98 162
60 96 147
62 98 157
62 98 160
61 97 158
62 97 150
62 98 160
61 96 147
60 95 148
61 96 156
62 98 159
61 97 154
62 98 159
62 98 154
62 97 153
62 98 159
61 97 150
62 97 155
62 98 154
62 98 162
61 96 150
60 95 145
61 97 151
61 96 154
62 97 150
60 96 148
61 97 152
62 98 158
61 96 145
63 98 155
61 97 157
62 97 155
61 96 149
61 96 141
62 97 147
60 95 145
60 95 143
61 96 142
61 96 147
61 96 144
62 97 150
61 96 142
60 95 141
60 95 142
62 97 154
60 95 142
60 95 137
61 95 139
60 95 139
61 96 141
61 97 149
60 95 140
59 93 135
60 94 144
60 94 132
58 92 130
60 93 141
58 92 130
59 93 129
64 93 120
73 94 100
81 93 70
111 119 41
111 117 0
104 108 0
120 126 0
121 127 0
98 103 0
109 112 0
107 109 0
97 100 0
104 105 0
96 97 0
105 104 0
107 108 0
97 97 0
106 108 8
103 105 0
101 102 0
100 98 11
106 103 0
98 98 11
98 98 8
92 92 0
102 100 0
93 90 0
98 98 0
94 94 0
107 107 0
91 88 0
89 88 0
89 86 11
88 84 8
109 107 8
104 101 0
97 93 0
103 99 0
94 92 0
107 104 0
92 86 0
93 89 0
110 104 0
105 101 0
108 103 8
95 89 0
94 89 0
95 91 0
108 105 0
100 95 0
115 112 0
100 96 0
112 107 11
108 103 0
105 99 0
123 118 0
116 113 0
105 101 11
100 97 11
107 102 16
110 105 11
106 103 11
106 101 0
115 111 19
119 112 11
108 100 0
125 117 16
113 108 11
115 112 0
111 105 16
121 117 0
115 112 16
124 121 0
116 114 0
119 114 22
117 115 11
129 130 11
115 113 11
129 130 0
122 122 11
122 120 11
133 135 19
123 121 11
128 129 11
133 134 11
135 137 19
135 139 11
134 138 16
139 141 19
132 138 0
132 135 0
144 149 11
144 148 11
139 145 11
143 151 11
147 153 16
147 154 0
152 161 0
151 161 0
154 166 0
147 156 0
154 166 0
151 161 0
159 171 0
158 168 0
156 164 0
158 170 0
159 171 0
160 175 0
156 170 0
158 171 0
163 175 0
154 165 0
155 171 0
162 177 0
154 169 0
161 175 0
167 184 0
162 175 0
160 174 0
149 162 0
162 177 0
162 177 0
159 175 0
156 171 0
160 176 0
164 179 0
169 187 0
166 182 0
165 180 0
161 177 0
167 187 0
164 181 0
168 186 0
167 183 0
165 180 0
166 186 0
167 184 0
169 187 0
167 186 0
167 185 0
200 224 255
201 224 255
200 224 255
200 224 255
198 223 255
198 223 255
198 223 255
197 222 255
197 223 255
196 222 255
196 222 255
195 221 255
196 222 255
195 221 255
195 221 255
194 220 255
195 221 255
193 220 255
194 220 255
194 220 255
193 220 255
194 220 255
193 220 255
192 220 255
192 220 255
192 220 255
192 220 255
192 219 255
192 220 255
192 220 255
191 219 255
191 219 255
192 220 255
191 219 255
191 219 255
191 219 255
191 219 255
191 219 255
191 219 255
190 219 255
191 219 255
191 219 255
191 219 255
192 219 255
191 219 255
192 220 255
191 219 255
191 219 255
192 219 255
192 220 255
192 220 255
192 220 255
191 219 255
193 220 255
193 220 255
193 220 255
193 220 255
193 220 255
194 221 255
193 220 255
194 221 255
193 220 255
195 221 255
195 221 255
195 221 255
195 221 255
195 221 255
197 222 255
197 222 255
196 222 255
197 222 255
198 223 255
198 223 255
199 223 255
199 223 255
199 223 255
201 224 255
201 224 255
201 224 255
201 225 255
201 224 255
202 225 255
202 225 255
204 226 255
203 225 255
204 226 255
207 227 255
206 227 255
205 226 254
205 225 254
199 219 250
202 223 252
198 219 249
194 215 246
191 211 244
194 214 245
183 203 238
180 201 237
179 199 235
165 186 226
168 189 228
166 186 227
157 178 221
150 172 217
139 162 212
142 164 214
130 153 205
125 149 202
129 152 203
122 145 199
106 132 193
92 119 181
102 127 187
98 124 187
80 109 176
64 97 171
69 99 171
62 96 175
62 97 171
59 95 170
54 87 159
57 91 164
55 88 162
53 86 159
56 90 162
57 91 166
54 87 157
52 85 159
54 88 158
53 86 159
55 89 160
55 89 160
54 87 158
55 89 161
54 88 155
57 92 166
54 88 151
57 91 162
53 86 159
57 91 155
57 92 155
58 94 163
56 90 156
56 91 161
58 93 167
58 93 167
59 94 168
58 93 164
58 93 157
58 93 163
58 93 156
59 95 162
58 93 158
58 93 159
60 95 158
59 94 163
59 94 160
59 94 161
61 97 164
61 97 172
60 96 160
58 93 158
60 96 166
60 95 161
60 95 152
59 94 152
61 97 160
59 95 157
59 93 152
60 95 156
61 96 151
61 97 163
60 96 164
61 97 161
61 97 156
62 98 161
61 97 157
61 97 160
62 98 159
61 97 160
60 96 154
61 97 156
61 96 159
61 97 163
60 95 152
61 96 155
60 96 149
60 95 147
60 96 156
61 97 154
61 97 158
61 97 151
61 96 155
62 98 156
62 97 153
60 96 149
61 97 157
61 96 148
62 98 160
61 96 156
61 96 154
61 97 149
61 97 153
61 97 152
62 98 159
61 96 149
61 97 158
62 97 150
62 97 153
61 97 149
61 96 147
61 96 152
61 97 150
61 97 158
61 97 155
61 97 154
62 97 152
61 97 150
62 98 154
61 96 149
60 95 152
60 95 143
61 97 151
61 97 153
61 96 148
61 97 151
62 98 156
61 96 149
61 96 147
62 98 162
62 97 155
62 97 152
61 96 151
62 98 153
60 95 143
61 97 150
61 96 145
61 96 140
60 95 143
62 97 153
60 95 139
62 97 152
63 98 155
60 95 143
60 95 139
60 95 142
61 96 141
61 96 143
60 95 136
59 93 138
59 93 130
60 95 136
60 94 134
59 92 132
59 93 132
60 94 133
58 91 122
58 92 131
58 92 136
64 93 117
73 94 101
100 112 63
117 125 31
107 114 18
114 118 0
114 123 0
117 122 11
113 115 11
109 113 0
111 115 0
100 104 0
93 95 0
93 93 0
117 120 0
100 100 11
96 100 0
100 100 0
85 86 0
96 96 0
107 110 0
102 101 0
92 92 0
96 97 8
97 97 11
86 85 0
89 87 0
89 87 0
85 83 0
104 100 0
94 93 0
107 107 0
109 106 0
104 102 8
101 95 0
92 88 0
95 93 0
104 99 0
93 92 0
101 98 0
98 94 0
107 102 0
101 98 0
105 101 0
106 101 0
111 107 0
113 110 0
107 103 0
110 104 0
104 101 0
106 103 16
104 101 0
112 106 16
105 101 0
104 99 0
102 100 0
100 95 0
99 97 0
120 114 11
102 100 11
116 113 0
102 99 11
109 102 0
118 115 11
119 116 22
123 121 11
118 115 11
115 111 0
114 113 16
122 118 19
127 126 0
112 107 19
117 116 19
111 106 0
120 117 16
123 120 0
130 130 0
115 110 11
126 127 11
123 124 0
135 136 11
127 127 0
133 134 0
126 128 0
127 130 0
130 130 0
137 138 11
133 136 11
137 142 0
138 141 0
144 151 0
143 150 0
149 156 0
141 149 11
148 157 0
146 155 0
153 164 0
155 163 0
154 164 0
153 163 0
154 162 0
161 171 0
152 161 0
159 172 0
157 170 0
158 170 0
159 172 0
160 173 0
157 168 0
159 173 0
158 172 0
153 166 0
154 169 0
159 171 0
161 175 0
166 182 0
160 175 0
162 178 0
163 175 0
163 179 0
160 176 0
153 169 0
166 181 0
162 179 0
162 178 0
164 180 0
159 172 0
160 175 0
159 173 0
166 183 0
163 182 0
163 180 0
158 173 0
166 181 0
164 182 0
163 178 0
168 183 0
167 186 0
168 187 0
162 176 0
170 191 0
200 224 255
200 224 255
199 223 255
200 224 255
199 223 255
197 222 255
197 222 255
196 222 255
198 223 255
196 222 255
195 221 255
195 221 255
195 221 255
193 220 255
195 221 255
194 221 255
193 220 255
193 220 255
194 221 255
192 219 255
192 220 255
192 220 255
193 220 255
192 220 255
191 219 255
191 219 255
191 219 255
192 220 255
191 219 255
192 219 255
191 219 255
191 219 255
190 219 255
190 219 255
189 218 255
190 219 255
190 219 255
190 219 255
191 219 255
190 219 255
190 219 255
190 219 255
190 219 255
190 218 255
190 218 255
191 219 255
190 219 255
191 219 255
191 219 255
191 219 255
191 219 255
192 220 255
191 219 255
192 220 255
192 219 255
192 220 255
192 220 255
193 220 255
193 220 255
194 221 255
194 221 255
193 220 255
194 221 255
194 221 255
194 221 255
195 221 255
195 221 255
196 222 255
197 222 255
196 222 255
197 222 255
198 223 255
197 222 255
198 223 255
199 223 255
199 223 255
199 223 255
199 223 255
201 224 255
201 225 255
202 225 255
202 225 255
203 225 255
202 225 255
203 226 255
204 226 255
205 226 255
205 227 255
206 227 255
205 226 254
205 226 254
198 218 249
200 221 251
199 219 250
192 212 244
189 209 242
195 215 246
170 191 231
180 200 236
158 180 223
160 181 223
165 186 226
159 181 223
154 176 220
146 168 214
148 169 215
131 155 205
139 161 208
133 156 207
126 148 201
127 150 204
111 136 194
109 133 190
99 124 185
90 117 181
82 111 175
78 108 176
67 98 171
69 99 168
60 93 161
57 93 169
53 87 159
55 89 164
56 91 167
54 87 162
55 89 162
54 88 161
56 91 168
54 88 159
52 84 154
55 90 167
56 90 160
56 90 163
53 86 159
53 86 153
54 88 157
56 89 161
55 89 159
57 92 167
57 92 166
57 92 164
54 87 158
58 92 165
55 88 152
57 91 159
55 90 154
60 96 171
58 93 160
60 95 164
58 93 163
58 93 162
59 94 161
58 92 158
60 95 160
61 97 167
58 94 158
59 95 155
59 94 162
59 95 160
60 96 164
60 95 156
60 96 155
60 96 163
60 95 161
59 94 157
61 97 161
60 96 158
61 96 161
61 97 161
61 97 162
60 96 161
60 96 155
61 97 164
61 97 161
61 97 156
62 98 163
61 97 156
60 96 156
59 95 156
61 97 157
62 98 164
61 96 159
61 96 148
61 97 159
62 98 161
61 96 156
61 97 151
60 96 154
61 96 152
61 97 155
61 97 162
61 97 159
62 98 155
62 98 158
61 97 155
62 98 165
62 98 158
62 98 156
61 97 158
61 96 144
61 96 151
61 96 150
63 98 157
61 97 157
60 95 147
61 97 160
60 95 152
62 98 160
62 98 157
61 96 151
62 98 154
61 97 153
61 96 152
62 97 151
61 96 154
60 96 144
61 96 150
62 98 154
62 98 150
63 98 161
60 95 140
60 95 148
61 97 151
61 96 149
61 97 155
60 96 148
62 98 154
61 96 144
61 97 149
60 95 147
61 96 141
61 96 150
60 95 139
61 97 151
61 96 143
61 97 149
60 95 142
61 96 145
60 95 141
62 96 140
61 96 143
61 97 153
61 96 145
62 97 153
60 94 147
61 95 137
59 94 135
59 94 133
60 95 144
60 94 134
60 94 140
60 95 147
60 94 133
60 94 141
60 95 140
59 92 130
60 94 133
58 91 122
60 93 132
75 102 118
85 102 81
101 114 61
111 115 0
116 123 0
120 126 0
119 128 0
109 113 0
108 113 0
118 123 0
102 107 0
121 126 0
107 111 0
102 103 0
109 112 0
100 102 0
89 87 0
107 108 0
104 107 0
92 89 0
114 116 0
96 97 0
105 103 0
98 95 11
95 91 0
82 80 0
114 115 0
108 110 0
90 91 0
108 106 0
93 91 0
102 99 0
100 97 0
100 97 0
104 101 0
100 97 0
95 90 8
107 104 0
96 98 0
98 93 0
95 94 0
102 101 0
104 101 0
92 86 11
102 101 0
108 101 0
108 105 0
106 104 0
106 103 0
95 92 0
111 107 0
99 97 0
111 106 0
95 90 0
112 109 0
111 107 11
118 115 11
115 110 0
119 114 0
106 104 0
116 113 0
106 102 11
113 109 0
107 104 11
114 111 0
116 113 11
125 122 0
118 114 16
120 116 11
119 113 0
122 121 19
128 127 16
120 116 0
117 114 0
129 130 11
109 108 0
128 128 0
122 124 0
132 133 11
137 141 11
124 126 0
133 132 0
130 133 19
133 135 11
135 133 16
135 140 11
132 135 0
130 132 0
136 142 16
142 146 0
144 152 0
140 142 0
139 145 0
147 153 0
141 147 0
145 150 0
154 165 0
152 159 0
154 162 0
157 166 0
147 156 0
155 166 0
155 166 0
160 172 0
153 163 0
158 171 0
156 169 0
156 166 0
164 178 0
159 171 0
154 166 0
160 174 0
153 165 0
151 163 0
157 169 0
154 167 0
158 172 0
159 173 0
159 175 0
161 177 0
159 174 0
158 173 0
159 172 0
163 179 0
161 176 0
163 179 0
160 175 0
160 174 0
163 178 0
163 178 0
160 174 0
167 184 0
160 175 0
162 177 0
164 180 0
161 177 0
167 186 0
164 181 0
163 179 0
168 186 0
163 180 0
198 223 255
200 224 255
198 223 255
198 223 255
197 222 255
196 222 255
195 221 255
196 222 255
195 221 255
194 220 255
194 221 255
194 221 255
194 220 255
194 221 255
194 220 255
193 220 255
194 221 255
192 220 255
193 220 255
192 220 255
191 219 255
192 220 255
191 219 255
192 220 255
191 219 255
190 219 255
190 219 255
190 219 255
191 219 255
191 219 255
190 219 255
190 219 255
191 219 255
190 218 255
189 218 255
190 218 255
190 219 255
190 219 255
190 219 255
189 218 255
189 218 255
189 218 255
191 219 255
191 219 255
190 219 255
190 218 255
190 219 255
190 219 255
190 219 255
190 219 255
190 219 255
190 219 255
191 219 255
191 219 255
192 219 255
192 220 255
192 220 255
192 220 255
192 220 255
193 220 255
193 220 255
193 220 255
193 220 255
194 220 255
193 220 255
194 221 255
195 221 255
195 221 255
196 222 255
196 222 255
196 222 255
196 222 255
197 222 255
197 222 255
198 223 255
197 222 255
199 223 255
200 224 255
199 223 255
200 224 255
200 224 255
200 224 255
201 224 255
202 225 255
202 225 255
203 226 255
205 226 255
205 226 255
205 227 255
204 225 254
206 227 255
201 222 252
202 223 252
202 223 252
199 219 250
193 214 246
187 208 241
174 195 233
181 201 237
162 183 226
172 193 231
167 188 227
177 197 233
144 167 214
149 171 217
148 170 215
145 167 214
141 163 211
124 148 202
124 147 201
117 142 200
132 154 204
95 122 184
101 126 185
80 109 179
92 119 177
77 107 178
85 112 176
67 97 167
55 90 164
55 90 162
56 91 165
52 85 151
55 89 159
53 86 154
54 87 157
54 88 160
56 90 163
51 84 155
54 88 163
52 84 154
55 89 159
54 88 163
54 87 153
54 87 159
54 87 155
54 87 160
54 88 157
55 89 158
57 92 161
56 90 156
56 90 160
55 89 158
54 88 154
58 92 161
57 92 161
59 95 166
59 94 164
59 94 162
58 93 159
59 94 159
59 94 159
59 94 160
59 94 155
61 97 162
58 93 151
60 96 162
59 94 154
59 95 161
59 95 161
59 94 156
59 94 156
60 95 161
56 90 145
59 95 151
61 97 161
61 97 163
62 98 165
60 95 153
61 96 165
61 96 161
60 96 162
60 96 157
61 96 161
61 97 165
60 96 154
61 96 147
61 96 155
61 96 155
61 97 158
60 95 157
60 95 148
61 97 155
62 98 164
61 97 163
62 98 166
61 97 149
62 98 157
61 96 150
61 97 155
62 98 163
62 98 163
60 96 153
61 97 158
61 96 150
61 97 154
62 98 155
60 95 147
60 95 145
60 95 148
62 97 154
62 98 161
61 96 150
61 97 150
62 97 158
62 97 152
61 96 148
59 95 145
61 96 147
61 97 147
62 98 157
62 97 152
61 97 154
60 95 145
62 97 157
61 97 149
60 96 149
61 96 148
61 97 159
61 97 145
62 97 154
62 97 154
62 97 148
60 95 147
61 97 154
61 96 145
62 97 154
60 95 141
61 96 147
60 96 142
61 96 147
61 97 150
61 96 148
61 96 139
61 97 149
60 96 143
60 95 140
60 96 144
61 96 148
60 96 142
61 96 147
61 97 149
61 97 144
60 95 136
61 95 135
60 95 137
61 96 148
61 96 145
60 95 133
59 93 136
60 95 134
60 95 143
59 94 135
60 94 135
61 95 144
60 94 138
60 94 134
59 93 127
59 92 125
75 98 105
101 116 87
115 122 48
113 119 18
111 116 0
120 126 0
118 124 0
104 109 0
101 103 0
105 106 0
105 108 0
112 118 0
105 110 0
108 112 0
102 106 11
91 94 0
109 112 0
111 115 0
94 97 11
96 99 0
109 111 11
101 104 0
92 91 0
100 100 0
96 97 0
94 93 0
97 96 0
85 83 0
107 109 0
102 99 0
101 99 0
103 100 11
89 86 8
104 101 0
103 100 11
95 94 0
94 92 0
107 104 0
96 94 0
104 101 0
105 103 0
101 97 0
93 90 0
92 89 0
95 91 0
103 99 0
116 111 0
107 103 0
97 90 0
101 95 0
101 97 11
114 109 0
104 99 0
110 106 0
115 111 8
114 111 16
112 107 0
109 105 0
115 111 0
113 110 0
100 97 0
104 99 11
113 108 0
114 112 0
121 118 0
124 122 11
107 104 11
105 103 0
118 117 16
123 121 11
124 122 11
122 121 0
120 120 0
115 116 0
122 120 0
132 130 11
122 121 11
130 130 11
126 126 0
122 122 0
132 134 0
128 127 16
133 134 0
144 151 11
137 143 11
127 129 0
136 138 11
138 141 16
146 152 0
145 150 0
152 158 11
146 153 0
146 155 0
150 158 0
153 161 0
145 152 0
154 162 0
148 155 0
153 162 0
157 166 0
155 163 0
150 159 0
151 162 0
158 169 0
148 157 0
157 168 0
153 164 0
161 175 0
155 165 0
151 164 0
163 178 0
157 170 0
157 169 0
161 176 0
161 175 0
162 177 0
154 169 0
160 174 0
161 177 0
159 176 0
161 175 0
160 175 0
156 171 0
164 182 0
163 178 0
162 178 0
159 175 0
161 178 0
161 177 0
166 182 0
162 180 0
160 178 0
166 185 0
160 177 0
165 182 0
161 177 0
163 181 0
163 179 0
165 183 0
165 182 0
167 186 0
198 223 255
198 223 255
199 223 255
198 223 255
196 222 255
195 221 255
196 222 255
195 221 255
195 221 255
194 221 255
194 221 255
193 220 255
193 220 255
193 220 255
193 220 255
193 220 255
193 220 255
192 219 255
191 219 255
192 219 255
192 220 255
192 220 255
190 219 255
190 218 255
190 219 255
189 218 255
191 219 255
190 218 255
189 218 255
190 218 255
189 218 255
189 218 255
189 218 255
189 218 255
189 218 255
189 218 255
189 218 255
189 218 255
190 218 255
189 218 255
189 218 255
189 218 255
189 218 255
189 218 255
189 218 255
189 218 255
189 218 255
190 218 255
190 219 255
190 218 255
190 219 255
190 219 255
190 219 255
191 219 255
191 219 255
190 219 255
192 219 255
191 219 255
191 219 255
191 219 255
192 220 255
192 220 255
192 220 255
193 220 255
194 220 255
194 220 255
194 221 255
195 221 255
195 221 255
195 221 255
196 222 255
197 222 255
196 221 255
197 222 255
197 222 255
197 222 255
197 222 255
198 223 255
199 223 255
199 224 255
200 224 255
201 225 255
201 224 255
202 225 255
203 225 255
203 225 255
202 225 255
204 226 255
206 227 255
204 226 255
206 227 255
204 226 255
204 225 254
200 220 250
195 215 247
192 213 245
192 213 245
188 209 242
182 204 238
185 205 240
171 192 230
172 193 231
175 195 233
163 184 226
159 180 222
158 179 221
146 168 216
148 170 215
136 159 209
131 154 207
126 149 204
117 142 198
108 134 193
112 137 194
101 126 184
78 109 177
95 121 183
72 103 177
72 102 170
68 100 172
62 94 161
57 93 166
56 90 163
55 89 164
53 86 160
54 87 159
56 90 164
53 86 159
53 87 158
53 86 158
53 87 157
54 87 157
54 87 156
53 86 159
56 90 159
55 89 160
53 87 160
55 89 162
55 89 158
53 86 155
57 91 156
56 91 166
55 88 160
58 93 165
57 92 156
57 91 158
57 91 160
58 93 160
59 95 163
58 93 156
60 96 162
57 92 155
59 94 164
58 92 160
59 94 161
60 95 159
58 93 156
61 97 165
61 97 168
60 96 158
58 94 154
61 97 164
60 96 161
59 94 165
61 97 164
59 94 158
58 93 153
60 96 155
60 96 160
58 94 151
61 96 155
61 97 161
61 96 154
60 96 154
61 97 161
60 96 160
60 96 157
61 96 155
61 96 150
61 96 161
61 97 158
61 96 155
59 95 154
61 96 159
61 97 160
61 97 158
61 97 152
62 98 153
61 96 149
62 97 156
62 97 154
62 97 159
60 95 150
63 99 166
61 97 158
61 97 161
61 97 150
60 96 150
62 97 151
61 97 154
61 97 154
61 97 147
62 98 162
62 97 151
61 96 151
62 97 148
61 97 156
61 96 145
61 96 152
61 97 150
61 97 153
60 95 140
62 97 153
63 98 156
61 97 150
59 95 144
60 95 149
60 96 148
62 97 148
61 96 143
61 96 143
60 95 143
61 97 151
62 97 149
61 96 150
61 97 151
61 96 144
61 97 156
61 97 150
60 95 143
61 96 141
61 96 148
61 96 143
60 95 143
61 96 152
60 95 142
62 97 148
60 95 144
62 97 153
61 96 142
61 96 147
60 95 134
60 95 136
61 95 144
61 96 148
60 94 140
61 95 140
61 97 145
61 96 141
60 94 139
59 93 134
59 93 131
59 94 135
59 93 134
59 94 139
58 92 122
60 94 138
58 92 120
60 90 108
80 99 110
104 117 70
117 125 25
122 131 0
110 116 0
107 113 0
107 111 0
127 131 0
117 120 0
112 117 0
105 109 0
104 108 0
104 106 0
110 113 0
103 106 0
117 120 0
112 117 0
104 108 0
107 108 0
103 105 0
107 107 0
106 107 0
103 101 0
108 110 0
98 102 0
105 104 0
100 100 0
97 99 0
100 101 0
106 105 0
109 105 0
113 114 0
99 99 0
108 105 0
97 95 0
103 103 0
98 96 0
106 104 0
99 94 0
98 94 0
115 114 0
105 101 0
88 87 0
105 102 0
109 105 0
105 100 0
104 104 0
96 92 0
111 109 8
110 106 0
100 98 11
100 94 0
105 103 0
116 114 0
112 110 0
111 108 0
102 96 11
121 117 11
120 116 0
114 111 11
119 118 11
109 107 0
105 103 0
116 113 0
106 103 11
122 119 11
117 114 0
113 109 16
115 113 0
120 118 0
125 126 0
122 121 0
127 126 16
126 127 0
133 132 16
121 122 0
131 133 0
130 131 11
129 131 0
126 125 11
131 135 0
139 139 16
136 141 0
132 134 11
139 142 0
141 144 11
140 143 0
140 145 0
145 151 0
149 152 0
142 146 0
150 157 0
147 153 0
158 165 0
149 154 0
152 161 0
147 155 0
152 160 0
151 160 0
159 171 0
152 161 0
150 160 0
155 168 0
148 159 0
152 162 0
154 166 0
156 168 0
153 164 0
158 170 0
153 166 0
158 170 0
160 174 0
154 167 0
160 173 0
156 168 0
157 171 0
158 173 0
159 173 0
161 173 0
164 178 0
154 170 0
157 173 0
163 177 0
162 178 0
165 181 0
158 172 0
162 179 0
160 174 0
157 173 0
164 181 0
164 181 0
162 180 0
163 181 0
163 179 0
160 176 0
166 185 0
162 179 0
161 178 0
163 179 0
167 185 0
165 183 0
199 223 255
197 222 255
196 222 255
196 222 255
196 222 255
195 221 255
195 221 255
195 221 255
194 221 255
193 220 255
193 220 255
192 220 255
193 220 255
192 219 255
191 219 255
192 220 255
191 219 255
192 220 255
192 219 255
190 219 255
190 218 255
191 219 255
190 219 255
190 219 255
190 218 255
189 218 255
190 219 255
189 218 255
189 218 255
189 218 255
189 218 255
188 218 255
188 218 255
189 218 255
189 218 255
189 218 255
188 218 255
188 218 255
188 218 255
189 218 255
188 218 255
188 218 255
188 218 255
189 218 255
189 218 255
189 218 255
190 218 255
189 218 255
189 218 255
189 218 255
189 218 255
190 219 255
190 219 255
190 218 255
191 219 255
191 219 255
190 219 255
191 219 255
191 219 255
191 219 255
191 219 255
192 220 255
192 220 255
193 220 255
192 220 255
193 220 255
193 220 255
194 221 255
194 221 255
195 221 255
196 222 255
195 221 255
196 222 255
196 222 255
196 222 255
196 222 255
198 223 255
198 223 255
198 223 255
200 224 255
199 223 255
200 224 255
201 224 255
201 225 255
200 224 255
202 225 255
201 225 255
204 226 255
204 226 255
205 226 255
205 227 255
205 226 255
205 225 254
203 224 253
200 221 251
198 219 250
203 223 252
195 215 246
194 215 246
193 213 245
186 206 240
166 187 228
174 194 231
173 193 231
165 186 227
171 191 229
146 168 214
148 170 214
143 166 214
139 161 210
130 153 205
132 155 204
121 145 199
121 145 200
108 133 193
95 122 183
99 124 185
83 112 180
74 104 173
78 107 174
68 100 167
61 95 166
60 93 165
55 89 162
53 86 156
57 91 165
52 85 159
52 84 155
50 83 154
53 86 156
54 87 158
51 84 156
54 88 160
53 86 157
55 89 158
55 89 158
52 85 149
56 90 159
55 89 161
55 89 152
57 91 159
57 91 157
57 91 163
60 95 158
57 92 161
59 94 161
58 93 161
57 92 160
58 93 154
59 94 156
57 92 150
58 93 155
58 93 158
59 95 160
57 92 159
59 94 157
59 94 163
59 94 158
60 96 158
59 94 154
60 96 160
59 93 153
60 95 153
60 95 163
60 96 154
61 97 161
59 95 157
61 97 161
59 94 153
59 95 151
61 97 167
60 95 157
60 96 157
61 97 162
60 96 153
58 94 148
62 98 158
61 97 161
60 95 156
61 96 157
60 96 153
61 96 147
62 98 160
61 97 153
60 96 155
60 96 154
62 97 155
61 97 155
61 97 158
62 98 162
63 99 161
59 94 143
61 96 151
62 98 159
60 96 147
61 96 150
62 98 156
60 96 153
61 97 159
62 98 154
60 96 140
61 96 154
61 97 159
62 98 158
61 96 150
60 96 145
62 97 154
61 96 151
62 97 155
61 96 149
60 96 155
61 97 152
61 97 153
61 96 149
60 95 139
61 96 152
61 97 156
62 97 156
61 97 145
61 97 151
61 96 144
60 95 139
62 97 154
61 96 148
60 96 148
61 96 153
61 96 145
62 97 151
60 95 140
60 95 142
61 96 144
60 95 141
60 96 144
62 97 150
62 97 145
62 97 147
61 96 148
61 96 145
60 95 145
60 94 142
60 95 141
62 97 150
60 95 130
61 96 144
60 94 135
60 95 137
59 93 134
59 93 140
60 95 142
60 95 143
60 94 135
59 93 126
61 95 145
60 94 142
59 93 132
60 94 132
58 91 120
58 91 128
67 94 116
88 104 92
105 114 70
114 122 31
117 124 0
108 114 0
109 115 0
102 106 0
107 111 0
110 118 0
114 120 0
118 123 0
112 117 0
102 108 0
106 107 0
115 120 0
109 109 0
112 116 0
102 103 0
108 112 0
102 104 0
100 102 0
108 110 0
117 118 0
104 107 0
103 106 0
111 108 0
108 109 0
114 115 0
106 107 0
99 100 0
103 103 0
105 105 0
104 103 0
102 101 0
117 118 0
106 104 0
107 106 0
96 91 0
93 92 0
97 95 0
107 109 0
117 116 0
98 96 0
104 100 0
99 96 0
103 102 0
103 102 0
108 105 0
117 117 0
112 108 11
93 88 0
108 105 0
117 113 0
100 97 0
108 105 0
112 111 0
110 106 0
113 110 0
108 104 0
118 113 0
114 114 0
119 118 0
114 110 0
116 115 0
118 116 0
116 114 0
124 123 0
126 126 11
117 114 0
120 118 0
128 128 11
129 132 0
128 127 0
131 132 11
121 120 0
130 130 0
132 135 0
126 128 0
137 141 0
129 130 0
123 125 0
140 147 0
135 137 11
136 142 0
137 141 0
141 144 0
149 154 0
145 151 0
140 148 0
142 149 0
144 152 0
148 155 0
148 157 0
149 158 0
147 157 0
145 152 0
148 159 0
156 167 0
147 155 0
152 163 0
156 167 0
156 168 0
161 173 0
151 162 0
153 166 0
160 172 0
160 172 0
159 172 0
159 176 0
153 167 0
155 167 0
159 171 0
157 172 0
163 178 0
158 171 0
156 166 0
158 173 0
158 172 0
163 179 0
164 180 0
166 180 0
160 176 0
160 176 0
164 180 0
163 179 0
159 172 0
158 174 0
162 179 0
159 173 0
162 177 0
159 173 0
162 179 0
165 181 0
164 180 0
163 181 0
161 179 0
166 185 0
165 182 0
168 186 0
164 182 0
166 184 0
195 221 255
196 222 255
196 222 255
195 221 255
194 221 255
195 221 255
194 221 255
193 220 255
194 220 255
193 220 255
192 220 255
192 220 255
192 220 255
192 220 255
191 219 255
191 219 255
191 219 255
191 219 255
191 219 255
190 218 255
190 218 255
189 218 255
190 218 255
188 218 255
189 218 255
189 218 255
189 218 255
189 218 255
189 218 255
189 218 255
189 218 255
189 218 255
188 217 255
188 218 255
188 218 255
188 218 255
187 217 255
189 218 255
187 217 255
188 217 255
187 217 255
189 218 255
188 218 255
188 218 255
188 218 255
188 217 255
188 218 255
188 218 255
188 217 255
188 218 255
190 218 255
189 218 255
189 218 255
189 218 255
190 219 255
190 219 255
191 219 255
190 219 255
191 219 255
191 219 255
191 219 255
191 219 255
192 219 255
192 219 255
193 220 255
192 220 255
193 220 255
193 220 255
193 220 255
195 221 255
194 221 255
195 221 255
196 222 255
195 221 255
197 222 255
198 223 255
197 222 255
198 223 255
197 222 255
199 223 255
199 224 255
199 223 255
200 224 255
200 224 255
202 225 255
202 225 255
202 225 255
203 225 255
202 225 255
203 225 255
204 226 255
205 226 255
204 226 255
205 226 255
206 226 254
202 223 252
203 224 252
189 210 244
195 216 247
186 206 240
187 208 242
180 200 236
172 193 230
181 201 237
185 205 237
162 183 224
159 180 222
154 176 220
161 181 221
149 171 216
132 155 206
137 159 207
113 138 193
131 153 203
111 135 187
98 124 185
106 130 188
78 108 177
91 117 179
73 102 170
77 106 174
65 97 170
61 94 168
57 92 167
55 90 163
56 89 160
51 84 153
54 87 160
53 85 158
56 90 161
54 87 151
55 89 160
53 86 154
51 83 148
56 90 165
53 87 154
56 89 160
53 86 155
52 85 151
53 86 153
57 91 157
56 91 162
57 92 159
54 87 151
58 93 158
56 91 163
58 92 158
58 93 160
58 92 156
58 93 163
56 91 151
56 90 151
59 94 161
59 94 158
60 96 159
57 92 153
59 95 162
59 94 158
58 93 154
61 97 165
58 93 151
60 96 165
59 95 157
59 94 152
60 96 159
59 95 157
60 96 159
60 96 165
61 96 163
60 95 156
60 95 151
60 96 157
61 97 161
60 96 154
61 97 159
61 96 156
60 95 153
61 97 163
61 96 157
60 96 153
61 96 154
61 97 162
61 96 160
61 97 154
61 97 156
60 95 145
60 96 147
63 98 159
62 97 162
62 98 162
60 95 147
61 97 159
61 96 147
61 97 156
62 97 150
62 98 156
61 97 154
62 97 153
62 97 154
61 96 151
61 97 147
61 97 152
61 97 155
61 97 149
61 97 151
60 95 147
61 97 155
62 97 155
61 96 147
60 95 139
61 97 144
61 97 150
60 96 147
61 97 148
61 96 152
61 95 150
61 96 145
62 98 159
61 97 152
61 96 149
62 97 153
61 96 150
61 97 154
62 98 157
60 96 144
62 98 157
61 96 151
60 96 145
61 97 147
61 96 144
62 97 151
61 96 140
60 95 144
62 97 150
61 96 139
61 96 144
61 96 144
60 95 134
60 95 141
60 95 135
60 95 143
62 97 147
59 94 134
61 96 145
60 95 141
60 95 131
61 96 143
62 96 146
62 97 152
61 96 149
60 95 137
59 93 130
58 92 132
58 92 129
59 93 136
59 92 132
59 92 125
61 93 123
67 91 106
93 107 75
96 107 57
116 123 0
104 112 0
112 120 0
106 110 0
108 111 0
109 114 0
115 120 0
106 111 0
116 120 0
101 106 0
113 117 0
116 123 0
117 122 0
117 121 0
102 106 0
121 124 0
101 104 11
107 110 0
110 112 0
108 109 11
99 99 0
89 89 0
114 115 0
108 113 0
108 105 0
112 114 0
107 106 0
93 94 0
95 96 0
104 102 0
102 99 0
101 101 0
100 100 0
102 103 0
107 107 0
105 104 0
106 106 0
107 106 0
108 106 0
107 104 0
114 116 0
108 107 0
102 100 0
102 97 0
96 92 0
104 105 0
109 107 0
111 107 0
110 109 0
111 105 0
119 115 0
112 109 16
117 114 0
112 108 0
116 114 0
113 112 0
107 107 0
126 125 0
103 102 0
117 116 0
115 111 0
117 118 0
128 128 0
118 117 11
115 115 0
120 117 16
128 128 0
128 132 11
123 125 0
124 124 11
130 131 0
132 137 11
130 131 0
131 131 0
139 142 0
134 139 0
134 137 0
133 138 0
130 135 0
131 132 11
136 141 0
141 145 0
137 140 11
142 148 0
138 147 0
148 153 0
139 147 0
149 155 0
141 145 0
151 161 0
147 156 0
149 159 0
154 163 0
153 161 0
144 152 0
153 161 0
150 159 0
160 171 0
156 168 0
157 168 0
154 165 0
159 172 0
161 174 0
161 175 0
162 173 0
157 170 0
160 176 0
162 173 0
151 164 0
160 172 0
158 171 0
161 175 0
163 179 0
163 176 0
155 169 0
159 171 0
165 182 0
161 177 0
164 181 0
163 176 0
169 185 0
165 181 0
160 174 0
163 180 0
165 183 0
161 178 0
162 180 0
166 183 0
161 178 0
165 181 0
163 182 0
163 181 0
163 178 0
165 182 0
161 176 0
163 181 0
164 183 0
165 183 0
163 179 0
197 222 255
195 221 255
195 221 255
195 221 255
194 220 255
194 221 255
194 221 255
194 220 255
192 220 255
192 220 255
192 220 255
192 219 255
192 219 255
191 219 255
192 219 255
191 219 255
191 219 255
190 218 255
190 218 255
190 219 255
189 218 255
189 218 255
189 218 255
189 218 255
189 218 255
188 218 255
189 218 255
189 218 255
188 217 255
188 217 255
187 217 255
188 217 255
187 217 255
188 217 255
187 217 255
187 217 255
188 218 255
188 217 255
187 217 255
187 217 255
188 217 255
187 217 255
188 218 255
188 217 255
187 217 255
188 217 255
188 218 255
188 217 255
189 218 255
188 218 255
189 218 255
189 218 255
189 218 255
189 218 255
189 218 255
189 218 255
190 218 255
190 218 255
189 218 255
191 219 255
191 219 255
191 219 255
191 219 255
191 219 255
192 219 255
192 220 255
192 220 255
193 220 255
193 220 255
194 221 255
194 221 255
194 221 255
194 221 255
194 221 255
195 221 255
195 221 255
196 222 255
197 222 255
198 223 255
198 223 255
198 223 255
198 223 255
199 223 255
200 224 255
200 224 255
201 224 255
201 225 255
201 225 255
202 225 255
204 226 255
204 226 255
204 226 255
205 226 255
205 227 255
204 225 254
199 220 250
197 218 249
196 217 248
190 210 243
193 213 245
192 212 244
188 208 241
181 201 236
180 200 235
175 196 233
160 182 223
166 187 226
149 171 216
162 183 224
149 171 216
156 177 220
143 165 211
133 156 207
119 144 200
116 140 195
102 128 189
115 139 194
100 126 187
102 127 186
74 104 172
77 107 176
65 95 164
64 95 164
62 96 170
57 90 159
56 91 160
55 89 160
54 87 156
53 86 158
51 83 153
53 86 151
53 86 153
52 84 159
53 87 158
52 84 151
54 87 154
53 86 150
55 89 154
51 83 149
55 88 150
55 90 156
56 90 159
56 91 156
52 86 149
55 88 149
53 86 148
56 90 157
58 93 162
57 91 154
56 91 156
59 94 160
58 93 159
57 92 153
58 94 158
58 93 157
59 94 161
58 93 151
58 92 159
59 95 159
60 95 157
59 95 160
60 95 159
60 95 156
58 93 147
59 93 154
59 93 159
60 96 156
60 95 157
59 94 156
62 98 162
60 96 156
61 97 159
61 97 154
61 96 152
61 97 158
60 95 150
61 96 157
61 97 161
61 97 160
60 96 155
61 97 159
62 97 158
62 98 164
60 96 157
61 97 153
61 96 156
62 97 155
61 97 158
61 97 157
61 96 153
62 97 159
62 97 162
61 97 158
61 96 149
62 98 164
61 97 154
60 95 145
61 96 147
60 96 149
62 98 157
62 97 158
61 96 148
61 97 148
62 98 160
61 97 150
60 96 144
61 97 154
60 95 147
61 97 151
60 95 149
62 97 155
60 95 142
60 96 144
61 97 152
61 96 137
61 97 152
61 96 154
61 97 153
61 97 151
59 95 140
61 96 142
61 96 151
61 96 153
61 96 147
61 96 147
62 97 154
62 97 150
60 95 143
62 98 157
60 96 143
61 96 143
60 95 133
62 97 149
61 95 144
61 96 143
60 96 143
60 94 133
61 96 149
59 94 136
59 93 134
60 95 137
61 96 147
59 93 137
60 95 137
60 95 143
61 95 138
60 96 140
60 95 139
61 95 144
59 93 133
61 96 145
61 96 145
59 93 134
58 92 130
60 95 140
58 92 126
56 89 118
61 91 116
77 96 101
96 109 77
107 116 44
111 115 0
127 138 0
117 125 0
113 122 0
116 121 0
114 119 0
121 127 0
109 114 0
115 120 0
101 104 0
91 98 0
116 120 0
112 115 0
112 117 0
104 106 0
111 115 0
110 113 0
105 109 0
113 114 0
111 114 0
112 116 0
101 103 0
106 109 0
112 114 0
97 98 0
102 106 0
108 109 0
114 115 0
96 96 0
104 105 0
107 107 0
103 104 0
93 94 0
111 112 0
104 104 0
105 107 0
105 103 0
110 109 0
105 103 0
100 99 0
104 103 0
118 118 0
113 113 0
108 107 0
109 106 0
97 94 0
108 108 0
112 111 0
102 101 0
108 104 0
103 102 0
115 113 0
122 120 0
117 115 0
115 111 0
108 104 0
120 120 0
117 115 0
116 117 0
117 117 0
112 109 11
122 125 0
130 133 0
126 124 0
114 112 0
119 118 0
123 124 0
133 134 0
132 134 0
125 126 0
131 133 0
129 134 0
137 140 0
125 126 0
138 142 0
125 128 0
132 134 0
137 142 0
137 142 0
126 131 0
141 146 0
134 137 0
143 149 0
147 155 0
141 148 0
146 152 0
148 154 0
153 162 0
145 150 0
147 153 0
149 158 0
149 156 0
151 158 0
153 162 0
148 155 0
153 162 0
154 165 0
154 163 0
153 163 0
156 168 0
154 162 0
156 167 0
158 172 0
157 169 0
154 166 0
153 165 0
149 159 0
158 171 0
157 170 0
160 173 0
159 170 0
160 174 0
158 172 0
159 176 0
154 167 0
158 174 0
159 173 0
158 172 0
162 176 0
162 179 0
163 179 0
161 178 0
158 174 0
162 180 0
166 184 0
162 181 0
162 175 0
162 179 0
166 183 0
161 176 0
167 185 0
165 181 0
160 176 0
164 181 0
165 182 0
167 186 0
165 182 0
164 182 0
167 185 0
196 222 255
195 221 255
195 221 255
195 221 255
194 221 255
193 220 255
192 220 255
192 220 255
191 219 255
192 220 255
191 219 255
191 219 255
190 218 255
191 219 255
191 219 255
190 219 255
190 218 255
189 218 255
188 218 255
189 218 255
189 218 255
189 218 255
188 218 255
188 218 255
187 217 255
187 217 255
188 217 255
188 218 255
187 217 255
187 217 255
188 217 255
188 217 255
187 217 255
187 217 255
187 217 255
187 217 255
186 217 255
187 217 255
187 217 255
187 217 255
186 217 255
187 217 255
187 217 255
188 217 255
187 217 255
187 217 255
187 217 255
187 217 255
188 217 255
188 217 255
188 217 255
188 217 255
188 218 255
188 218 255
189 218 255
189 218 255
189 218 255
189 218 255
189 218 255
190 218 255
190 219 255
190 219 255
190 219 255
191 219 255
191 219 255
191 219 255
192 220 255
192 220 255
192 220 255
193 220 255
193 220 255
193 220 255
194 221 255
194 221 255
196 222 255
195 221 255
196 222 255
197 222 255
197 222 255
197 222 255
197 222 255
198 223 255
199 224 255
200 224 255
199 223 255
200 224 255
200 224 255
202 225 255
202 225 255
203 225 255
204 226 255
203 226 255
204 226 255
205 227 255
205 226 254
203 224 254
200 221 251
200 221 251
198 219 250
198 219 249
192 212 244
193 213 245
185 205 240
176 196 233
171 192 229
174 195 231
169 190 228
165 185 225
154 175 218
156 177 220
132 155 207
151 172 215
138 159 204
134 156 207
120 144 199
114 139 196
112 137 192
88 115 179
97 123 183
88 115 176
90 116 178
69 102 171
63 96 165
63 96 166
63 95 164
55 88 159
53 87 156
53 85 155
54 86 157
56 89 157
52 85 148
49 81 147
55 88 159
54 87 154
54 87 151
54 87 157
56 90 155
55 88 152
52 85 146
55 89 155
56 89 155
55 88 153
55 89 156
54 87 149
56 90 152
55 89 156
56 90 159
56 90 150
57 91 156
59 94 159
59 95 167
58 93 154
57 91 152
60 95 160
58 93 152
59 94 160
59 93 151
59 94 154
60 97 162
58 93 157
59 94 154
59 94 155
60 96 161
61 96 161
60 95 152
59 94 156
59 95 157
61 96 156
59 95 155
59 93 148
60 95 155
59 94 149
60 96 157
59 94 149
62 98 162
60 95 158
61 97 158
61 97 155
61 96 149
61 97 154
61 96 154
61 97 157
62 98 159
60 96 157
61 96 148
60 96 155
61 96 149
61 97 153
60 95 154
61 97 152
62 98 163
61 97 149
61 97 159
61 97 152
60 95 147
61 96 148
61 96 151
62 97 156
61 96 152
62 97 155
61 97 161
60 95 141
61 97 152
61 97 154
62 97 154
61 97 152
61 97 148
61 96 151
62 97 155
61 97 154
60 95 143
60 96 152
61 97 155
61 97 147
61 96 147
62 97 153
61 97 152
61 97 149
61 96 147
62 97 151
62 97 156
61 96 157
61 97 150
61 95 144
61 96 143
62 97 149
61 97 147
60 96 147
62 97 150
61 96 144
61 97 149
59 93 128
61 97 145
60 96 142
62 97 149
60 94 138
61 96 151
61 96 148
61 96 149
60 95 141
62 98 157
61 95 145
58 93 126
60 94 133
61 96 141
60 95 142
61 95 140
59 94 131
59 94 135
59 93 135
60 94 136
58 93 125
60 94 131
60 94 133
58 92 124
58 92 119
61 93 128
67 91 100
92 107 72
104 118 51
117 125 19
113 119 0
124 132 0
121 131 0
110 117 0
114 119 0
116 122 0
115 120 0
104 112 0
110 114 0
91 97 0
120 123 0
116 119 0
108 113 0
107 112 0
115 121 0
101 106 0
117 122 0
93 96 0
101 105 0
119 123 0
100 103 0
92 100 0
113 117 0
99 104 0
115 114 0
113 116 0
108 106 0
106 110 0
101 105 0
112 113 11
101 103 0
104 103 0
108 110 0
95 94 0
107 108 0
101 99 0
111 110 0
105 104 0
109 105 0
103 101 0
103 106 0
108 108 0
105 100 0
113 110 0
107 105 0
104 102 0
106 105 0
119 116 0
109 107 0
116 114 0
115 116 0
115 111 0
107 109 0
121 119 11
115 112 0
108 110 0
118 119 0
112 111 0
126 128 0
122 125 0
114 113 11
109 109 0
132 134 0
122 123 0
127 130 0
124 124 0
132 134 0
129 128 0
123 122 0
134 135 11
123 124 0
136 137 0
131 131 11
134 138 0
133 140 0
138 141 0
129 132 0
142 144 0
144 147 0
141 146 0
142 146 0
142 150 0
142 147 0
150 156 0
142 149 0
147 156 0
144 153 0
145 154 0
153 161 0
152 162 0
145 155 0
147 157 0
145 152 0
151 162 0
154 161 0
153 164 0
146 154 0
152 164 0
155 166 0
155 168 0
152 163 0
155 166 0
156 167 0
162 174 0
155 167 0
154 168 0
163 178 0
152 163 0
159 170 0
154 167 0
161 176 0
162 175 0
163 178 0
162 178 0
161 173 0
159 173 0
160 173 0
158 175 0
163 179 0
160 176 0
159 173 0
161 176 0
157 173 0
160 178 0
155 171 0
168 182 0
168 186 0
167 184 0
162 178 0
163 179 0
165 182 0
166 185 0
166 183 0
160 176 0
163 180 0
167 186 0
169 185 0
166 184 0
166 183 0
194 221 255
194 221 255
195 221 255
195 221 255
193 220 255
193 220 255
192 220 255
193 220 255
191 219 255
192 220 255
191 219 255
191 219 255
190 219 255
190 219 255
190 219 255
189 218 255
189 218 255
189 218 255
189 218 255
189 218 255
188 218 255
188 217 255
188 218 255
188 217 255
187 217 255
187 217 255
188 217 255
187 217 255
186 217 255
186 217 255
187 217 255
187 217 255
187 217 255
187 217 255
186 217 255
187 217 255
186 216 255
187 217 255
186 217 255
186 217 255
186 217 255
187 217 255
187 217 255
187 217 255
187 217 255
187 217 255
187 217 255
187 217 255
187 217 255
187 217 255
187 217 255
187 217 255
188 218 255
188 217 255
188 218 255
189 218 255
189 218 255
188 218 255
189 218 255
189 218 255
189 218 255
189 218 255
190 219 255
191 219 255
191 219 255
191 219 255
191 219 255
191 219 255
192 220 255
193 220 255
192 220 255
193 220 255
193 220 255
194 221 255
194 221 255
195 221 255
196 222 255
195 221 255
196 221 255
197 222 255
196 222 255
198 223 255
197 222 255
199 223 255
199 223 255
200 224 255
200 224 255
201 224 255
202 225 255
202 225 255
203 226 255
203 226 255
203 226 255
204 226 255
206 227 255
206 227 255
201 223 252
202 223 253
203 224 253
198 219 248
196 216 247
196 216 247
184 205 240
184 205 239
187 207 240
164 185 226
177 198 233
166 187 225
166 187 227
155 176 219
157 178 220
153 174 217
133 155 207
132 155 207
122 146 198
143 164 211
124 147 200
116 141 196
97 123 182
102 127 186
88 116 179
92 118 178
72 102 172
61 95 164
67 98 169
57 91 161
55 89 159
54 87 155
56 90 159
53 86 156
51 83 148
53 85 150
52 85 149
52 84 148
50 82 150
53 86 150
54 87 157
53 86 155
49 80 139
52 84 143
53 85 150
56 91 161
57 92 161
58 92 161
56 90 154
55 90 158
58 93 157
58 93 163
56 90 153
58 93 159
57 91 157
58 92 156
58 92 153
58 93 154
59 94 157
57 91 152
57 91 146
59 94 156
58 93 150
59 95 161
60 95 159
60 95 153
58 93 150
58 94 156
59 95 154
60 95 158
60 95 157
59 95 158
60 95 150
60 96 159
60 95 155
58 92 138
60 95 160
60 95 154
60 96 155
61 96 156
61 97 153
61 97 156
60 96 155
61 96 155
61 97 158
60 96 150
59 94 143
61 97 153
61 96 149
59 94 144
61 97 157
61 96 148
61 97 158
62 97 157
61 97 153
60 96 147
59 95 139
61 96 150
61 96 148
62 98 157
61 96 151
62 98 158
60 96 147
60 96 145
62 97 149
61 97 152
62 97 155
61 96 153
60 95 143
60 96 153
60 95 143
61 96 157
60 96 143
61 96 148
62 97 150
62 97 151
61 96 150
61 97 144
61 97 158
61 96 143
60 96 142
63 98 155
61 96 143
62 97 150
61 96 142
62 97 153
60 95 145
61 96 148
61 97 150
60 95 141
60 96 144
60 95 140
60 95 137
61 96 144
63 98 159
61 96 142
62 97 147
60 95 141
61 96 150
61 96 147
60 96 147
60 95 139
59 94 133
61 96 143
60 95 141
60 95 140
59 93 134
60 95 139
62 96 148
60 94 141
58 92 133
60 94 143
58 92 134
61 96 139
61 95 141
59 93 129
60 94 138
59 93 132
57 90 123
59 93 128
63 94 121
72 96 113
95 109 70
102 114 60
116 129 25
124 134 0
119 128 0
122 131 0
111 117 0
101 106 0
110 119 0
113 118 0
119 125 0
120 126 0
108 110 0
114 120 0
118 123 0
113 118 0
118 124 0
125 131 0
114 120 0
119 124 0
104 107 0
105 113 0
116 122 0
107 110 0
111 112 0
101 103 0
117 119 0
105 107 0
118 123 0
102 104 0
111 114 0
105 106 0
106 107 0
114 116 0
109 110 0
116 119 0
114 115 0
112 113 0
95 95 0
107 106 0
116 118 0
107 107 0
115 114 0
108 106 0
108 108 0
114 110 0
106 104 0
110 109 0
118 120 0
107 107 0
106 105 0
108 105 0
113 112 0
126 123 0
117 116 0
119 119 0
121 124 0
119 118 0
114 115 0
111 110 0
122 123 0
126 132 0
121 120 0
124 125 0
131 133 0
125 124 0
132 133 0
136 137 11
134 137 11
134 137 0
124 126 0
124 129 0
128 130 0
134 140 0
123 122 0
136 138 11
138 142 0
138 144 11
138 144 0
133 139 0
143 148 0
141 144 0
134 138 0
143 146 0
146 153 0
137 144 0
150 158 0
152 159 0
146 153 0
149 159 0
156 167 0
147 157 0
152 160 0
152 164 0
155 163 0
150 161 0
144 154 0
151 160 0
148 157 0
155 165 0
151 160 0
156 168 0
164 176 0
160 174 0
155 168 0
155 166 0
152 163 0
150 160 0
158 173 0
158 172 0
160 174 0
155 167 0
159 172 0
158 170 0
159 174 0
160 177 0
160 174 0
162 177 0
159 172 0
160 172 0
160 173 0
165 182 0
160 177 0
162 179 0
161 177 0
163 180 0
162 178 0
160 175 0
163 181 0
159 173 0
166 182 0
164 180 0
163 176 0
166 183 0
164 181 0
166 184 0
164 182 0
166 185 0
161 178 0
162 178 0
158 174 0
160 178 0
194 221 255
193 220 255
193 220 255
193 220 255
192 220 255
192 220 255
191 219 255
190 219 255
191 219 255
190 219 255
190 218 255
190 219 255
190 218 255
190 219 255
189 218 255
189 218 255
189 218 255
189 218 255
188 218 255
187 217 255
188 217 255
188 217 255
187 217 255
187 217 255
187 217 255
186 217 255
186 217 255
186 217 255
186 217 255
186 217 255
186 217 255
186 217 255
186 216 255
186 216 255
186 217 255
186 216 255
185 216 255
186 217 255
186 217 255
186 216 255
186 217 255
186 216 255
187 217 255
186 216 255
186 217 255
186 217 255
187 217 255
187 217 255
187 217 255
187 217 255
187 217 255
187 217 255
187 217 255
188 217 255
187 217 255
188 217 255
188 218 255
188 217 255
189 218 255
189 218 255
189 218 255
189 218 255
189 218 255
190 218 255
190 219 255
191 219 255
191 219 255
191 219 255
191 219 255
192 219 255
192 220 255
193 220 255
193 220 255
194 220 255
194 221 255
194 221 255
195 221 255
195 221 255
195 221 255
196 222 255
197 222 255
197 222 255
197 222 255
199 223 255
199 223 255
199 223 255
199 224 255
199 223 255
201 224 255
202 225 255
202 225 255
202 225 255
203 225 255
204 226 255
204 226 255
205 226 255
205 226 255
200 221 252
206 226 254
198 219 250
201 222 251
200 221 250
194 214 246
186 206 240
188 209 242
190 210 242
178 198 234
166 187 225
164 185 226
152 173 217
167 187 227
158 179 221
140 162 208
132 155 202
124 147 201
131 154 203
129 152 201
108 134 189
114 138 194
107 131 184
95 121 177
87 114 170
82 108 170
68 99 166
80 106 170
65 96 163
56 90 163
54 87 158
55 89 156
55 89 159
54 87 156
53 86 153
53 86 150
52 84 153
53 86 153
54 88 153
53 86 149
52 85 149
55 89 156
56 89 148
54 87 154
53 87 147
55 89 149
52 85 149
54 87 150
55 88 148
59 94 158
55 89 152
57 91 161
59 94 159
55 89 149
59 94 159
58 93 156
55 89 153
57 91 154
59 94 159
58 94 152
59 95 160
60 96 158
59 94 158
59 94 150
59 93 153
59 94 157
58 93 146
59 95 159
59 94 152
60 95 160
59 94 158
58 93 147
60 95 156
60 95 144
59 94 159
60 96 154
60 95 148
60 96 159
61 97 156
59 94 148
62 98 160
60 96 155
61 96 148
61 97 164
61 96 157
61 97 157
61 96 154
61 97 153
60 96 151
60 95 147
61 97 154
60 96 148
62 98 157
60 96 148
62 98 157
61 96 156
61 96 147
61 96 153
61 97 150
60 95 134
59 95 137
62 97 152
61 96 147
61 96 151
61 96 148
59 94 142
61 96 142
61 97 148
60 96 142
60 95 149
61 96 145
61 96 150
61 97 149
61 97 150
61 97 148
60 95 143
61 97 151
61 96 144
61 97 150
60 95 144
60 96 147
61 96 148
60 95 137
59 95 137
60 95 139
62 97 149
61 97 143
60 95 143
61 96 151
61 96 149
60 95 136
61 96 149
60 95 145
61 95 143
61 96 147
61 96 147
61 96 143
61 96 152
60 96 141
61 96 141
61 96 141
59 93 140
60 94 135
60 96 135
61 95 140
60 95 137
60 94 135
60 95 142
59 93 126
60 95 142
59 93 133
59 93 134
59 94 131
59 92 126
58 91 114
59 93 129
59 93 130
57 90 117
59 92 126
68 96 122
108 126 87
110 123 60
108 119 31
114 123 0
112 119 0
119 129 0
118 126 0
118 125 0
112 117 0
114 120 0
111 116 0
131 139 0
119 125 0
118 126 0
116 123 0
96 101 0
117 123 0
108 113 0
111 113 0
107 114 0
111 115 0
121 126 0
126 130 0
109 113 0
113 119 0
111 116 0
96 99 0
108 113 0
117 121 0
107 110 0
112 113 0
108 112 11
115 118 0
104 103 0
107 111 0
105 102 0
99 98 0
122 124 0
117 122 0
102 100 0
117 121 0
109 109 0
108 108 0
108 107 0
107 108 0
119 121 0
116 117 0
116 116 0
115 120 0
111 114 0
113 113 0
117 115 0
118 120 0
114 113 0
114 116 0
114 114 0
117 115 0
121 121 11
123 121 0
119 120 0
120 121 0
124 122 0
124 126 0
132 132 0
122 125 0
128 131 0
109 109 0
131 134 0
129 132 0
131 134 0
122 123 0
135 137 0
137 139 0
135 138 0
138 144 0
137 141 0
136 141 0
140 144 0
141 144 0
135 137 0
139 146 0
142 144 0
143 148 0
148 155 0
143 150 0
155 162 0
148 157 0
145 154 0
146 154 0
139 148 0
142 148 0
150 159 0
148 156 0
152 162 0
147 152 0
151 160 0
153 163 0
153 165 0
156 167 0
151 157 0
151 164 0
155 167 0
155 165 0
152 162 0
155 163 0
154 168 0
158 170 0
164 177 0
156 169 0
161 176 0
159 173 0
162 177 0
156 171 0
152 164 0
157 171 0
158 171 0
163 179 0
159 172 0
159 175 0
155 171 0
161 177 0
158 174 0
157 169 0
162 179 0
160 174 0
160 176 0
156 168 0
158 174 0
162 179 0
159 176 0
162 179 0
161 177 0
166 182 0
162 179 0
159 175 0
161 179 0
164 180 0
160 176 0
165 183 0
163 181 0
167 185 0
165 182 0
168 186 0
193 220 255
195 221 255
193 220 255
192 219 255
192 220 255
192 219 255
191 219 255
190 219 255
190 219 255
191 219 255
189 218 255
189 218 255
189 218 255
190 218 255
189 218 255
188 218 255
188 218 255
187 217 255
187 217 255
187 217 255
187 217 255
187 217 255
187 217 255
187 217 255
187 217 255
186 217 255
186 217 255
186 217 255
186 217 255
186 216 255
186 216 255
186 217 255
186 217 255
185 216 255
186 216 255
186 216 255
186 216 255
185 216 255
185 216 255
185 216 255
185 216 255
186 216 255
186 216 255
186 216 255
186 216 255
186 216 255
186 216 255
186 217 255
187 217 255
187 217 255
187 217 255
187 217 255
187 217 255
187 217 255
187 217 255
188 217 255
188 218 255
188 218 255
188 218 255
189 218 255
189 218 255
189 218 255
189 218 255
190 218 255
190 219 255
191 219 255
190 219 255
191 219 255
191 219 255
192 219 255
192 220 255
193 220 255
193 220 255
193 220 255
194 220 255
194 221 255
195 221 255
195 221 255
196 222 255
196 222 255
197 222 255
196 222 255
197 222 255
198 223 255
198 223 255
199 223 255
199 223 255
200 224 255
201 224 255
201 224 255
201 224 255
202 225 255
203 225 255
205 226 255
204 226 255
205 226 255
206 227 255
206 226 255
205 226 254
200 222 252
203 224 252
197 217 248
191 212 244
189 209 242
186 206 238
187 208 240
181 201 236
177 197 233
169 190 229
171 191 228
154 175 218
154 175 216
154 175 217
154 175 217
140 162 207
130 153 203
118 142 197
130 152 201
111 136 193
108 133 186
111 135 190
95 121 180
85 112 174
75 106 172
68 99 167
57 92 161
57 92 164
56 89 154
55 88 158
53 86 158
54 87 156
56 90 154
54 88 150
52 84 150
53 86 152
53 87 157
54 87 149
53 85 143
54 87 148
53 86 155
56 90 155
54 87 157
56 90 156
58 92 157
56 89 148
54 87 143
57 91 153
55 88 143
56 90 155
57 91 151
60 95 153
58 92 155
58 93 153
59 95 161
58 93 154
59 95 151
58 93 156
58 92 155
59 94 156
58 93 153
59 94 155
59 94 151
58 93 147
60 95 153
59 94 157
59 94 154
58 94 161
61 96 156
61 96 158
61 96 155
61 96 156
60 96 156
62 98 163
58 92 139
59 94 141
61 97 158
62 97 149
60 96 150
61 96 148
60 96 154
61 96 149
62 97 159
60 95 149
61 96 150
61 96 155
59 94 144
61 96 145
59 94 147
60 96 149
61 96 149
62 97 154
60 96 153
59 94 133
61 97 155
61 97 150
61 97 151
60 95 148
61 97 154
63 99 166
61 97 148
60 95 137
61 97 158
60 95 143
61 96 143
61 96 151
61 97 155
61 96 148
60 96 142
60 96 153
60 95 143
61 96 144
60 95 136
60 96 145
60 95 142
61 96 147
61 96 144
61 97 148
60 95 136
61 97 145
61 96 144
59 94 141
60 95 142
60 95 141
60 95 141
62 97 150
60 96 145
60 95 136
61 97 150
61 96 142
61 96 145
60 95 142
60 95 140
61 95 144
61 96 145
61 96 151
61 96 143
61 96 143
58 92 129
61 96 144
59 94 133
60 95 142
58 92 126
61 96 140
61 96 140
60 95 133
62 97 144
59 93 130
60 95 135
61 95 147
58 91 129
60 94 133
61 95 134
60 93 137
58 92 123
60 94 136
57 89 112
63 88 97
96 110 80
107 119 61
99 108 40
121 132 0
113 121 0
115 122 0
99 107 0
112 119 0
114 120 0
122 130 0
116 123 0
119 127 0
129 139 0
113 118 0
103 108 0
109 115 0
114 116 0
110 117 0
115 121 0
105 114 0
117 124 0
120 126 0
117 121 0
113 118 0
116 120 0
123 128 0
98 102 0
115 119 0
108 113 0
113 119 0
123 127 0
111 116 0
117 121 0
100 101 0
111 114 0
114 116 0
117 120 0
117 121 0
117 118 0
98 100 0
113 114 0
99 97 0
102 103 0
125 129 0
113 117 0
111 113 0
122 125 0
114 116 0
113 115 0
119 118 0
120 125 0
115 115 0
116 115 0
117 119 0
119 121 0
118 120 0
113 112 0
111 112 0
127 129 0
124 128 0
129 132 0
127 131 0
126 130 0
121 121 11
117 120 0
118 117 0
129 133 0
126 131 0
129 131 0
134 135 0
131 136 0
127 130 0
128 127 0
137 141 0
130 134 0
144 147 0
144 151 0
142 148 0
136 142 0
142 149 0
134 138 0
141 143 0
145 150 0
146 154 0
140 146 0
137 145 0
141 148 0
142 148 0
151 161 0
149 158 0
149 156 0
141 146 0
153 163 0
149 157 0
153 161 0
147 153 0
155 164 0
152 164 0
153 162 0
149 157 0
156 167 0
151 163 0
152 162 0
153 164 0
159 170 0
154 168 0
153 164 0
161 174 0
161 175 0
158 169 0
156 168 0
157 170 0
160 174 0
152 163 0
159 173 0
163 176 0
159 173 0
165 180 0
161 177 0
165 180 0
165 181 0
157 172 0
160 176 0
156 173 0
161 176 0
166 183 0
157 172 0
160 175 0
164 181 0
164 180 0
165 182 0
162 180 0
167 184 0
166 184 0
159 176 0
162 178 0
167 185 0
168 186 0
170 189 0
161 177 0
166 186 0
167 185 0
164 183 0
193 220 255
192 220 255
192 220 255
191 219 255
191 219 255
191 219 255
191 219 255
191 219 255
190 219 255
190 218 255
189 218 255
189 218 255
189 218 255
188 218 255
189 218 255
187 217 255
188 217 255
187 217 255
187 217 255
188 217 255
187 217 255
187 217 255
186 217 255
186 217 255
186 217 255
186 216 255
186 216 255
186 216 255
186 216 255
186 216 255
186 216 255
185 216 255
185 216 255
185 216 255
185 216 255
185 216 255
185 216 255
185 216 255
185 216 255
185 216 255
185 216 255
185 216 255
185 216 255
186 216 255
186 216 255
185 216 255
185 216 255
186 216 255
186 216 255
186 217 255
186 217 255
186 217 255
186 217 255
186 217 255
187 217 255
187 217 255
187 217 255
187 217 255
188 218 255
187 217 255
188 218 255
188 218 255
189 218 255
189 218 255
190 219 255
189 218 255
190 219 255
191 219 255
190 219 255
191 219 255
192 219 255
192 220 255
192 220 255
193 220 255
193 220 255
193 220 255
193 220 255
194 221 255
194 221 255
195 221 255
196 222 255
196 222 255
196 222 255
197 222 255
198 223 255
199 223 255
199 223 255
199 223 255
200 224 255
201 224 255
202 225 255
202 225 255
203 226 255
203 225 255
204 226 255
204 226 255
206 227 255
205 227 255
205 226 255
206 226 255
202 223 252
201 221 251
198 219 249
194 215 246
198 218 248
185 205 238
186 206 239
173 194 231
172 193 228
173 193 230
150 172 217
175 195 231
151 172 218
148 170 213
140 162 210
142 164 212
123 146 199
128 151 202
125 147 195
117 140 187
107 131 188
101 126 184
85 114 181
91 116 169
76 104 163
71 101 164
77 103 162
60 93 162
56 91 158
55 88 158
58 92 159
55 89 158
56 89 162
54 87 153
56 90 158
54 87 153
51 83 143
55 89 153
54 87 154
53 87 147
51 82 142
53 86 152
56 89 154
55 89 149
56 91 152
56 91 155
56 90 148
54 88 146
56 90 148
56 91 149
55 89 146
58 93 155
59 94 160
57 92 154
57 91 156
58 92 154
58 92 150
57 92 155
60 95 153
60 95 151
59 94 152
58 93 154
60 96 147
58 92 152
59 94 153
60 95 153
60 96 160
60 96 156
60 96 154
60 95 160
59 94 148
61 96 159
62 98 161
61 96 156
60 95 151
59 95 154
59 94 156
59 93 148
60 96 149
60 96 150
60 96 151
60 94 148
62 97 155
61 97 155
59 94 144
60 95 149
61 97 151
62 97 153
61 96 145
61 97 150
60 96 149
61 96 148
61 96 150
60 96 150
61 96 148
61 96 143
60 95 149
61 97 151
60 96 148
61 96 156
60 95 142
61 97 152
62 97 152
62 97 155
62 97 148
60 96 145
61 96 145
59 95 141
62 97 151
61 96 150
59 94 135
61 97 153
60 95 145
60 96 148
61 96 143
61 96 144
61 96 141
61 96 142
60 95 147
61 97 151
60 95 141
61 96 142
61 96 143
61 97 145
62 97 158
60 95 144
61 96 144
60 95 136
61 96 144
61 96 144
60 95 147
61 96 149
60 95 139
61 95 139
60 95 137
60 94 150
60 95 143
60 95 134
61 96 141
59 94 134
60 94 133
60 94 134
59 93 128
59 93 126
59 94 136
60 95 136
59 93 125
60 94 141
59 92 125
60 94 132
60 94 125
60 93 131
59 93 132
59 93 129
60 94 124
64 94 123
96 114 83
100 112 62
111 120 19
119 126 0
108 117 0
112 121 0
117 126 0
117 124 0
117 123 0
119 127 0
113 122 0
120 127 0
113 117 0
111 117 0
114 120 0
117 126 0
112 118 0
126 137 0
118 124 0
118 123 0
119 126 0
120 125 0
113 119 0
106 111 0
102 108 0
118 124 0
120 126 0
112 116 0
113 119 0
115 119 0
119 126 0
121 126 0
113 116 0
118 123 0
118 123 0
122 127 0
122 127 0
102 105 0
106 111 0
110 110 0
125 128 0
109 112 0
104 106 0
126 132 0
110 113 0
118 124 0
119 121 0
108 112 0
107 108 0
124 126 0
102 102 0
116 117 0
119 123 0
114 117 0
118 123 0
123 124 0
118 118 0
124 126 0
122 124 0
117 117 0
113 113 0
127 131 0
129 132 0
126 128 0
114 115 0
122 125 0
131 132 0
127 131 0
135 136 0
132 137 0
124 129 0
131 136 0
137 142 0
134 139 0
135 138 0
135 136 0
133 138 0
134 138 0
141 145 0
131 137 0
141 148 0
141 147 0
144 151 0
151 159 0
135 141 0
149 157 0
145 153 0
144 151 0
138 146 0
149 158 0
150 160 0
148 157 0
148 155 0
145 152 0
146 153 0
147 157 0
143 148 0
147 156 0
154 162 0
158 171 0
152 163 0
148 158 0
152 162 0
155 164 0
149 158 0
157 170 0
154 165 0
156 169 0
151 161 0
160 175 0
159 172 0
160 174 0
158 170 0
155 168 0
158 173 0
159 170 0
158 170 0
158 172 0
164 180 0
163 179 0
161 174 0
153 168 0
161 177 0
161 175 0
165 184 0
159 171 0
160 177 0
163 179 0
162 178 0
159 173 0
165 180 0
164 181 0
163 181 0
166 183 0
164 180 0
162 178 0
158 174 0
164 181 0
165 183 0
163 180 0
159 177 0
169 187 0
165 183 0
165 180 0
193 220 255
191 219 255
191 219 255
192 219 255
192 219 255
190 219 255
190 218 255
189 218 255
190 218 255
189 218 255
189 218 255
188 218 255
189 218 255
189 218 255
187 217 255
188 217 255
187 217 255
187 217 255
187 217 255
187 217 255
186 217 255
186 217 255
186 216 255
186 216 255
186 217 255
186 216 255
185 216 255
185 216 255
185 216 255
185 216 255
186 216 255
185 216 255
185 216 255
185 216 255
184 216 255
185 216 255
185 216 255
185 216 255
184 216 255
185 216 255
185 216 255
185 216 255
185 216 255
185 216 255
185 216 255
185 216 255
186 216 255
185 216 255
186 216 255
185 216 255
186 216 255
186 216 255
186 216 255
186 216 255
187 217 255
187 217 255
187 217 255
187 217 255
188 218 255
188 218 255
189 218 255
188 218 255
188 218 255
188 218 255
190 218 255
189 218 255
190 218 255
190 219 255
190 219 255
191 219 255
191 219 255
191 219 255
192 220 255
192 220 255
193 220 255
193 220 255
194 221 255
194 221 255
194 221 255
194 221 255
195 221 255
196 222 255
197 222 255
197 222 255
198 223 255
198 223 255
198 223 255
199 223 255
200 224 255
200 224 255
201 225 255
202 225 255
202 225 255
203 225 255
204 226 255
204 226 255
205 226 255
205 227 255
207 228 255
205 226 255
205 226 254
199 220 250
200 221 250
193 213 245
199 219 249
186 206 240
185 206 240
182 202 236
189 208 240
185 205 238
173 193 231
166 187 224
157 178 220
154 175 217
155 175 220
134 156 203
136 158 206
136 158 205
119 142 194
127 149 198
105 130 184
105 130 188
92 119 177
103 127 178
77 104 166
67 101 172
74 103 170
67 98 161
58 88 153
55 88 160
56 90 159
54 88 158
54 86 145
53 86 148
56 90 159
52 85 153
51 82 147
56 89 147
52 84 145
55 88 156
52 84 143
53 86 147
52 85 147
56 90 152
54 88 149
57 91 151
57 92 156
57 91 155
59 94 160
58 92 153
57 91 151
56 90 157
58 93 158
58 92 152
57 91 152
58 92 149
59 95 152
58 93 151
57 90 147
59 93 151
58 92 153
58 93 152
59 93 146
59 93 149
57 91 143
59 94 150
60 95 151
59 94 149
59 94 149
59 94 145
59 95 154
60 96 151
60 95 150
59 94 143
60 95 145
61 97 157
60 95 153
60 96 154
61 96 152
60 95 147
59 94 145
61 97 155
60 95 150
61 97 153
61 97 153
61 97 154
60 95 144
61 96 156
61 96 144
61 96 154
61 96 151
60 95 143
62 97 154
61 96 151
61 96 150
62 97 154
62 97 154
60 96 148
60 95 135
60 95 142
61 97 152
61 96 148
62 98 155
61 96 149
61 96 149
61 97 150
60 95 140
59 94 136
61 96 149
61 96 150
61 96 149
60 95 140
60 94 140
61 97 150
61 96 141
62 97 153
60 95 144
61 96 142
61 96 141
60 95 150
60 95 137
60 95 139
60 95 149
60 95 144
61 95 148
62 97 151
60 95 143
60 95 143
61 96 149
63 98 155
61 97 141
61 95 129
60 95 142
60 95 137
61 95 134
60 95 135
59 94 133
62 98 153
59 94 139
58 92 130
59 94 133
60 95 143
58 92 126
60 95 140
60 94 134
60 94 133
61 95 140
59 93 131
60 94 137
59 93 121
59 93 135
57 91 114
59 92 123
57 90 121
59 92 132
73 97 103
94 111 84
108 119 60
125 136 25
119 127 0
116 127 0
120 130 0
115 122 0
119 130 0
112 119 0
119 129 0
114 119 0
116 122 0
121 129 0
115 125 0
129 136 0
114 122 0
112 120 0
107 115 0
115 122 0
122 131 0
112 118 0
115 121 0
128 134 0
115 122 0
109 114 0
121 125 0
110 114 0
109 112 0
118 125 0
111 114 0
130 139 0
132 139 0
120 124 0
115 119 0
115 119 0
115 118 0
115 120 0
118 123 0
121 125 0
112 111 0
115 121 0
129 132 0
113 118 0
109 112 0
115 120 0
110 112 0
118 121 0
118 120 0
119 122 0
120 124 0
121 125 0
108 110 0
121 123 0
104 106 0
125 130 0
118 122 0
128 135 0
123 126 0
121 124 0
127 129 0
120 122 0
125 126 0
132 131 0
125 126 0
130 133 0
127 127 0
128 133 0
135 138 0
130 133 0
129 132 0
132 138 0
134 139 0
133 137 0
133 135 0
130 133 0
141 149 0
134 138 0
146 153 0
137 142 0
140 147 0
139 149 0
145 150 0
139 146 0
148 155 0
144 153 0
143 150 0
146 153 0
151 161 0
146 152 0
144 154 0
143 154 0
144 148 0
153 162 0
146 154 0
148 157 0
154 164 0
150 160 0
149 160 0
148 160 0
151 160 0
150 160 0
151 161 0
150 161 0
157 167 0
160 172 0
161 173 0
154 164 0
158 170 0
163 178 0
151 163 0
155 166 0
161 174 0
153 167 0
156 168 0
159 175 0
156 169 0
155 169 0
159 175 0
160 177 0
161 175 0
161 174 0
161 176 0
155 171 0
162 178 0
157 171 0
161 177 0
160 176 0
161 181 0
164 180 0
158 172 0
164 182 0
165 182 0
163 181 0
167 186 0
161 177 0
163 181 0
167 187 0
162 179 0
165 183 0
166 184 0
165 183 0
168 187 0
165 184 0
160 178 0
192 220 255
191 219 255
191 219 255
191 219 255
191 219 255
191 219 255
190 219 255
190 218 255
189 218 255
189 218 255
188 218 255
188 218 255
188 217 255
188 217 255
188 217 255
188 217 255
187 217 255
187 217 255
186 217 255
186 217 255
186 216 255
186 217 255
186 216 255
185 216 255
185 216 255
185 216 255
185 216 255
185 216 255
184 216 255
185 216 255
185 216 255
184 216 255
185 216 255
185 216 255
184 216 255
185 216 255
185 216 255
185 216 255
185 216 255
185 216 255
185 216 255
184 216 255
185 216 255
185 216 255
185 216 255
184 216 255
185 216 255
185 216 255
185 216 255
185 216 255
185 216 255
185 216 255
186 216 255
186 217 255
186 217 255
187 217 255
187 217 255
187 217 255
187 217 255
188 217 255
188 218 255
188 217 255
188 218 255
189 218 255
189 218 255
189 218 255
189 218 255
190 219 255
190 218 255
190 219 255
190 219 255
191 219 255
191 219 255
192 220 255
192 220 255
193 220 255
194 221 255
193 220 255
194 221 255
195 221 255
195 221 255
196 222 255
196 222 255
196 222 255
197 222 255
198 223 255
198 223 255
199 223 255
199 223 255
200 224 255
200 224 255
200 224 255
201 224 255
203 225 255
203 225 255
204 226 255
204 226 255
205 226 255
205 226 255
205 226 255
206 227 255
202 223 252
203 223 252
200 221 250
200 220 250
186 207 241
186 206 239
185 205 239
193 213 244
180 200 234
181 201 236
168 189 227
160 181 222
152 173 217
159 180 219
159 179 220
134 156 202
126 149 199
139 160 203
137 158 203
125 147 197
112 137 192
112 135 184
86 111 168
79 108 169
68 98 164
67 98 163
70 98 161
58 90 154
60 93 156
53 85 148
56 91 162
59 93 160
53 86 149
52 84 145
54 88 148
52 85 148
53 87 144
54 88 152
51 82 144
53 86 143
53 86 149
52 85 143
53 86 145
53 85 148
53 86 150
54 86 142
55 88 151
57 91 151
57 90 148
56 90 153
56 91 148
57 91 155
57 91 144
56 90 143
58 92 153
58 93 151
57 91 153
59 93 155
59 94 150
57 92 148
59 94 146
60 95 150
60 95 150
59 95 158
60 95 156
60 95 148
59 94 150
59 93 151
58 92 142
59 95 151
60 94 146
60 96 153
60 95 150
59 95 152
57 91 148
59 94 143
60 95 152
59 94 141
60 95 148
60 96 155
60 96 153
61 96 150
60 96 148
61 96 151
61 97 154
61 96 151
60 96 145
62 97 156
61 97 155
61 96 150
60 96 153
60 96 145
61 97 152
61 96 148
61 96 152
61 96 145
61 96 147
61 96 145
61 96 154
60 95 143
61 97 152
61 96 151
61 96 154
61 96 149
60 95 136
61 97 150
60 96 142
60 95 141
60 94 141
60 95 137
60 95 140
60 95 140
61 96 144
60 96 144
61 96 144
60 94 141
60 95 145
61 97 147
61 96 145
60 95 136
61 96 145
60 95 143
61 97 150
61 96 148
60 95 139
61 96 142
59 94 130
62 97 152
60 95 143
60 95 144
60 95 131
60 95 136
61 96 147
59 93 140
61 96 141
59 94 135
60 94 133
59 94 131
59 94 136
60 94 135
61 96 142
61 96 144
60 95 141
60 95 130
61 95 135
61 96 141
60 94 135
61 95 139
60 94 139
58 91 121
59 94 134
59 92 134
57 90 117
63 93 120
86 109 103
89 104 51
110 122 49
125 135 18
118 128 0
126 138 0
115 124 0
120 131 0
118 127 0
126 134 0
111 120 0
115 124 0
119 129 0
121 130 0
115 120 0
120 126 0
122 127 0
129 134 0
108 118 0
123 129 0
130 137 0
124 132 0
118 125 0
108 113 0
120 127 0
110 116 0
117 122 0
118 123 0
115 120 0
110 114 0
119 124 0
123 130 0
111 118 0
113 117 0
118 124 0
117 121 0
121 125 0
118 125 0
126 130 0
106 112 0
123 127 0
126 132 0
111 114 0
127 132 0
120 120 0
119 121 0
122 123 0
119 120 0
117 122 0
113 118 0
117 120 0
118 119 0
121 125 0
136 139 0
124 126 0
118 120 0
116 121 0
141 145 0
119 121 0
128 129 0
121 127 0
120 125 0
126 128 0
130 131 0
130 136 0
123 123 0
137 143 0
136 139 0
133 137 0
139 146 0
136 140 0
134 138 0
130 131 0
130 135 0
134 137 0
134 137 0
140 147 0
138 145 0
143 149 0
145 152 0
137 141 0
142 151 0
147 153 0
145 154 0
138 146 0
143 152 0
155 164 0
142 149 0
144 150 0
146 155 0
148 157 0
146 154 0
148 153 0
146 157 0
151 161 0
152 163 0
148 159 0
152 161 0
153 166 0
155 166 0
151 160 0
151 162 0
150 164 0
155 169 0
152 162 0
152 164 0
161 173 0
153 162 0
156 169 0
159 174 0
153 166 0
160 172 0
160 173 0
161 176 0
160 174 0
161 174 0
156 171 0
156 170 0
156 170 0
160 176 0
163 178 0
164 179 0
161 176 0
163 179 0
153 164 0
166 180 0
160 175 0
165 180 0
165 182 0
161 176 0
160 174 0
163 179 0
160 174 0
159 174 0
157 171 0
162 180 0
162 181 0
165 183 0
160 177 0
166 183 0
163 180 0
167 186 0
163 181 0
165 183 0
165 184 0
191 219 255
192 220 255
191 219 255
191 219 255
190 218 255
190 218 255
189 218 255
189 218 255
189 218 255
188 217 255
188 218 255
188 217 255
188 217 255
188 217 255
187 217 255
186 217 255
186 217 255
185 216 255
185 216 255
186 217 255
186 216 255
185 216 255
185 216 255
185 216 255
185 216 255
185 216 255
185 216 255
185 216 255
185 216 255
185 216 255
184 216 255
184 216 255
184 216 255
184 216 255
184 215 255
185 216 255
184 216 255
184 215 255
184 215 255
184 216 255
184 216 255
184 216 255
185 216 255
185 216 255
184 216 255
184 216 255
185 216 255
185 216 255
185 216 255
185 216 255
186 216 255
185 216 255
185 216 255
186 216 255
186 216 255
186 217 255
186 217 255
187 217 255
187 217 255
187 217 255
187 217 255
188 217 255
188 218 255
188 218 255
188 218 255
189 218 255
189 218 255
190 218 255
190 219 255
190 219 255
190 219 255
191 219 255
191 219 255
192 219 255
192 220 255
192 220 255
193 220 255
193 220 255
194 221 255
194 220 255
194 221 255
195 221 255
195 221 255
196 222 255
196 222 255
197 222 255
198 223 255
199 223 255
199 224 255
199 223 255
200 224 255
201 225 255
202 225 255
201 225 255
203 225 255
203 226 255
204 226 255
205 227 255
206 227 255
205 227 255
206 227 255
207 227 255
205 225 254
197 218 248
202 222 251
198 218 248
203 222 250
194 214 245
190 210 242
177 197 233
170 190 228
171 191 228
170 190 228
158 179 220
160 181 221
150 171 212
157 177 217
140 161 206
134 156 205
132 154 200
118 140 188
111 133 184
100 125 179
99 124 175
105 128 182
87 115 173
74 103 164
73 99 157
63 95 156
59 94 164
53 86 154
57 90 157
53 86 144
54 87 155
53 85 153
52 83 141
55 89 156
53 86 146
52 84 143
54 87 146
54 86 148
53 86 148
51 83 145
53 85 149
54 88 148
57 91 158
54 88 151
53 85 144
54 87 142
58 92 152
57 91 151
56 89 147
58 92 154
58 93 158
56 90 142
56 90 143
58 93 154
57 92 151
57 91 146
56 89 137
58 92 145
60 95 160
59 94 153
59 93 152
58 92 148
58 92 145
59 94 148
60 95 152
60 96 151
60 95 149
59 94 145
59 94 151
59 94 147
60 96 157
59 94 147
59 93 144
59 94 152
59 94 148
60 95 149
60 96 148
61 96 149
61 97 151
61 97 151
61 97 156
61 96 151
60 95 146
61 97 148
61 96 150
60 95 143
62 98 160
59 94 145
61 96 143
60 95 147
61 97 155
61 96 144
62 98 158
60 95 144
61 97 143
62 97 155
60 95 149
60 96 140
59 94 140
60 95 142
60 96 142
61 96 153
61 97 148
61 96 143
61 97 147
61 96 153
60 95 141
60 95 140
61 97 149
61 97 150
60 95 134
61 96 150
63 98 156
62 97 148
59 93 137
61 96 147
61 97 153
59 93 130
62 96 147
60 94 131
62 97 150
60 95 144
60 95 144
61 95 139
61 96 145
61 96 148
59 94 134
60 95 131
61 97 148
60 96 139
60 95 139
59 94 126
60 95 143
61 95 136
60 95 140
60 94 137
59 94 135
58 92 130
60 95 141
60 94 129
60 94 131
59 94 133
59 94 135
59 94 128
58 92 128
59 92 126
59 93 125
59 93 125
59 92 134
59 92 127
59 90 125
80 106 119
93 109 71
108 120 54
116 126 0
112 123 0
114 124 0
122 134 0
116 124 0
117 127 0
115 123 0
110 119 0
128 137 0
115 126 0
111 120 0
120 128 0
127 139 0
117 126 0
100 108 0
117 125 0
121 128 0
124 132 0
114 120 0
115 121 0
114 125 0
121 126 0
119 126 0
119 124 0
109 112 0
115 122 0
119 123 0
118 124 0
117 123 0
117 122 0
120 124 0
118 122 0
117 124 0
125 129 0
123 126 0
114 118 0
111 116 0
121 125 0
111 114 0
129 134 0
114 118 0
118 120 0
115 118 0
125 130 0
118 124 0
121 127 0
118 119 0
119 122 0
120 124 0
106 108 0
123 127 0
119 124 0
124 128 0
110 114 0
117 120 0
126 132 0
120 123 0
121 125 0
134 140 0
131 131 0
123 125 0
122 126 0
131 139 0
140 147 0
133 139 0
131 136 0
140 146 0
136 144 0
140 148 0
141 146 0
133 139 0
144 153 0
135 141 0
142 148 0
141 144 0
137 143 0
141 147 0
130 136 0
141 149 0
137 143 0
136 143 0
138 144 0
144 152 0
144 152 0
150 158 0
152 160 0
150 161 0
139 148 0
149 159 0
144 153 0
146 152 0
147 156 0
145 153 0
151 160 0
144 155 0
150 159 0
155 167 0
154 164 0
151 161 0
159 171 0
152 162 0
155 166 0
155 169 0
153 165 0
155 167 0
145 155 0
160 173 0
155 167 0
155 168 0
154 167 0
161 177 0
159 171 0
152 164 0
152 165 0
161 174 0
156 171 0
159 174 0
163 177 0
161 176 0
156 170 0
165 180 0
156 172 0
157 173 0
159 173 0
162 176 0
162 177 0
160 176 0
159 175 0
162 178 0
160 177 0
163 179 0
165 182 0
165 183 0
166 183 0
163 180 0
160 177 0
165 182 0
165 182 0
163 180 0
164 181 0
167 184 0
165 181 0
166 186 0
191 219 255
190 219 255
190 219 255
189 218 255
190 218 255
189 218 255
189 218 255
189 218 255
189 218 255
188 217 255
188 218 255
187 217 255
187 217 255
187 217 255
187 217 255
186 217 255
186 217 255
186 216 255
186 216 255
185 216 255
185 216 255
185 216 255
185 216 255
185 216 255
185 216 255
185 216 255
184 215 255
184 216 255
184 216 255
184 216 255
184 215 255
184 215 255
184 215 255
184 215 255
184 215 255
184 215 255
184 215 255
184 215 255
184 215 255
184 215 255
184 215 255
184 216 255
184 216 255
184 216 255
184 215 255
184 216 255
184 216 255
185 216 255
185 216 255
185 216 255
184 216 255
185 216 255
185 216 255
185 216 255
185 216 255
186 216 255
186 216 255
186 217 255
186 217 255
187 217 255
187 217 255
187 217 255
188 217 255
188 218 255
188 218 255
188 218 255
188 218 255
189 218 255
190 218 255
190 219 255
190 219 255
191 219 255
191 219 255
191 219 255
192 220 255
192 220 255
192 220 255
193 220 255
193 220 255
194 220 255
195 221 255
195 221 255
195 221 255
196 222 255
197 222 255
197 222 255
197 222 255
198 223 255
198 223 255
199 223 255
199 224 255
200 224 255
200 224 255
201 225 255
202 225 255
202 225 255
203 226 255
204 226 255
204 226 255
205 226 255
206 227 255
206 227 255
206 227 255
204 224 252
201 221 250
207 227 254
199 219 250
192 213 244
184 204 238
187 207 240
176 197 233
181 200 231
170 190 227
169 189 226
165 185 222
159 180 221
154 174 217
138 159 198
134 156 199
121 143 190
116 140 193
114 137 187
119 141 187
105 129 176
97 123 179
98 122 175
73 100 157
62 93 152
63 95 163
64 93 151
60 93 158
60 91 150
55 89 154
54 87 148
55 88 145
53 86 142
52 85 147
55 89 147
55 89 152
56 90 154
50 81 137
54 87 149
56 90 152
52 85 141
54 87 143
53 86 144
53 85 143
53 85 139
56 90 154
51 83 144
56 90 154
59 94 159
57 91 150
56 89 147
57 91 146
59 94 154
58 92 155
59 94 154
59 94 152
57 92 149
59 94 152
58 93 146
60 95 157
59 94 148
59 95 152
59 93 150
60 95 145
60 95 151
60 95 151
59 94 145
59 94 152
60 95 147
59 94 152
60 95 154
59 94 141
59 94 150
59 94 144
59 94 149
60 96 149
61 97 161
60 95 149
59 93 143
60 95 145
59 94 142
59 94 136
60 95 142
60 96 148
60 95 147
60 95 145
61 97 154
60 95 148
62 97 153
60 95 138
61 96 143
61 96 150
61 96 148
60 96 149
62 98 158
60 95 146
60 95 142
61 96 145
60 95 144
61 96 144
60 95 134
60 95 142
61 97 151
61 96 144
60 95 145
60 95 142
60 95 143
63 98 151
61 96 144
61 96 144
61 95 140
60 95 136
60 95 137
61 96 145
59 94 143
60 95 139
62 97 151
60 96 149
61 96 147
60 95 148
59 93 131
61 96 149
61 96 147
61 96 144
62 97 148
61 96 149
61 97 150
61 97 147
59 94 129
60 96 142
61 96 147
60 95 133
62 98 159
59 94 134
59 93 122
59 94 141
59 94 139
60 95 139
60 94 130
60 95 131
60 95 140
59 93 128
60 95 140
58 92 113
59 93 129
59 93 130
59 93 133
58 91 124
59 92 124
58 90 116
57 88 110
87 111 107
95 112 74
114 128 54
120 129 31
105 118 0
118 129 0
115 125 0
123 131 0
125 133 0
112 122 0
113 120 0
117 126 0
121 130 0
108 120 0
122 129 0
119 127 0
116 125 0
119 126 0
120 129 0
110 119 0
112 117 0
123 130 0
111 118 0
127 136 0
125 133 0
120 127 0
122 128 0
119 124 0
118 124 0
113 119 0
112 117 0
121 129 0
113 118 0
108 113 0
122 129 0
115 122 0
115 124 0
113 121 0
127 134 0
120 127 0
116 118 0
127 134 0
114 119 0
125 130 0
126 132 0
107 109 0
131 135 0
122 128 0
118 124 0
118 123 0
133 138 0
123 128 0
132 136 0
113 115 0
131 140 0
126 128 0
132 140 0
124 130 0
128 133 0
131 139 0
132 138 0
120 125 0
128 135 0
129 135 0
138 144 0
129 134 0
142 146 0
126 132 0
128 134 0
138 143 0
137 144 0
136 140 0
134 139 0
128 133 0
138 144 0
137 145 0
139 146 0
141 150 0
145 153 0
140 148 0
146 153 0
146 155 0
155 164 0
137 143 0
150 157 0
147 157 0
133 138 0
144 150 0
159 166 0
143 150 0
147 157 0
147 155 0
144 152 0
142 152 0
146 157 0
150 159 0
150 158 0
145 156 0
148 160 0
148 159 0
152 161 0
150 161 0
154 163 0
153 163 0
150 161 0
153 166 0
156 167 0
147 159 0
159 171 0
162 175 0
158 171 0
155 166 0
163 176 0
152 162 0
160 176 0
152 162 0
158 172 0
155 170 0
155 168 0
160 175 0
163 178 0
155 170 0
162 177 0
160 176 0
163 179 0
163 181 0
162 177 0
163 179 0
161 176 0
158 175 0
163 179 0
165 181 0
165 179 0
162 177 0
162 180 0
162 178 0
165 181 0
156 176 0
162 181 0
162 180 0
163 180 0
163 183 0
164 181 0
163 184 0
164 182 0
167 186 0
191 219 255
190 219 255
190 218 255
189 218 255
190 219 255
189 218 255
188 218 255
189 218 255
188 218 255
188 217 255
187 217 255
187 217 255
187 217 255
186 217 255
186 217 255
186 217 255
185 216 255
186 216 255
186 216 255
185 216 255
185 216 255
185 216 255
185 216 255
184 216 255
184 216 255
184 215 255
184 216 255
184 215 255
184 216 255
184 215 255
183 215 255
183 215 255
184 215 255
183 215 255
183 215 255
184 215 255
184 215 255
183 215 255
183 215 255
184 215 255
184 215 255
184 215 255
184 215 255
184 215 255
184 215 255
184 216 255
184 215 255
184 216 255
184 216 255
184 216 255
185 216 255
185 216 255
185 216 255
185 216 255
185 216 255
185 216 255
186 216 255
186 217 255
186 216 255
187 217 255
187 217 255
187 217 255
187 217 255
187 217 255
188 217 255
188 218 255
188 218 255
189 218 255
189 218 255
190 219 255
190 218 255
190 219 255
190 218 255
191 219 255
192 219 255
192 220 255
192 220 255
193 220 255
193 220 255
193 220 255
194 221 255
195 221 255
195 221 255
195 221 255
196 222 255
196 222 255
197 222 255
198 223 255
198 223 255
199 223 255
199 223 255
200 224 255
200 224 255
202 225 255
202 225 255
202 225 255
203 225 255
203 225 255
204 226 255
205 227 255
206 227 255
206 227 255
207 228 255
201 222 251
203 223 252
204 224 253
193 213 244
192 212 242
189 209 242
190 210 242
178 198 233
180 199 233
184 203 235
172 192 229
165 185 222
169 189 226
150 171 213
146 166 208
140 161 205
139 160 205
130 151 193
125 146 190
117 139 188
118 140 186
102 125 181
102 125 173
88 112 164
71 99 157
67 96 158
66 94 149
62 94 161
57 89 149
51 83 146
52 85 147
54 87 147
55 88 152
54 87 154
52 83 140
53 86 143
54 87 152
54 86 141
52 85 141
52 85 147
54 87 139
54 88 147
52 84 138
56 89 149
54 88 148
54 87 144
56 90 147
58 92 147
57 91 151
53 86 133
56 90 144
56 90 143
59 93 154
58 93 155
58 92 145
58 93 152
59 94 150
58 92 143
57 92 147
59 94 140
59 94 153
58 92 145
59 94 146
58 92 149
60 96 157
59 94 151
59 93 145
57 92 147
58 93 145
57 91 140
60 95 150
58 92 141
61 96 151
59 94 144
59 94 140
60 95 153
60 95 156
61 97 153
61 96 154
60 95 151
60 95 154
60 95 146
60 96 149
61 96 147
60 95 139
61 96 148
60 95 139
61 96 156
60 96 148
61 97 147
60 94 144
61 96 150
61 96 156
60 95 142
61 96 142
61 97 149
61 96 145
60 95 137
60 95 135
59 94 142
62 98 153
59 94 141
60 95 143
60 94 141
61 97 148
61 96 144
61 96 148
60 95 134
61 96 149
60 95 143
61 96 142
60 95 139
59 94 131
61 96 135
62 97 149
61 95 133
59 94 140
62 97 148
60 95 141
61 95 136
60 95 141
60 94 140
59 94 133
61 96 141
60 94 134
61 96 142
61 96 147
60 95 135
61 96 144
59 93 133
59 94 135
59 93 129
60 94 134
58 92 125
59 94 136
60 95 140
61 96 140
62 96 143
60 95 140
62 97 151
59 93 128
61 96 142
58 91 122
59 93 130
59 92 133
60 94 139
59 92 130
58 91 118
57 90 113
60 91 115
73 99 112
96 117 105
107 118 54
126 139 25
118 129 0
120 131 0
123 133 0
117 127 0
117 127 0
115 128 0
114 124 0
107 115 0
129 139 0
109 117 0
122 137 0
134 144 0
109 118 0
122 132 0
118 126 0
114 123 0
121 131 0
117 127 0
121 131 0
115 123 0
109 118 0
115 121 0
121 130 0
107 111 0
121 127 0
119 124 0
123 131 0
122 130 0
106 110 0
124 132 0
120 127 0
116 121 0
113 117 0
117 120 0
116 121 0
123 126 0
121 128 0
113 117 0
121 125 0
116 121 0
124 128 0
115 119 0
123 127 0
124 129 0
118 123 0
124 132 0
120 126 0
121 126 0
131 135 0
121 127 0
125 130 0
133 138 0
126 130 0
131 135 0
123 123 0
124 130 0
137 141 0
130 135 0
133 138 0
123 128 0
134 139 0
134 143 0
137 143 0
125 128 0
133 140 0
134 139 0
133 141 0
129 135 0
136 139 0
139 146 0
136 140 0
138 144 0
142 148 0
139 146 0
143 151 0
141 148 0
143 151 0
143 150 0
136 144 0
148 157 0
139 150 0
151 160 0
142 150 0
144 153 0
145 155 0
155 166 0
144 153 0
152 163 0
150 161 0
154 164 0
147 155 0
153 166 0
150 159 0
149 160 0
148 157 0
147 158 0
155 166 0
150 162 0
151 160 0
148 160 0
153 165 0
154 165 0
156 168 0
158 174 0
156 168 0
151 160 0
160 173 0
155 168 0
160 172 0
154 167 0
155 168 0
153 168 0
154 168 0
162 176 0
151 165 0
154 168 0
163 178 0
161 176 0
162 176 0
162 177 0
160 177 0
159 174 0
159 174 0
159 174 0
163 177 0
162 177 0
163 179 0
162 180 0
159 175 0
163 180 0
162 179 0
166 184 0
165 183 0
162 177 0
167 185 0
163 181 0
161 178 0
167 186 0
161 177 0
166 185 0
166 185 0
167 187 0
168 186 0
191 219 255
190 219 255
190 218 255
189 218 255
189 218 255
189 218 255
188 217 255
188 217 255
188 217 255
187 217 255
187 217 255
187 217 255
186 217 255
186 216 255
185 216 255
186 216 255
185 216 255
185 216 255
185 216 255
185 216 255
184 216 255
185 216 255
184 216 255
185 216 255
184 216 255
185 216 255
184 215 255
184 215 255
184 215 255
184 215 255
184 215 255
183 215 255
183 215 255
183 215 255
183 215 255
183 215 255
183 215 255
183 215 255
183 215 255
183 215 255
183 215 255
183 215 255
183 215 255
184 215 255
184 215 255
184 215 255
184 215 255
184 215 255
184 215 255
184 216 255
185 216 255
184 215 255
184 216 255
185 216 255
185 216 255
185 216 255
186 216 255
185 216 255
186 216 255
186 217 255
187 217 255
187 217 255
187 217 255
187 217 255
187 217 255
187 217 255
188 218 255
188 218 255
189 218 255
189 218 255
189 218 255
191 219 255
190 218 255
191 219 255
191 219 255
191 219 255
192 220 255
192 220 255
193 220 255
193 220 255
194 220 255
194 221 255
195 221 255
196 222 255
196 222 255
196 222 255
196 222 255
197 222 255
197 222 255
199 223 255
198 223 255
199 223 255
201 224 255
200 224 255
201 224 255
202 225 255
202 225 255
203 226 255
204 226 255
203 226 255
204 226 255
206 227 255
206 227 255
206 227 255
207 227 254
201 220 250
201 220 249
198 218 248
191 211 243
194 214 244
180 200 234
186 205 236
188 207 237
178 197 229
173 192 227
167 187 224
164 183 221
156 176 216
143 163 203
136 156 201
139 159 197
138 159 196
118 140 187
115 137 184
110 131 175
97 120 166
85 112 175
78 106 165
88 113 164
60 90 154
59 92 152
59 92 153
62 93 152
54 87 154
55 89 152
56 89 151
55 88 152
53 86 146
53 86 142
54 86 147
52 84 142
51 83 139
54 87 150
52 83 138
52 85 145
56 89 148
55 88 143
53 85 140
54 88 144
54 88 139
53 85 139
57 92 149
56 89 141
58 92 154
57 91 142
56 90 150
56 89 145
58 92 152
57 91 147
58 92 148
59 94 150
58 92 156
58 93 151
57 91 145
58 92 140
57 91 137
59 93 152
59 93 143
60 95 150
59 94 150
60 95 153
59 94 151
58 93 145
60 95 143
59 94 146
60 95 144
60 95 148
59 94 147
60 95 141
58 94 149
61 96 153
61 97 151
58 92 146
61 96 154
59 93 137
59 94 139
60 95 149
61 97 155
59 94 140
61 96 149
60 95 147
61 96 150
61 95 145
61 96 149
60 95 151
60 95 144
60 95 150
60 95 141
60 95 142
60 96 145
61 97 147
60 95 135
59 94 134
60 96 135
60 95 139
61 96 149
60 94 143
61 97 147
59 95 139
61 96 143
60 95 143
62 97 152
59 94 134
61 96 139
60 95 137
60 95 143
61 96 153
60 94 141
62 97 150
61 95 140
61 97 144
60 95 141
60 94 129
60 94 140
61 96 144
60 95 136
59 93 134
60 95 140
62 97 145
60 95 135
60 95 131
59 94 134
61 95 139
60 94 135
61 96 139
59 94 126
60 95 142
61 95 136
59 93 139
60 95 139
59 94 134
59 93 134
58 91 117
58 92 120
59 93 118
60 95 134
57 91 118
60 94 136
60 94 131
59 93 128
59 93 128
57 90 120
65 94 111
75 99 84
102 120 78
113 124 40
119 131 0
120 129 0
111 121 0
124 137 0
129 138 0
121 131 0
121 131 0
124 135 0
130 141 0
125 134 0
111 120 0
111 120 0
122 128 0
115 121 0
130 138 0
108 113 0
127 137 0
125 132 0
116 125 0
127 135 0
131 143 0
113 118 0
120 131 0
118 125 0
116 125 0
130 140 0
120 126 0
119 125 0
124 131 0
118 127 0
126 134 0
118 127 0
119 125 0
114 119 0
118 121 0
126 133 0
122 128 0
121 127 0
114 122 0
117 121 0
124 129 0
125 130 0
124 128 0
122 127 0
120 124 0
127 132 0
128 131 0
127 131 0
118 124 0
117 119 0
131 136 0
118 121 0
126 129 0
128 132 0
138 145 0
124 127 0
124 130 0
127 132 0
138 143 0
135 142 0
130 135 0
127 130 0
133 136 0
133 138 0
131 133 0
134 138 0
133 140 0
128 131 0
137 145 0
133 142 0
146 155 0
142 148 0
141 148 0
142 152 0
147 155 0
140 149 0
148 155 0
148 157 0
140 151 0
139 147 0
150 161 0
143 151 0
141 149 0
139 146 0
145 153 0
143 152 0
138 146 0
147 157 0
155 166 0
153 162 0
153 165 0
146 157 0
147 157 0
151 162 0
154 164 0
157 169 0
144 153 0
155 167 0
154 163 0
157 169 0
159 169 0
152 164 0
147 158 0
153 166 0
156 165 0
152 165 0
153 164 0
162 175 0
159 174 0
153 166 0
157 172 0
161 178 0
157 173 0
158 172 0
159 175 0
161 176 0
161 174 0
161 175 0
155 171 0
162 178 0
162 179 0
161 177 0
161 178 0
162 178 0
158 172 0
162 177 0
156 171 0
161 178 0
162 176 0
165 181 0
163 178 0
158 173 0
161 177 0
164 182 0
167 185 0
165 183 0
163 183 0
161 177 0
166 184 0
157 172 0
159 174 0
165 183 0
163 181 0
166 184 0
190 219 255
190 218 255
190 218 255
189 218 255
189 218 255
188 218 255
188 218 255
187 217 255
187 217 255
187 217 255
187 217 255
186 217 255
186 217 255
185 216 255
185 216 255
185 216 255
185 216 255
185 216 255
185 216 255
184 216 255
184 216 255
184 216 255
184 215 255
184 215 255
184 215 255
184 215 255
184 215 255
183 215 255
183 215 255
183 215 255
183 215 255
183 215 255
183 215 255
183 215 255
183 215 255
183 215 255
183 215 255
183 215 255
183 215 255
183 215 255
183 215 255
183 215 255
183 215 255
183 215 255
183 215 255
183 215 255
183 215 255
183 215 255
184 215 255
184 215 255
184 216 255
184 216 255
185 216 255
185 216 255
185 216 255
185 216 255
185 216 255
185 216 255
186 216 255
186 217 255
186 216 255
187 217 255
186 216 255
187 217 255
187 217 255
188 217 255
188 217 255
188 217 255
188 218 255
189 218 255
189 218 255
190 219 255
190 219 255
190 219 255
191 219 255
191 219 255
192 219 255
192 220 255
193 220 255
193 220 255
194 220 255
194 221 255
194 221 255
194 221 255
195 221 255
196 222 255
196 222 255
197 223 255
198 223 255
198 223 255
198 223 255
199 223 255
200 224 255
200 224 255
201 224 255
201 224 255
202 225 255
203 225 255
204 226 255
205 226 255
206 227 255
206 227 255
206 227 255
206 227 255
204 224 253
205 225 253
207 227 255
198 218 248
195 215 246
195 214 244
196 216 245
190 209 240
190 209 238
184 203 234
165 185 222
164 184 221
160 179 217
166 186 224
143 164 203
148 168 209
141 160 193
112 135 182
127 149 197
114 135 183
102 125 174
111 134 185
89 116 173
91 115 168
80 107 166
82 108 164
65 93 149
59 91 149
59 91 152
54 88 150
55 89 149
55 89 147
55 89 150
54 87 154
53 85 139
53 85 144
53 86 142
54 88 144
54 87 144
52 84 136
53 86 141
54 87 144
54 88 142
55 89 149
52 85 142
57 92 152
56 89 144
57 91 149
56 89 147
58 92 150
56 91 142
57 90 144
56 89 138
58 92 143
56 90 147
56 90 132
57 91 145
59 93 148
57 91 146
59 94 151
59 94 151
62 97 160
58 93 137
59 94 144
57 91 143
59 93 145
57 92 147
58 92 149
59 93 136
59 94 155
59 94 143
59 94 137
59 94 143
61 96 153
60 95 144
60 95 146
59 94 145
61 96 154
59 94 144
60 95 144
59 94 148
59 94 144
60 94 145
60 95 146
60 95 148
61 97 154
59 94 145
60 96 153
59 94 143
60 95 140
60 94 137
61 97 151
62 97 154
59 94 135
60 94 142
60 95 141
60 95 141
61 96 145
59 94 135
60 95 140
60 95 144
60 95 141
60 95 143
61 96 143
61 96 149
61 96 147
60 95 141
61 96 142
60 95 134
60 95 137
62 97 142
60 95 133
61 96 142
60 94 144
60 95 141
60 94 134
60 95 139
59 94 142
61 96 140
60 95 133
62 97 144
60 95 141
59 94 133
60 95 142
60 94 137
59 93 130
58 92 133
61 95 140
60 94 134
60 94 141
61 96 139
58 92 121
61 96 144
59 93 135
60 94 135
59 94 133
60 94 129
59 93 125
59 93 129
60 94 135
57 90 120
58 91 125
59 92 121
59 93 134
58 92 123
58 91 126
57 90 116
59 91 115
74 102 111
97 115 82
109 124 67
100 115 25
124 133 0
121 131 0
107 118 0
116 128 0
119 129 0
122 133 0
120 132 0
118 126 0
125 138 0
120 132 0
114 125 0
115 125 0
121 132 0
111 120 0
125 135 0
111 119 0
114 122 0
127 134 0
121 132 0
129 140 0
124 134 0
122 132 0
116 123 0
116 124 0
128 137 0
125 132 0
124 133 0
121 130 0
116 124 0
129 137 0
127 135 0
128 134 0
122 129 0
129 133 0
119 127 0
118 127 0
129 132 0
128 136 0
129 136 0
130 134 0
133 143 0
124 128 0
131 138 0
127 134 0
123 129 0
123 130 0
123 131 0
120 125 0
124 132 0
130 138 0
129 136 0
126 130 0
141 147 0
126 131 0
123 128 0
123 131 0
138 144 0
128 135 0
125 130 0
135 143 0
135 141 0
132 140 0
140 150 0
131 137 0
137 142 0
141 149 0
130 136 0
128 134 0
137 143 0
138 147 0
141 147 0
141 148 0
143 150 0
136 142 0
145 155 0
146 155 0
140 148 0
140 147 0
148 157 0
145 154 0
135 141 0
140 148 0
145 155 0
144 150 0
146 155 0
144 153 0
145 156 0
146 155 0
149 160 0
141 150 0
144 152 0
149 157 0
147 157 0
150 161 0
145 153 0
156 167 0
151 160 0
150 164 0
156 170 0
151 162 0
158 172 0
150 161 0
156 169 0
156 167 0
164 178 0
155 169 0
155 168 0
157 172 0
159 171 0
158 171 0
153 165 0
158 173 0
158 174 0
165 180 0
164 179 0
158 173 0
158 173 0
159 170 0
161 175 0
163 180 0
160 173 0
161 175 0
162 177 0
163 180 0
159 177 0
162 179 0
164 181 0
159 175 0
162 179 0
160 178 0
165 181 0
160 179 0
163 182 0
167 183 0
168 186 0
162 178 0
166 184 0
164 185 0
166 185 0
161 177 0
160 176 0
167 186 0
171 188 0
166 183 0
190 219 255
190 218 255
189 218 255
189 218 255
188 217 255
188 218 255
188 217 255
187 217 255
187 217 255
186 217 255
187 217 255
186 216 255
186 217 255
186 216 255
185 216 255
185 216 255
185 216 255
184 216 255
184 216 255
184 216 255
184 216 255
184 215 255
184 215 255
184 215 255
184 215 255
183 215 255
183 215 255
183 215 255
183 215 255
183 215 255
183 215 255
183 215 255
183 215 255
183 215 255
183 215 255
182 215 255
183 215 255
183 215 255
182 215 255
182 215 255
183 215 255
183 215 255
183 215 255
183 215 255
183 215 255
183 215 255
183 215 255
183 215 255
183 215 255
184 215 255
184 215 255
184 215 255
184 215 255
184 215 255
184 216 255
185 216 255
185 216 255
185 216 255
185 216 255
186 216 255
186 217 255
186 217 255
187 217 255
186 217 255
187 217 255
187 217 255
187 217 255
188 218 255
188 218 255
189 218 255
189 218 255
189 218 255
190 219 255
190 219 255
191 219 255
191 219 255
191 219 255
192 219 255
193 220 255
193 220 255
193 220 255
194 220 255
195 221 255
195 221 255
195 221 255
196 222 255
196 222 255
197 222 255
197 222 255
198 223 255
198 223 255
200 224 255
200 224 255
200 224 255
201 225 255
202 225 255
202 225 255
203 225 255
203 225 255
204 226 255
205 226 255
206 227 255
206 227 255
207 227 255
208 228 255
208 228 255
207 227 255
202 221 249
200 220 247
202 222 250
203 222 249
192 211 240
191 210 239
184 203 237
177 196 230
171 190 224
172 190 222
156 176 214
159 178 211
149 169 207
154 173 209
143 162 202
134 153 193
127 147 188
117 140 186
113 136 183
107 128 169
93 118 171
89 112 160
77 106 167
73 99 148
62 93 152
62 93 153
61 90 144
55 88 146
54 87 150
55 89 153
53 86 141
51 83 138
55 88 152
55 88 142
54 86 142
50 81 130
55 88 143
55 88 143
54 87 145
54 86 133
53 85 146
57 90 144
54 88 141
54 87 145
56 90 143
56 90 146
56 90 140
55 88 132
53 86 133
56 90 149
56 90 146
56 90 151
59 94 150
58 93 141
56 89 136
60 94 153
59 94 147
59 93 145
56 90 152
60 94 146
59 94 143
60 95 153
60 95 153
59 94 144
59 94 143
60 95 154
60 95 144
59 94 145
59 94 144
59 94 147
60 96 150
60 95 150
59 94 145
61 97 150
59 94 143
61 97 152
59 94 148
59 94 140
60 94 140
60 95 148
59 94 137
61 96 148
61 96 142
59 94 140
61 96 143
60 95 140
59 94 145
61 96 148
60 94 134
60 95 150
60 96 145
62 97 153
61 96 143
61 97 144
61 97 145
61 96 145
59 94 140
60 96 137
61 96 142
60 95 135
59 94 143
60 95 142
61 97 145
61 97 150
60 94 130
61 96 141
60 95 137
60 95 135
60 95 140
60 94 131
61 96 144
60 95 142
61 97 150
61 96 145
62 98 152
60 95 143
60 95 137
60 95 141
61 96 142
59 93 136
60 95 134
59 93 130
60 95 142
59 93 124
60 94 140
60 94 131
60 95 131
60 94 125
60 94 130
59 94 134
60 95 141
59 94 137
60 94 134
59 93 130
59 93 131
59 94 129
61 95 135
57 91 125
61 95 140
59 92 126
58 93 114
60 94 129
56 88 113
58 91 122
72 98 113
80 105 105
102 120 65
104 120 40
122 133 18
124 136 0
123 136 0
114 125 0
124 137 0
109 121 0
112 121 0
124 136 0
126 139 0
117 126 0
115 126 0
116 127 0
117 130 0
123 135 0
123 137 0
121 131 0
119 127 0
121 130 0
119 127 0
119 127 0
123 132 0
112 123 0
120 129 0
109 117 0
119 128 0
116 125 0
126 138 0
113 120 0
116 125 0
118 128 0
111 118 0
116 126 0
119 127 0
125 133 0
122 131 0
122 128 0
119 128 0
125 135 0
122 130 0
123 129 0
129 139 0
133 143 0
123 130 0
117 121 0
126 134 0
130 137 0
122 127 0
122 130 0
121 126 0
125 133 0
121 130 0
129 138 0
133 137 0
132 139 0
123 131 0
119 121 0
121 128 0
131 137 0
132 141 0
124 131 0
130 136 0
136 143 0
130 138 0
130 137 0
134 143 0
140 148 0
121 127 0
132 140 0
131 138 0
148 157 0
134 141 0
145 153 0
138 145 0
143 151 0
134 142 0
147 158 0
146 154 0
142 152 0
142 148 0
144 153 0
156 167 0
150 161 0
149 159 0
153 161 0
145 153 0
140 150 0
155 167 0
152 164 0
151 162 0
150 163 0
156 166 0
150 163 0
152 163 0
143 152 0
155 165 0
149 156 0
149 160 0
158 169 0
149 159 0
154 164 0
144 155 0
155 169 0
155 167 0
153 165 0
155 166 0
153 166 0
155 167 0
158 171 0
156 171 0
154 166 0
154 170 0
160 173 0
163 179 0
151 164 0
161 177 0
156 171 0
164 177 0
154 169 0
163 178 0
157 173 0
161 176 0
159 175 0
163 178 0
159 175 0
159 175 0
160 176 0
163 180 0
163 181 0
164 179 0
157 171 0
168 185 0
165 183 0
164 182 0
167 184 0
161 175 0
165 182 0
161 179 0
166 183 0
164 180 0
163 182 0
160 178 0
161 179 0
168 186 0
163 180 0
161 181 0
190 218 255
189 218 255
189 218 255
188 218 255
188 218 255
188 218 255
187 217 255
187 217 255
187 217 255
186 217 255
186 216 255
186 216 255
185 216 255
185 216 255
185 216 255
185 216 255
184 216 255
185 216 255
184 216 255
184 216 255
184 215 255
183 215 255
183 215 255
183 215 255
183 215 255
183 215 255
183 215 255
183 215 255
183 215 255
183 215 255
183 215 255
183 215 255
183 215 255
183 215 255
183 215 255
183 215 255
183 215 255
182 215 255
183 215 255
183 215 255
182 215 255
183 215 255
183 215 255
183 215 255
183 215 255
183 215 255
183 215 255
183 215 255
183 215 255
183 215 255
184 215 255
184 215 255
184 215 255
184 215 255
184 216 255
185 216 255
185 216 255
185 216 255
185 216 255
185 216 255
186 216 255
186 217 255
186 217 255
186 217 255
186 217 255
187 217 255
188 217 255
188 217 255
188 218 255
189 218 255
189 218 255
189 218 255
189 218 255
189 218 255
190 219 255
191 219 255
191 219 255
192 219 255
192 219 255
193 220 255
193 220 255
193 220 255
194 221 255
194 221 255
196 221 255
195 221 255
195 221 255
196 222 255
197 222 255
198 223 255
198 223 255
198 223 255
200 224 255
200 224 255
200 224 255
201 225 255
202 225 255
202 225 255
203 226 255
203 226 255
205 226 255
205 227 255
206 227 255
207 228 255
207 228 255
208 228 255
208 228 255
207 227 254
202 222 250
202 221 250
203 222 248
195 214 242
188 206 232
180 199 227
180 198 228
167 186 220
180 198 229
163 182 216
163 181 210
148 168 206
156 173 205
137 157 196
138 158 197
130 150 187
109 133 176
115 137 183
110 133 181
95 118 170
91 115 160
90 111 156
74 102 155
70 97 153
76 101 157
64 94 150
58 91 156
60 90 147
52 84 142
53 86 142
53 86 138
54 87 150
53 86 143
56 89 148
55 88 145
51 83 137
55 89 149
52 84 137
55 89 150
56 89 149
55 88 145
56 89 147
55 88 141
55 89 139
57 91 146
56 90 142
57 91 143
55 89 141
56 90 137
56 90 138
57 90 139
58 92 137
58 93 151
57 91 141
59 94 145
59 94 147
59 94 150
59 93 142
58 92 141
58 92 144
58 93 144
60 95 148
60 95 155
58 92 146
58 92 139
60 95 144
59 93 142
59 94 146
59 93 142
60 94 140
59 94 143
60 95 144
60 95 146
59 94 144
60 95 150
60 96 145
60 95 145
59 94 141
60 95 139
61 96 152
60 95 144
60 95 147
61 96 143
61 96 148
60 94 141
61 96 145
61 95 139
60 95 148
60 95 143
59 94 142
59 94 142
60 95 145
60 95 145
61 96 139
61 96 142
60 95 147
60 95 142
60 95 145
60 95 143
61 96 147
61 97 149
61 96 150
60 95 141
60 95 148
61 96 144
60 95 141
60 95 144
60 94 139
60 94 130
59 94 136
59 94 130
60 95 135
60 94 137
60 95 136
60 95 141
61 96 148
60 95 137
60 95 136
59 94 130
60 95 133
61 96 141
60 95 141
61 96 136
60 95 135
58 92 128
61 95 139
59 93 133
60 95 140
59 94 129
59 93 131
61 96 145
59 93 130
57 91 126
58 92 128
59 92 126
60 93 130
60 94 128
58 91 120
57 90 124
58 92 125
58 91 130
58 91 118
61 93 103
73 99 108
92 111 79
104 117 51
128 143 25
122 135 0
124 135 0
123 134 0
123 133 0
136 150 0
122 132 0
127 140 0
110 122 0
124 134 0
117 126 0
121 132 0
125 135 0
134 145 0
116 127 0
117 128 0
116 127 0
117 129 0
116 126 0
123 131 0
128 137 0
127 137 0
126 136 0
126 135 0
118 126 0
114 125 0
114 122 0
118 125 0
127 137 0
129 136 0
121 130 0
120 128 0
110 118 0
120 129 0
119 125 0
122 132 0
128 135 0
121 130 0
118 124 0
120 127 0
128 136 0
121 128 0
127 133 0
128 134 0
126 138 0
122 127 0
129 136 0
114 119 0
127 135 0
124 131 0
127 131 0
127 134 0
128 135 0
132 138 0
126 130 0
132 141 0
141 149 0
141 147 0
129 135 0
132 139 0
132 137 0
134 141 0
132 141 0
132 139 0
135 142 0
138 145 0
136 145 0
135 145 0
138 147 0
126 135 0
139 148 0
135 143 0
136 142 0
136 144 0
140 146 0
133 140 0
142 150 0
140 147 0
147 156 0
147 156 0
139 148 0
140 148 0
141 150 0
147 156 0
143 151 0
139 149 0
144 153 0
148 156 0
144 157 0
155 165 0
155 165 0
153 162 0
154 166 0
152 162 0
149 158 0
156 170 0
154 168 0
151 162 0
159 173 0
154 168 0
150 160 0
160 173 0
150 161 0
154 168 0
155 170 0
160 173 0
157 171 0
160 173 0
154 164 0
165 178 0
156 171 0
157 172 0
151 163 0
161 175 0
159 172 0
153 166 0
162 178 0
159 175 0
165 181 0
160 174 0
155 168 0
157 172 0
163 178 0
161 176 0
158 172 0
160 176 0
164 182 0
163 179 0
160 176 0
166 185 0
162 177 0
160 178 0
162 179 0
169 187 0
162 179 0
162 177 0
166 185 0
161 177 0
160 175 0
161 177 0
161 179 0
164 183 0
162 179 0
170 189 0
164 184 0
162 180 0
189 218 255
189 218 255
189 218 255
188 218 255
188 218 255
188 218 255
187 217 255
187 217 255
186 216 255
186 216 255
186 216 255
186 216 255
185 216 255
185 216 255
184 216 255
185 216 255
184 216 255
184 216 255
184 216 255
184 215 255
183 215 255
183 215 255
183 215 255
183 215 255
183 215 255
182 215 255
183 215 255
182 215 255
183 215 255
183 215 255
182 215 255
182 215 255
182 215 255
182 214 255
182 215 255
182 215 255
182 215 255
182 215 255
182 215 255
182 215 255
182 215 255
182 215 255
182 215 255
183 215 255
183 215 255
183 215 255
183 215 255
183 215 255
183 215 255
183 215 255
183 215 255
184 215 255
184 215 255
183 215 255
184 215 255
184 216 255
184 216 255
184 216 255
185 216 255
185 216 255
186 216 255
186 216 255
186 217 255
186 217 255
186 217 255
187 217 255
187 217 255
187 217 255
188 217 255
189 218 255
189 218 255
189 218 255
189 218 255
189 218 255
190 219 255
190 219 255
191 219 255
191 219 255
192 220 255
193 220 255
192 220 255
193 220 255
194 220 255
194 220 255
195 221 255
195 221 255
196 222 255
197 222 255
197 222 255
198 223 255
198 223 255
198 223 255
199 223 255
200 224 255
201 224 255
201 225 255
202 225 255
201 225 255
202 225 255
204 226 255
204 226 255
205 226 255
205 227 255
206 227 255
207 228 255
207 228 255
207 228 255
208 227 254
209 229 255
201 220 248
196 215 243
192 211 240
197 215 240
184 203 231
184 202 233
185 204 235
170 188 220
171 190 220
170 187 216
154 174 212
158 176 208
148 168 207
136 156 194
143 161 195
134 154 193
126 146 189
126 146 184
109 130 174
108 129 174
91 115 166
72 100 151
85 109 162
72 97 143
69 98 153
57 89 151
59 91 156
56 90 150
54 87 147
54 87 148
52 84 144
53 86 147
52 83 142
55 88 147
51 83 133
53 85 140
54 87 139
56 90 146
54 86 138
52 84 135
55 88 141
54 87 138
56 89 141
57 90 138
54 86 139
57 91 139
54 87 135
56 89 133
57 91 146
58 92 144
58 91 144
56 89 141
57 91 149
58 93 148
58 92 142
58 92 146
59 93 146
60 96 158
59 94 154
58 92 145
60 94 145
58 93 150
58 93 141
59 94 144
59 94 142
58 92 148
56 90 138
61 96 159
58 91 134
58 92 144
60 95 156
59 95 153
59 93 145
60 95 147
59 94 140
58 93 144
60 95 149
59 93 139
60 95 145
60 95 149
60 95 147
60 96 148
59 94 139
60 95 136
60 96 149
59 94 143
62 97 151
62 97 150
60 95 143
61 96 144
60 95 137
60 94 137
61 96 142
61 95 135
60 95 143
60 96 144
61 96 150
59 93 128
62 97 153
60 95 143
61 96 145
61 96 151
60 95 137
60 95 141
60 95 136
60 95 134
59 93 133
60 95 145
59 93 134
60 95 140
61 96 143
60 94 141
60 94 134
60 95 134
59 93 134
60 95 140
58 93 124
60 94 135
59 93 126
60 94 131
60 95 137
59 94 133
59 93 130
60 94 126
59 93 126
59 93 129
59 93 131
60 95 133
60 94 140
59 92 130
61 95 145
59 93 128
61 95 139
59 93 129
60 94 126
58 92 124
57 90 113
59 93 122
58 92 123
58 92 117
57 90 122
72 98 101
99 116 74
97 112 60
114 128 25
120 131 18
113 125 0
116 127 0
124 139 0
130 143 0
116 128 0
115 128 0
111 123 0
121 133 0
105 116 0
122 134 0
125 138 0
112 120 0
129 142 0
132 142 0
124 134 0
115 123 0
126 137 0
123 133 0
116 125 0
129 138 0
126 134 0
126 139 0
116 120 0
127 137 0
121 130 0
124 135 0
120 129 0
119 128 0
118 127 0
127 135 0
127 136 0
129 140 0
119 128 0
123 134 0
120 127 0
126 135 0
121 131 0
125 133 0
119 128 0
136 146 0
124 133 0
131 139 0
130 136 0
128 136 0
118 124 0
141 149 0
130 140 0
132 139 0
118 126 0
134 142 0
140 148 0
129 137 0
131 140 0
140 147 0
130 137 0
125 133 0
136 141 0
120 127 0
133 142 0
139 148 0
127 135 0
132 139 0
145 153 0
140 148 0
135 146 0
134 144 0
146 154 0
142 152 0
141 151 0
135 144 0
138 149 0
136 144 0
135 143 0
140 148 0
152 162 0
145 154 0
148 155 0
146 156 0
149 160 0
152 162 0
142 152 0
148 158 0
141 147 0
150 156 0
152 163 0
148 158 0
151 161 0
145 154 0
148 158 0
152 162 0
147 158 0
155 168 0
149 158 0
154 166 0
153 165 0
155 167 0
152 163 0
154 165 0
149 160 0
156 169 0
153 167 0
156 167 0
148 160 0
150 161 0
154 167 0
155 169 0
157 171 0
158 172 0
152 165 0
155 168 0
149 161 0
163 177 0
151 165 0
156 173 0
159 172 0
160 176 0
155 168 0
159 175 0
162 178 0
159 174 0
157 173 0
160 176 0
163 177 0
156 171 0
160 178 0
159 176 0
160 177 0
163 181 0
158 176 0
162 178 0
164 183 0
157 171 0
158 174 0
166 182 0
164 183 0
162 180 0
160 176 0
167 185 0
162 179 0
165 181 0
162 181 0
166 185 0
165 185 0
167 185 0
165 184 0
189 218 255
189 218 255
188 218 255
188 217 255
187 217 255
187 217 255
187 217 255
187 217 255
186 217 255
186 216 255
185 216 255
185 216 255
185 216 255
185 216 255
185 216 255
184 216 255
184 216 255
184 215 255
184 215 255
183 215 255
184 215 255
183 215 255
183 215 255
183 215 255
183 215 255
183 215 255
183 215 255
182 215 255
183 215 255
182 215 255
182 215 255
182 215 255
182 214 255
182 215 255
182 215 255
182 214 255
182 214 255
182 214 255
182 215 255
182 215 255
182 215 255
182 215 255
182 215 255
182 215 255
182 215 255
182 215 255
183 215 255
183 215 255
183 215 255
183 215 255
183 215 255
183 215 255
184 215 255
184 215 255
184 215 255
184 215 255
185 216 255
185 216 255
185 216 255
185 216 255
185 216 255
186 216 255
186 217 255
186 217 255
187 217 255
187 217 255
187 217 255
187 217 255
187 217 255
188 218 255
188 218 255
190 218 255
189 218 255
190 218 255
190 219 255
190 219 255
191 219 255
191 219 255
192 220 255
192 220 255
193 220 255
193 220 255
193 220 255
194 221 255
195 221 255
195 221 255
196 222 255
196 222 255
197 222 255
197 222 255
198 223 255
198 223 255
199 223 255
200 224 255
200 224 255
200 224 255
201 224 255
203 225 255
203 225 255
203 226 255
204 226 255
204 226 255
205 226 255
205 227 255
206 227 255
207 228 255
208 228 255
209 229 255
207 226 253
199 218 244
203 222 250
200 219 246
193 211 239
194 213 241
187 205 233
186 205 232
169 188 221
170 189 223
163 180 208
163 181 210
151 169 201
155 173 204
140 159 196
135 154 192
133 153 187
129 149 189
114 133 170
102 125 178
116 136 178
106 126 170
94 116 160
72 98 151
64 93 154
69 98 158
60 92 143
60 92 148
57 90 151
56 89 150
55 88 146
55 88 139
56 89 153
54 87 145
54 87 141
54 86 143
52 84 136
52 84 133
52 83 140
53 85 137
52 83 124
55 88 143
53 86 127
55 88 145
55 89 137
54 87 135
58 92 149
55 87 136
55 88 135
58 91 143
57 91 143
56 89 134
57 90 147
56 90 135
56 89 136
57 91 137
57 91 145
60 95 150
56 90 143
57 92 141
57 91 128
58 93 145
58 92 137
59 94 144
60 94 148
61 96 155
60 95 150
59 93 141
58 92 135
59 93 149
62 97 154
59 94 143
60 95 144
58 93 140
59 93 133
58 93 143
59 93 135
59 94 140
61 96 150
62 97 154
59 94 139
58 93 136
60 95 135
62 97 150
61 96 150
60 96 142
60 94 139
59 93 133
59 94 135
61 96 150
59 94 136
60 95 139
61 96 145
60 95 142
60 95 142
60 95 145
60 95 143
60 96 137
59 93 128
60 95 140
60 95 143
61 96 137
59 93 134
59 94 135
60 95 142
60 96 142
61 96 144
59 94 135
59 94 128
61 96 147
60 95 143
61 96 140
59 94 128
60 95 141
60 95 135
61 97 145
61 96 137
60 94 139
59 93 124
61 95 140
60 95 137
58 92 121
60 94 125
59 93 135
58 92 131
59 92 125
59 93 135
61 95 135
59 93 130
59 93 126
58 92 125
62 97 143
58 92 128
59 93 130
59 93 126
59 92 129
58 91 117
57 90 114
58 92 123
58 91 121
56 88 114
70 97 106
79 103 106
95 114 65
108 124 60
115 127 31
118 129 0
120 132 0
108 120 0
115 127 0
116 129 0
123 137 0
118 132 0
124 134 0
116 126 0
115 126 0
121 133 0
119 129 0
121 133 0
122 134 0
117 127 0
111 121 0
120 134 0
128 140 0
123 134 0
122 130 0
134 143 0
126 134 0
132 143 0
122 131 0
123 132 0
125 135 0
119 131 0
126 138 0
122 129 0
122 130 0
117 125 0
130 141 0
127 137 0
119 128 0
126 134 0
132 142 0
138 149 0
138 148 0
132 141 0
134 142 0
138 148 0
125 131 0
129 137 0
120 126 0
131 139 0
135 142 0
142 152 0
131 139 0
133 141 0
132 141 0
129 136 0
137 145 0
126 133 0
141 149 0
135 141 0
132 143 0
129 137 0
141 152 0
133 139 0
128 138 0
138 146 0
140 148 0
131 137 0
143 153 0
141 149 0
140 151 0
138 147 0
148 158 0
136 146 0
141 150 0
140 151 0
139 148 0
148 155 0
138 147 0
143 155 0
153 163 0
139 148 0
137 146 0
141 148 0
144 153 0
141 152 0
148 157 0
150 160 0
140 150 0
145 156 0
144 151 0
149 160 0
154 166 0
144 152 0
150 159 0
141 152 0
154 167 0
153 166 0
158 169 0
146 156 0
156 168 0
150 160 0
148 160 0
155 164 0
155 168 0
158 171 0
161 176 0
160 176 0
153 167 0
152 165 0
156 170 0
159 173 0
158 171 0
161 176 0
158 174 0
156 169 0
153 166 0
161 177 0
158 175 0
159 174 0
159 174 0
160 175 0
158 176 0
164 182 0
155 169 0
166 184 0
159 174 0
156 169 0
161 177 0
162 177 0
167 185 0
165 182 0
161 178 0
160 177 0
158 174 0
153 169 0
165 182 0
162 182 0
158 177 0
163 182 0
159 174 0
163 181 0
161 179 0
158 174 0
166 185 0
163 183 0
164 181 0
163 180 0
164 182 0
157 174 0
164 183 0
188 218 255
189 218 255
188 217 255
188 218 255
187 217 255
187 217 255
186 217 255
186 217 255
186 217 255
186 216 255
185 216 255
185 216 255
185 216 255
185 216 255
184 216 255
184 216 255
184 216 255
184 215 255
183 215 255
183 215 255
183 215 255
183 215 255
183 215 255
183 215 255
182 215 255
183 215 255
183 215 255
182 215 255
182 214 255
182 214 255
182 215 255
182 215 255
182 215 255
182 214 255
182 214 255
182 214 255
182 214 255
182 214 255
182 214 255
182 215 255
182 214 255
182 215 255
182 215 255
182 214 255
182 215 255
182 215 255
182 215 255
183 215 255
183 215 255
183 215 255
183 215 255
183 215 255
183 215 255
184 215 255
184 215 255
184 215 255
184 216 255
185 216 255
185 216 255
185 216 255
185 216 255
185 216 255
185 216 255
186 217 255
187 217 255
186 217 255
187 217 255
187 217 255
187 217 255
188 217 255
188 217 255
189 218 255
189 218 255
190 218 255
190 218 255
190 219 255
190 219 255
191 219 255
192 219 255
192 220 255
192 220 255
193 220 255
193 220 255
194 221 255
194 221 255
195 221 255
195 221 255
195 221 255
197 222 255
197 222 255
198 223 255
197 222 255
199 223 255
199 223 255
200 224 255
200 224 255
201 224 255
201 225 255
202 225 255
202 225 255
203 225 255
204 226 255
205 226 255
206 227 255
206 227 255
206 227 255
209 229 255
208 228 255
209 229 255
208 227 254
201 220 247
199 217 243
196 214 237
202 220 246
192 211 238
191 208 233
185 203 231
180 197 222
163 181 212
174 191 219
156 173 203
148 165 191
147 164 196
141 159 196
140 157 184
128 147 185
127 145 180
118 138 177
114 134 177
97 119 161
90 113 160
86 111 168
81 105 147
73 99 152
70 97 149
62 92 150
55 86 141
57 91 148
54 86 140
56 90 146
51 83 132
52 84 135
48 78 122
55 87 140
52 85 146
55 88 143
56 90 147
52 84 128
54 87 138
55 88 142
54 86 136
53 86 139
55 88 144
56 89 133
55 88 136
55 89 142
58 92 142
58 93 147
56 90 138
58 92 153
57 90 143
57 92 147
55 88 133
56 89 137
58 93 145
58 92 135
57 90 143
57 91 134
57 92 137
58 92 143
58 93 144
59 94 145
57 91 140
60 96 147
59 94 147
59 94 140
58 93 144
61 96 143
58 92 145
58 93 130
59 94 137
57 91 137
61 96 149
60 95 137
60 95 143
60 95 146
58 91 137
59 94 147
60 95 142
58 93 136
60 95 148
59 93 133
60 95 143
59 94 140
61 96 145
59 93 134
59 93 131
60 95 137
59 93 135
59 93 128
60 95 141
60 95 139
60 95 147
61 96 139
61 97 147
60 94 133
59 93 135
60 95 137
61 96 147
61 96 145
60 95 136
61 96 137
60 95 135
61 97 145
60 95 131
59 94 130
59 93 136
59 94 137
61 97 147
59 93 128
61 95 136
61 96 145
61 96 141
59 94 134
60 94 137
60 94 139
60 94 129
58 92 120
60 95 144
60 95 134
61 95 135
60 95 135
60 94 131
60 94 130
60 94 135
59 93 122
60 94 128
60 94 139
60 94 133
60 94 129
59 93 121
58 92 124
59 92 129
60 95 131
59 93 126
58 91 131
58 91 118
57 90 113
61 93 113
78 103 107
90 111 75
95 110 45
114 127 25
112 125 0
115 127 0
118 131 0
127 140 0
122 135 0
109 120 0
120 131 0
120 130 0
115 126 0
122 134 0
120 130 0
123 135 0
116 128 0
111 122 0
123 133 0
138 151 0
119 129 0
119 130 0
120 131 0
132 143 0
119 130 0
121 134 0
132 142 0
120 129 0
122 134 0
130 142 0
127 139 0
122 129 0
128 137 0
121 131 0
129 139 0
122 130 0
120 131 0
135 144 0
127 137 0
134 146 0
124 136 0
127 136 0
132 142 0
132 141 0
129 140 0
118 128 0
132 142 0
125 132 0
134 143 0
131 140 0
129 140 0
135 142 0
127 137 0
127 134 0
126 134 0
129 136 0
133 140 0
134 144 0
128 136 0
138 146 0
131 137 0
131 138 0
129 136 0
132 138 0
130 140 0
141 152 0
132 141 0
134 141 0
137 144 0
139 149 0
139 149 0
142 152 0
142 155 0
141 151 0
136 142 0
139 149 0
133 140 0
141 151 0
140 146 0
143 151 0
143 152 0
149 159 0
144 156 0
146 155 0
141 151 0
140 152 0
151 161 0
152 163 0
141 151 0
149 161 0
144 155 0
152 162 0
156 167 0
147 157 0
151 160 0
149 160 0
156 169 0
149 161 0
154 164 0
147 156 0
147 156 0
149 163 0
151 165 0
161 177 0
147 158 0
155 168 0
153 164 0
149 162 0
158 170 0
153 164 0
151 165 0
153 164 0
151 164 0
154 167 0
160 176 0
156 172 0
153 166 0
153 168 0
158 171 0
157 174 0
157 171 0
153 167 0
157 174 0
160 178 0
158 174 0
159 174 0
159 173 0
167 183 0
162 178 0
158 174 0
163 179 0
165 183 0
161 177 0
163 181 0
166 181 0
163 180 0
162 177 0
165 180 0
167 186 0
156 173 0
163 181 0
166 185 0
163 178 0
162 180 0
163 180 0
164 183 0
163 180 0
160 178 0
166 184 0
168 189 0
164 183 0
188 218 255
188 217 255
188 217 255
187 217 255
187 217 255
187 217 255
186 217 255
187 217 255
185 216 255
186 216 255
185 216 255
185 216 255
185 216 255
185 216 255
185 216 255
184 216 255
184 215 255
183 215 255
183 215 255
184 215 255
183 215 255
183 215 255
183 215 255
183 215 255
183 215 255
182 215 255
182 215 255
182 215 255
182 214 255
182 214 255
182 214 255
182 214 255
182 214 255
182 214 255
182 214 255
182 214 255
182 214 255
182 214 255
182 214 255
182 214 255
182 214 255
182 214 255
182 214 255
182 214 255
182 214 255
182 215 255
183 215 255
182 215 255
182 215 255
183 215 255
183 215 255
183 215 255
183 215 255
184 215 255
184 215 255
184 215 255
184 215 255
185 216 255
185 216 255
185 216 255
185 216 255
185 216 255
185 216 255
186 216 255
186 216 255
186 217 255
186 217 255
188 217 255
188 217 255
188 217 255
188 218 255
189 218 255
189 218 255
189 218 255
189 218 255
190 219 255
191 219 255
190 219 255
192 219 255
191 219 255
192 220 255
192 220 255
193 220 255
194 220 255
194 221 255
195 221 255
195 221 255
196 221 255
197 222 255
197 222 255
197 222 255
198 223 255
199 223 255
199 223 255
199 224 255
200 224 255
201 224 255
201 225 255
202 225 255
203 225 255
203 225 255
203 226 255
204 226 255
205 227 255
206 227 255
207 227 255
209 229 255
209 229 255
208 228 255
207 226 251
205 223 247
205 223 247
199 216 240
194 212 238
195 213 237
198 216 242
180 198 227
180 197 223
171 189 219
170 189 222
167 185 213
143 160 192
145 163 196
138 156 194
123 144 186
140 157 189
141 159 190
123 142 179
114 132 163
108 128 162
89 113 160
89 111 153
76 102 150
74 102 157
73 100 150
63 94 153
66 93 142
57 91 144
55 88 139
54 87 145
56 89 146
55 89 144
51 83 138
54 87 140
55 88 144
54 86 133
53 86 139
54 87 141
54 87 139
52 84 130
52 84 129
54 87 143
54 87 128
57 91 142
57 91 143
55 87 136
55 88 132
54 87 139
60 95 151
56 89 133
58 93 141
57 91 149
55 89 142
58 92 143
59 93 147
57 92 144
58 92 134
57 91 133
59 94 142
57 91 136
60 95 147
58 93 137
59 93 147
58 92 140
59 93 143
59 95 145
56 89 134
59 94 139
59 94 141
58 92 130
60 95 148
59 94 145
58 93 137
60 95 144
58 93 130
60 95 140
59 94 136
59 94 136
60 95 143
60 95 142
60 95 140
60 95 143
59 94 143
58 92 132
60 95 141
59 94 147
61 96 149
59 93 135
58 92 119
58 92 128
59 94 142
60 95 139
59 94 134
60 95 141
59 94 139
61 95 144
59 93 124
60 95 141
60 94 136
59 93 131
61 96 148
60 95 147
59 93 125
61 96 139
60 95 140
60 94 137
60 94 141
58 92 129
59 93 126
60 94 139
60 95 144
59 94 133
59 93 133
60 94 133
59 93 131
58 93 126
58 93 129
60 94 137
61 95 139
58 92 118
59 93 130
59 93 130
59 93 126
59 93 124
59 94 131
59 93 129
59 94 128
59 93 114
58 92 120
59 92 129
58 91 129
59 93 122
58 92 124
58 91 124
58 91 120
58 92 120
58 91 131
57 90 121
69 96 107
91 112 92
106 123 65
108 123 51
122 135 25
114 123 0
120 133 0
114 124 0
117 131 0
124 137 0
130 144 0
110 120 0
127 140 0
112 121 0
112 124 0
117 128 0
125 136 0
128 140 0
123 138 0
119 129 0
127 140 0
131 141 0
119 131 0
116 129 0
112 124 0
128 139 0
122 133 0
122 134 0
133 143 0
126 137 0
128 140 0
112 124 0
120 129 0
136 144 0
116 128 0
129 141 0
127 136 0
124 135 0
131 143 0
129 140 0
127 139 0
135 145 0
128 137 0
130 143 0
128 140 0
129 139 0
131 143 0
138 148 0
134 144 0
124 133 0
131 139 0
124 131 0
119 127 0
138 147 0
127 136 0
132 141 0
129 139 0
129 139 0
125 134 0
129 139 0
124 131 0
135 145 0
124 134 0
133 142 0
136 145 0
136 146 0
142 152 0
131 140 0
132 139 0
135 144 0
134 147 0
145 155 0
129 138 0
138 146 0
142 153 0
142 150 0
132 144 0
141 151 0
138 145 0
137 146 0
145 154 0
145 157 0
150 162 0
148 158 0
141 151 0
133 142 0
141 150 0
146 158 0
149 160 0
146 159 0
140 150 0
152 166 0
142 152 0
151 162 0
147 158 0
149 160 0
156 170 0
153 165 0
148 160 0
158 166 0
150 162 0
154 167 0
148 161 0
149 161 0
158 174 0
151 165 0
157 172 0
156 168 0
155 169 0
159 171 0
152 164 0
157 170 0
158 173 0
147 160 0
156 169 0
157 172 0
157 172 0
158 172 0
158 174 0
155 170 0
156 172 0
160 174 0
161 177 0
157 173 0
159 175 0
161 177 0
158 175 0
160 175 0
163 180 0
159 176 0
164 182 0
162 179 0
158 173 0
160 178 0
157 174 0
162 179 0
155 170 0
162 178 0
159 179 0
168 184 0
162 179 0
162 179 0
163 178 0
164 181 0
165 184 0
157 174 0
163 182 0
166 185 0
158 177 0
166 184 0
162 181 0
169 189 0
189 218 255
188 218 255
188 217 255
187 217 255
187 217 255
186 217 255
187 217 255
186 217 255
185 216 255
185 216 255
185 216 255
185 216 255
185 216 255
184 216 255
184 216 255
184 215 255
184 215 255
184 215 255
183 215 255
183 215 255
183 215 255
183 215 255
183 215 255
182 215 255
182 215 255
182 214 255
182 214 255
182 214 255
182 214 255
182 214 255
182 214 255
182 214 255
181 214 255
182 214 255
182 214 255
182 214 255
182 214 255
182 214 255
182 214 255
182 214 255
182 214 255
182 214 255
182 214 255
182 215 255
182 214 255
182 215 255
182 215 255
182 215 255
182 215 255
183 215 255
183 215 255
183 215 255
183 215 255
183 215 255
183 215 255
184 215 255
184 215 255
184 215 255
184 216 255
185 216 255
185 216 255
185 216 255
186 216 255
186 216 255
186 216 255
186 217 255
187 217 255
187 217 255
187 217 255
188 218 255
188 217 255
188 218 255
188 218 255
189 218 255
190 218 255
189 218 255
191 219 255
190 219 255
191 219 255
191 219 255
192 220 255
192 220 255
193 220 255
194 220 255
194 221 255
195 221 255
195 221 255
195 221 255
196 222 255
196 222 255
197 222 255
198 223 255
198 223 255
199 223 255
200 224 255
200 224 255
201 224 255
202 225 255
202 225 255
203 225 255
203 225 255
204 226 255
203 226 255
205 227 255
206 227 255
206 227 255
207 228 255
209 229 255
208 228 255
207 226 253
209 227 253
206 225 250
201 219 245
198 216 240
194 212 236
195 213 239
200 217 241
186 204 232
181 197 220
171 189 217
167 183 206
160 178 210
157 174 202
140 158 193
143 160 183
140 156 186
135 154 191
120 139 176
106 125 160
112 133 174
108 130 171
93 116 161
91 115 163
89 109 147
72 99 150
66 93 144
64 92 145
65 95 146
54 88 149
55 87 139
55 87 140
55 88 141
54 86 138
54 86 138
52 83 132
53 86 132
55 87 138
54 87 135
54 86 136
55 88 140
54 87 137
54 87 141
52 84 126
56 89 133
58 91 145
54 87 138
56 89 140
55 89 140
56 89 136
57 91 141
54 87 129
56 89 134
58 92 144
56 89 133
57 91 134
56 90 130
58 92 142
57 91 149
58 92 137
59 93 140
60 94 143
59 93 139
58 92 144
60 95 151
59 93 144
58 91 130
58 92 141
58 92 149
58 92 137
59 93 137
59 94 136
59 93 136
60 94 145
60 94 141
58 93 140
60 96 142
59 94 137
61 97 152
59 94 134
59 93 136
60 94 133
61 96 141
59 94 142
60 94 144
59 94 135
59 94 141
59 94 132
61 96 153
59 93 122
59 93 130
60 94 129
59 94 126
61 96 143
61 97 148
59 94 129
59 94 134
60 95 139
60 95 134
61 96 148
62 97 149
61 95 140
59 94 130
61 95 140
60 95 136
60 95 131
60 94 133
59 93 129
60 94 128
61 96 139
60 94 140
60 95 136
60 94 136
60 95 139
59 94 130
60 94 134
60 95 135
61 95 134
60 95 134
59 93 128
60 94 136
60 95 135
60 94 129
60 95 134
59 93 128
60 94 133
59 93 122
60 95 133
59 94 131
59 93 121
60 94 134
57 91 111
58 92 135
60 95 133
60 94 136
57 90 122
55 88 114
57 90 113
67 97 117
79 104 93
91 107 54
106 123 60
115 127 19
117 128 0
113 123 0
110 123 0
110 121 0
115 128 0
120 133 0
122 136 0
124 135 0
121 131 0
123 137 0
117 128 0
126 138 0
125 140 0
131 144 0
114 127 0
128 139 0
119 130 0
115 125 0
120 128 0
122 132 0
113 125 0
127 137 0
114 126 0
128 139 0
130 139 0
120 132 0
125 137 0
123 137 0
130 141 0
130 141 0
127 139 0
124 133 0
127 139 0
123 132 0
123 134 0
132 145 0
125 136 0
124 132 0
132 144 0
128 137 0
123 129 0
131 141 0
137 147 0
125 136 0
134 144 0
132 143 0
122 127 0
130 140 0
137 149 0
132 146 0
130 138 0
127 138 0
131 142 0
135 144 0
137 146 0
128 139 0
136 146 0
131 140 0
134 141 0
128 136 0
143 154 0
133 140 0
130 139 0
141 151 0
145 155 0
133 141 0
135 144 0
142 151 0
142 152 0
143 153 0
136 145 0
137 147 0
146 156 0
143 154 0
143 153 0
149 160 0
139 148 0
137 148 0
142 153 0
150 159 0
141 152 0
143 151 0
150 160 0
135 145 0
147 158 0
147 158 0
152 163 0
151 161 0
146 156 0
149 159 0
148 161 0
141 151 0
145 157 0
150 160 0
150 164 0
148 159 0
148 159 0
159 172 0
148 159 0
151 162 0
150 161 0
150 162 0
152 164 0
161 176 0
152 164 0
146 159 0
160 175 0
150 162 0
156 170 0
157 172 0
150 164 0
156 173 0
157 172 0
159 174 0
156 172 0
160 174 0
155 171 0
152 167 0
160 175 0
159 177 0
160 178 0
156 171 0
158 175 0
159 174 0
159 176 0
159 174 0
158 174 0
163 180 0
161 178 0
159 175 0
158 173 0
166 184 0
159 174 0
163 182 0
161 178 0
158 175 0
165 181 0
162 179 0
161 179 0
161 179 0
163 182 0
165 183 0
161 180 0
165 182 0
162 180 0
164 183 0
166 183 0
166 186 0
188 217 255
188 218 255
187 217 255
187 217 255
187 217 255
186 217 255
186 216 255
186 216 255
185 216 255
185 216 255
185 216 255
184 215 255
184 215 255
184 216 255
184 215 255
184 215 255
183 215 255
184 215 255
183 215 255
183 215 255
183 215 255
183 215 255
182 215 255
182 215 255
182 215 255
182 214 255
182 214 255
182 214 255
182 214 255
182 214 255
182 214 255
182 214 255
182 214 255
182 214 255
182 214 255
181 214 255
182 214 255
182 214 255
182 214 255
182 214 255
182 214 255
182 214 255
182 214 255
182 214 255
182 214 255
182 215 255
182 214 255
182 215 255
182 215 255
183 215 255
183 215 255
183 215 255
183 215 255
183 215 255
183 215 255
184 215 255
184 215 255
184 216 255
185 216 255
185 216 255
185 216 255
185 216 255
186 216 255
185 216 255
186 216 255
186 217 255
186 217 255
187 217 255
188 217 255
187 217 255
187 217 255
188 218 255
188 218 255
189 218 255
189 218 255
190 218 255
190 219 255
190 219 255
191 219 255
191 219 255
192 220 255
192 220 255
193 220 255
193 220 255
194 220 255
194 221 255
195 221 255
195 221 255
196 222 255
196 222 255
197 222 255
197 222 255
198 223 255
199 223 255
200 224 255
200 224 255
200 224 255
200 224 255
201 225 255
202 225 255
203 225 255
204 226 255
204 226 255
204 226 255
205 227 255
207 227 255
207 228 255
208 228 255
208 228 255
209 229 255
209 228 253
204 222 246
204 223 249
200 217 239
201 218 241
201 218 241
191 207 228
188 205 229
182 199 223
182 198 223
166 183 208
169 185 211
170 186 214
149 166 198
143 160 190
146 162 189
133 151 184
143 158 184
124 140 167
104 126 163
106 126 166
112 130 162
86 110 152
84 108 148
74 100 147
59 91 134
67 95 145
57 90 139
56 87 132
54 87 133
55 88 141
54 88 137
54 86 133
55 87 142
53 84 132
54 86 146
54 86 140
54 87 124
54 86 133
55 87 135
53 85 137
54 86 136
57 90 146
55 88 136
53 85 135
55 88 132
56 89 136
56 90 129
56 90 134
56 89 128
55 88 140
57 91 139
56 90 133
56 89 133
57 91 136
59 94 148
56 89 122
59 94 145
59 93 135
58 92 139
60 95 145
59 93 143
59 94 137
59 93 140
58 92 142
58 93 127
58 91 133
58 93 147
59 94 141
58 92 135
61 95 144
59 94 143
59 93 144
59 93 137
60 95 142
59 94 139
59 94 139
60 94 135
59 93 134
60 95 139
60 95 139
59 94 140
60 95 140
60 95 134
61 96 150
59 93 137
60 94 139
60 94 135
60 95 144
59 93 130
62 98 155
60 94 137
59 94 137
60 96 142
60 95 137
60 95 139
60 95 140
61 95 141
60 95 136
60 95 136
60 95 134
60 94 133
62 96 139
61 96 139
59 94 133
60 94 134
60 94 131
60 94 130
60 94 129
60 94 134
58 92 133
60 95 140
59 94 130
61 95 141
61 95 144
60 94 129
59 93 128
58 92 126
59 94 135
59 94 137
59 94 125
58 93 122
60 94 137
60 94 129
60 94 130
58 91 115
59 94 130
59 93 126
58 91 124
56 89 108
59 92 125
57 91 117
58 92 125
56 88 108
57 90 117
57 90 114
61 91 107
71 98 103
78 99 85
107 125 54
110 127 47
133 146 0
117 131 0
105 115 0
112 127 0
115 126 0
117 130 0
131 144 0
123 136 0
125 137 0
119 133 0
127 140 0
119 131 0
123 137 0
122 134 0
132 143 0
124 136 0
128 140 0
120 131 0
117 128 0
120 133 0
127 139 0
133 146 0
125 138 0
130 144 0
122 134 0
125 139 0
129 143 0
131 141 0
131 143 0
131 142 0
122 133 0
133 146 0
127 138 0
129 140 0
122 133 0
134 146 0
130 140 0
122 132 0
138 153 0
132 142 0
131 139 0
131 143 0
137 149 0
134 145 0
131 140 0
125 135 0
132 145 0
123 132 0
129 139 0
128 135 0
125 135 0
135 148 0
135 144 0
142 154 0
137 149 0
129 141 0
132 140 0
135 143 0
143 157 0
135 147 0
132 141 0
153 167 0
142 155 0
138 147 0
139 148 0
140 148 0
138 146 0
136 146 0
139 149 0
142 150 0
142 153 0
136 147 0
142 152 0
146 155 0
143 156 0
134 141 0
136 144 0
149 158 0
144 152 0
145 155 0
146 156 0
149 164 0
141 152 0
147 159 0
148 158 0
149 161 0
152 167 0
145 155 0
143 155 0
149 162 0
151 163 0
153 164 0
148 161 0
152 165 0
147 160 0
150 164 0
154 167 0
154 167 0
153 167 0
152 167 0
152 163 0
154 166 0
150 161 0
154 167 0
149 164 0
152 165 0
155 169 0
154 170 0
148 160 0
159 177 0
156 169 0
160 177 0
158 171 0
154 166 0
156 173 0
162 179 0
163 179 0
158 175 0
158 175 0
161 177 0
155 170 0
159 176 0
157 173 0
165 181 0
153 168 0
155 168 0
153 170 0
159 174 0
163 180 0
160 177 0
160 176 0
162 181 0
161 177 0
162 180 0
160 175 0
162 180 0
164 183 0
163 182 0
164 182 0
161 177 0
161 180 0
162 181 0
166 184 0
161 177 0
164 183 0
163 180 0
166 187 0
165 185 0
168 188 0
188 217 255
187 217 255
187 217 255
187 217 255
187 217 255
187 217 255
186 217 255
185 216 255
185 216 255
185 216 255
185 216 255
185 216 255
184 216 255
184 215 255
184 215 255
184 215 255
183 215 255
183 215 255
183 215 255
183 215 255
183 215 255
183 215 255
182 215 255
182 214 255
182 215 255
182 214 255
182 214 255
182 214 255
182 214 255
182 214 255
181 214 255
181 214 255
182 214 255
181 214 255
181 214 255
181 214 255
182 214 255
181 214 255
181 214 255
182 214 255
182 214 255
182 214 255
182 214 255
182 214 255
182 214 255
182 214 255
182 215 255
182 214 255
182 215 255
183 215 255
182 215 255
183 215 255
183 215 255
183 215 255
183 215 255
184 215 255
184 215 255
184 215 255
184 216 255
184 216 255
185 216 255
185 216 255
185 216 255
185 216 255
186 217 255
186 216 255
186 217 255
187 217 255
187 217 255
187 217 255
188 217 255
188 218 255
188 218 255
189 218 255
189 218 255
189 218 255
190 219 255
190 219 255
191 219 255
191 219 255
192 219 255
192 220 255
192 220 255
194 220 255
194 220 255
194 221 255
195 221 255
195 221 255
195 221 255
196 222 255
197 222 255
198 223 255
198 223 255
199 223 255
200 224 255
199 223 255
201 224 255
201 224 255
202 225 255
202 225 255
203 225 255
203 226 255
204 226 255
205 226 255
205 227 255
206 227 255
207 228 255
208 228 255
208 228 255
208 228 254
208 227 252
207 226 250
203 222 247
203 221 242
203 221 242
189 207 231
188 205 230
190 207 228
185 201 225
180 196 218
176 192 216
154 171 197
170 187 213
157 175 207
163 179 203
140 156 185
142 160 194
134 152 181
121 140 172
112 132 169
119 136 168
104 125 166
98 119 159
89 113 159
79 104 145
82 103 131
74 99 142
74 101 150
57 88 150
58 90 148
53 86 143
56 88 147
56 90 143
52 84 141
51 83 128
54 87 139
52 83 133
53 84 136
54 87 146
52 84 117
56 89 134
51 82 125
53 85 127
54 87 133
53 86 131
55 88 131
57 90 143
57 91 144
55 88 131
55 88 135
57 91 141
55 89 138
55 87 127
57 91 139
57 91 138
58 91 134
56 89 132
57 91 131
58 92 134
56 89 130
57 90 133
56 89 129
57 91 136
57 92 144
59 94 147
59 94 144
61 96 151
59 94 138
59 94 147
59 94 144
59 93 137
57 90 129
58 92 133
58 93 138
59 93 133
59 94 139
60 95 143
60 94 140
59 95 143
60 94 137
60 94 141
58 93 136
60 94 141
60 95 139
61 95 144
61 96 139
61 96 148
58 93 128
60 94 131
60 94 135
59 93 128
59 94 133
60 95 137
62 98 149
60 94 140
59 94 141
59 94 147
60 94 136
60 95 131
58 92 122
60 94 130
60 94 139
60 95 135
61 95 135
60 95 136
59 93 139
60 95 139
60 95 140
60 95 131
60 94 139
59 93 139
57 91 120
59 93 129
60 94 135
60 94 133
59 93 136
58 91 124
59 93 131
59 93 122
60 95 135
60 95 139
60 94 137
58 92 113
60 94 137
59 93 130
60 95 136
59 93 120
60 94 131
58 91 120
59 93 129
56 89 115
59 92 125
58 92 125
57 90 125
58 92 121
61 94 124
70 97 110
90 110 82
97 116 75
103 116 44
125 138 0
119 129 0
110 122 0
115 128 0
119 133 0
120 133 0
124 139 0
126 137 0
109 121 0
131 145 0
120 132 0
114 128 0
123 137 0
124 134 0
125 139 0
125 137 0
114 127 0
129 143 0
133 146 0
131 144 0
128 140 0
129 142 0
126 138 0
121 133 0
125 137 0
125 136 0
135 147 0
120 133 0
126 136 0
133 144 0
122 134 0
135 148 0
136 149 0
139 152 0
139 153 0
130 142 0
124 135 0
136 145 0
135 146 0
127 139 0
134 146 0
128 135 0
134 145 0
135 145 0
135 145 0
126 137 0
137 149 0
136 147 0
132 140 0
138 149 0
134 143 0
134 146 0
141 153 0
137 148 0
133 147 0
138 150 0
140 152 0
138 146 0
137 147 0
129 141 0
132 143 0
148 162 0
134 145 0
133 145 0
140 151 0
139 150 0
129 134 0
136 147 0
139 150 0
141 151 0
139 148 0
136 146 0
145 155 0
139 151 0
146 156 0
142 152 0
155 167 0
146 158 0
144 153 0
148 160 0
143 153 0
145 158 0
146 157 0
146 160 0
140 150 0
148 160 0
146 158 0
154 166 0
148 161 0
153 166 0
151 165 0
153 167 0
145 154 0
148 159 0
141 154 0
155 168 0
155 164 0
149 161 0
153 167 0
152 165 0
151 164 0
156 171 0
151 165 0
155 166 0
158 171 0
153 166 0
155 171 0
158 172 0
154 168 0
162 178 0
157 174 0
159 173 0
162 179 0
154 170 0
156 173 0
159 172 0
152 166 0
158 174 0
161 178 0
156 171 0
162 179 0
162 178 0
159 176 0
161 177 0
165 182 0
161 179 0
160 175 0
156 171 0
160 177 0
158 173 0
156 172 0
165 185 0
164 183 0
161 179 0
164 181 0
165 182 0
165 182 0
162 179 0
160 178 0
162 180 0
160 177 0
164 180 0
170 189 0
165 184 0
160 178 0
160 178 0
163 181 0
162 182 0
165 184 0
164 183 0
187 217 255
187 217 255
187 217 255
187 217 255
186 217 255
186 216 255
186 216 255
186 216 255
185 216 255
185 216 255
185 216 255
184 216 255
184 215 255
184 215 255
184 215 255
183 215 255
183 215 255
183 215 255
183 215 255
183 215 255
183 215 255
183 215 255
182 215 255
182 214 255
182 214 255
182 214 255
182 214 255
182 214 255
182 214 255
182 214 255
181 214 255
182 214 255
181 214 255
181 214 255
181 214 255
181 214 255
181 214 255
181 214 255
181 214 255
181 214 255
182 214 255
182 214 255
182 214 255
182 214 255
182 214 255
182 214 255
182 214 255
182 215 255
182 215 255
183 215 255
182 215 255
183 215 255
183 215 255
183 215 255
184 215 255
183 215 255
184 215 255
184 215 255
184 215 255
184 216 255
184 216 255
185 216 255
185 216 255
185 216 255
186 217 255
186 217 255
186 217 255
187 217 255
187 217 255
187 217 255
188 218 255
189 218 255
188 218 255
189 218 255
189 218 255
189 218 255
190 219 255
191 219 255
191 219 255
191 219 255
192 220 255
192 220 255
192 220 255
193 220 255
194 221 255
194 221 255
195 221 255
195 221 255
195 221 255
196 222 255
196 222 255
197 222 255
198 223 255
198 223 255
198 223 255
199 224 255
200 224 255
201 224 255
201 225 255
202 225 255
203 225 255
203 225 255
204 226 255
204 226 255
205 227 255
205 227 255
207 228 255
207 228 255
208 228 255
208 228 255
207 227 253
210 228 253
207 226 251
207 224 247
206 223 246
201 217 239
191 207 227
190 207 231
182 198 219
187 202 225
181 197 219
173 188 211
170 185 207
166 182 210
150 167 193
165 181 207
147 161 185
145 161 188
133 149 176
124 142 172
118 137 169
115 132 164
100 121 166
99 118 154
89 112 159
87 110 150
78 101 133
62 91 138
67 94 146
57 89 140
54 87 146
55 88 135
54 87 135
54 87 137
54 87 137
54 87 134
52 83 129
53 85 124
56 90 134
54 87 132
54 87 139
55 87 137
54 88 131
53 85 135
58 91 143
55 88 138
55 88 126
57 91 140
56 89 126
57 91 137
56 90 141
58 91 137
59 94 144
56 90 135
56 90 138
57 91 133
56 90 127
58 93 132
57 91 133
59 93 135
58 92 138
60 94 144
60 95 148
58 92 135
61 96 152
61 96 145
58 93 128
59 93 137
59 93 133
58 91 130
59 93 137
59 93 137
58 93 134
58 92 123
60 95 145
60 94 136
59 94 139
59 93 131
58 92 128
60 94 138
59 93 134
60 94 136
59 94 140
59 94 136
60 95 137
60 95 143
58 91 128
60 94 141
59 93 126
58 91 126
59 94 142
60 95 135
59 94 131
58 93 124
60 94 134
60 95 140
58 92 124
59 92 134
60 95 134
60 94 131
59 93 135
59 93 133
59 93 134
60 94 130
58 93 115
60 95 141
60 94 135
59 94 135
60 95 140
59 93 122
59 94 139
60 94 124
59 93 133
58 92 126
59 93 126
59 93 131
61 95 135
58 92 122
57 91 117
59 93 133
59 93 121
58 92 120
59 93 129
60 94 129
58 91 118
60 94 137
60 95 133
58 92 126
57 91 122
59 93 122
58 91 123
57 90 120
58 91 124
59 92 122
56 88 110
73 101 105
86 111 102
92 112 81
105 120 41
122 136 18
120 130 0
112 124 0
123 137 0
110 122 0
127 139 0
119 131 0
117 131 0
115 129 0
121 135 0
130 142 0
124 136 0
113 125 0
123 138 0
119 132 0
128 140 0
124 139 0
131 145 0
117 130 0
128 142 0
126 138 0
124 135 0
121 131 0
125 135 0
118 130 0
131 144 0
117 130 0
126 138 0
127 135 0
128 139 0
123 132 0
127 142 0
122 133 0
134 146 0
141 154 0
127 137 0
133 147 0
130 140 0
133 145 0
129 141 0
126 135 0
135 146 0
130 142 0
118 128 0
127 138 0
135 147 0
137 148 0
134 146 0
134 146 0
133 144 0
125 133 0
131 140 0
125 137 0
138 148 0
128 138 0
135 143 0
131 143 0
141 154 0
137 147 0
146 157 0
134 146 0
139 150 0
139 151 0
129 139 0
141 152 0
143 154 0
148 161 0
144 153 0
144 154 0
146 157 0
145 156 0
135 146 0
143 155 0
152 164 0
126 135 0
142 154 0
148 159 0
144 155 0
150 162 0
149 161 0
137 145 0
144 157 0
144 155 0
147 158 0
145 156 0
147 161 0
149 161 0
148 161 0
153 167 0
151 163 0
143 154 0
148 160 0
151 163 0
154 170 0
151 161 0
145 158 0
158 174 0
151 164 0
152 167 0
153 168 0
159 173 0
153 167 0
160 176 0
157 170 0
151 164 0
155 169 0
160 173 0
150 164 0
157 172 0
164 181 0
157 173 0
153 168 0
154 167 0
159 174 0
159 171 0
156 170 0
160 173 0
160 174 0
152 166 0
151 167 0
159 175 0
158 173 0
156 170 0
160 176 0
158 173 0
164 182 0
162 179 0
163 181 0
162 180 0
161 180 0
161 176 0
164 181 0
158 175 0
163 179 0
160 176 0
160 178 0
163 180 0
162 180 0
164 182 0
162 180 0
160 179 0
164 183 0
168 187 0
162 178 0
162 179 0
170 187 0
160 179 0
163 180 0
164 182 0
166 185 0
164 182 0
188 217 255
187 217 255
187 217 255
187 217 255
186 216 255
186 216 255
186 216 255
185 216 255
185 216 255
185 216 255
184 216 255
184 216 255
184 215 255
184 216 255
184 215 255
183 215 255
183 215 255
183 215 255
183 215 255
183 215 255
182 215 255
182 215 255
182 215 255
182 214 255
182 214 255
182 214 255
182 214 255
182 214 255
182 214 255
182 214 255
181 214 255
181 214 255
181 214 255
181 214 255
181 214 255
181 214 255
181 214 255
181 214 255
181 214 255
181 214 255
181 214 255
181 214 255
182 214 255
182 214 255
182 214 255
182 214 255
182 214 255
182 215 255
182 215 255
182 215 255
182 215 255
183 215 255
183 215 255
183 215 255
183 215 255
183 215 255
183 215 255
184 215 255
184 215 255
184 216 255
184 216 255
185 216 255
185 216 255
185 216 255
186 216 255
186 216 255
186 217 255
186 217 255
187 217 255
187 217 255
187 217 255
188 218 255
188 218 255
188 218 255
189 218 255
189 218 255
190 219 255
190 219 255
191 219 255
191 219 255
192 220 255
192 220 255
192 220 255
193 220 255
193 220 255
194 221 255
195 221 255
195 221 255
195 221 255
196 222 255
197 222 255
197 222 255
198 223 255
198 223 255
199 223 255
199 224 255
200 224 255
200 224 255
201 225 255
202 225 255
202 225 255
203 226 255
204 226 255
205 226 255
205 227 255
206 227 255
207 228 255
207 228 255
208 228 255
209 229 255
209 229 254
207 226 252
209 227 252
208 226 250
204 221 243
198 215 237
199 215 236
191 207 228
195 210 227
188 203 223
175 192 219
177 193 217
175 190 210
171 188 212
163 179 207
151 166 193
129 145 174
156 172 196
141 154 174
129 147 180
138 154 184
113 132 168
99 119 157
116 133 162
91 112 151
94 114 151
76 99 137
64 94 140
62 92 141
59 92 147
55 88 144
58 89 135
55 89 139
54 87 138
55 88 116
54 87 132
54 86 122
56 89 132
55 88 134
56 88 144
53 85 132
52 84 126
53 85 130
56 90 137
53 85 131
55 88 136
55 89 133
58 92 133
57 90 140
55 88 136
56 89 136
57 90 132
57 90 138
57 91 132
58 92 139
59 94 141
57 91 128
58 93 141
58 92 141
57 91 131
56 89 134
57 91 135
58 92 133
57 91 134
59 93 129
59 93 141
58 91 132
58 92 132
60 94 138
59 94 138
59 93 140
58 93 134
58 91 125
60 95 139
59 94 138
58 93 128
59 94 138
59 94 140
60 95 143
59 94 128
60 94 130
60 94 131
60 94 142
59 94 137
59 94 129
59 93 133
60 95 141
59 94 130
61 96 140
59 94 140
57 91 122
61 96 143
60 94 134
58 92 124
60 95 137
59 94 129
59 93 126
59 93 129
59 92 128
60 95 140
60 95 137
60 94 138
59 93 124
59 94 135
60 94 135
60 95 134
60 94 135
59 94 131
60 94 126
60 95 133
60 94 126
60 95 136
60 94 125
60 95 131
59 93 130
59 93 134
59 94 122
59 94 131
60 94 137
60 95 136
60 94 133
59 94 126
59 94 126
57 90 114
60 94 129
57 91 120
58 91 114
57 90 114
58 92 122
57 90 120
58 92 130
58 92 124
57 90 121
56 88 100
58 91 121
75 102 111
74 96 82
100 117 45
108 123 31
121 137 0
116 128 0
123 136 0
112 123 0
136 151 0
124 136 0
123 136 0
111 126 0
128 142 0
119 131 0
113 125 0
131 144 0
123 138 0
120 132 0
140 154 0
124 139 0
129 142 0
128 140 0
130 142 0
132 144 0
127 141 0
128 140 0
125 139 0
125 135 0
128 141 0
129 143 0
126 139 0
134 146 0
127 140 0
115 128 0
132 146 0
131 144 0
127 138 0
129 141 0
131 144 0
138 150 0
138 151 0
129 142 0
141 152 0
133 145 0
140 151 0
128 139 0
134 147 0
130 141 0
127 137 0
134 147 0
131 141 0
135 148 0
138 147 0
134 146 0
132 144 0
135 147 0
134 145 0
139 149 0
129 140 0
128 138 0
139 152 0
132 142 0
133 141 0
143 157 0
140 148 0
134 146 0
141 149 0
141 151 0
145 157 0
139 150 0
138 150 0
145 157 0
148 162 0
139 152 0
143 155 0
137 143 0
145 157 0
149 165 0
144 156 0
138 149 0
145 157 0
139 150 0
144 157 0
146 159 0
146 157 0
148 161 0
145 156 0
150 162 0
139 153 0
149 162 0
146 158 0
147 159 0
152 165 0
156 170 0
155 170 0
150 160 0
147 160 0
147 158 0
147 161 0
148 162 0
149 161 0
153 166 0
152 166 0
149 160 0
151 164 0
152 165 0
156 171 0
153 167 0
155 168 0
157 169 0
154 169 0
154 170 0
159 174 0
156 172 0
163 178 0
156 171 0
157 170 0
161 176 0
161 177 0
159 174 0
160 174 0
164 180 0
156 170 0
154 169 0
163 180 0
157 174 0
159 175 0
158 175 0
161 178 0
160 175 0
159 176 0
163 181 0
163 179 0
162 179 0
160 177 0
162 180 0
162 180 0
163 180 0
163 182 0
167 186 0
161 179 0
162 181 0
164 183 0
158 177 0
166 184 0
164 183 0
161 180 0
163 182 0
164 180 0
161 180 0
166 185 0
163 181 0
169 187 0
164 182 0
161 178 0
187 217 255
186 217 255
187 217 255
187 217 255
186 216 255
186 217 255
185 216 255
185 216 255
185 216 255
185 216 255
184 216 255
184 215 255
184 216 255
183 215 255
183 215 255
183 215 255
183 215 255
183 215 255
182 215 255
182 215 255
182 215 255
182 215 255
182 214 255
182 214 255
182 214 255
182 214 255
181 214 255
182 214 255
181 214 255
181 214 255
181 214 255
181 214 255
181 214 255
181 214 255
181 214 255
181 214 255
181 214 255
181 214 255
181 214 255
181 214 255
181 214 255
182 214 255
182 214 255
182 214 255
182 214 255
182 214 255
182 214 255
182 214 255
182 215 255
182 215 255
182 215 255
183 215 255
183 215 255
183 215 255
183 215 255
184 215 255
184 215 255
184 215 255
184 216 255
184 215 255
184 216 255
185 216 255
185 216 255
185 216 255
186 216 255
186 216 255
186 217 255
186 217 255
187 217 255
187 217 255
188 217 255
188 217 255
188 218 255
188 218 255
189 218 255
190 218 255
190 218 255
190 218 255
191 219 255
191 219 255
191 219 255
192 219 255
192 220 255
193 220 255
194 220 255
194 221 255
195 221 255
196 222 255
195 221 255
196 222 255
197 222 255
197 222 255
198 223 255
197 222 255
199 223 255
199 223 255
200 224 255
201 224 255
201 224 255
201 224 255
203 225 255
203 226 255
203 226 255
204 226 255
204 226 255
205 227 255
207 228 255
207 228 255
208 228 255
208 228 255
209 229 255
209 228 254
209 227 251
205 223 245
204 221 242
205 222 242
200 217 238
198 213 231
187 204 227
196 213 237
181 198 223
174 189 210
172 186 209
167 181 197
162 178 204
162 175 192
160 174 197
153 169 191
146 163 190
144 159 182
128 145 169
110 130 169
112 131 170
107 126 160
103 124 162
91 112 151
81 103 143
85 105 140
72 96 137
69 95 137
57 87 132
56 90 133
57 88 141
56 90 136
53 85 123
52 84 120
54 86 130
53 85 123
52 84 128
52 84 123
53 85 131
54 86 122
54 87 128
54 87 133
54 86 133
54 86 121
52 83 120
57 90 131
55 88 123
57 91 138
58 92 133
59 93 138
58 92 133
58 93 138
57 90 132
58 92 142
57 91 132
58 91 128
58 92 131
58 92 129
59 93 134
58 92 139
57 90 136
60 95 142
57 91 130
58 92 126
59 93 141
59 94 137
60 95 141
58 93 134
60 95 137
59 93 125
59 93 136
58 92 130
59 94 143
60 95 137
59 93 131
60 95 135
58 91 124
59 93 129
59 94 136
59 94 135
58 93 131
59 93 130
59 94 140
60 95 136
60 94 148
59 94 131
60 94 134
60 95 130
59 93 130
60 95 135
60 95 139
59 94 134
59 94 137
59 93 143
59 94 141
60 94 131
59 93 122
61 95 136
60 94 124
59 93 130
60 94 133
59 93 134
58 92 131
60 94 136
59 94 136
59 94 131
60 95 133
60 94 128
60 95 142
59 94 131
60 94 136
58 92 120
59 93 130
59 93 121
60 94 135
60 94 129
59 93 128
59 93 126
58 92 121
59 93 124
59 93 130
56 89 121
59 93 130
59 93 126
59 93 129
60 93 126
56 88 108
57 91 117
57 90 117
57 90 107
58 92 118
55 88 110
78 103 99
88 112 96
108 122 45
117 130 40
110 125 0
114 126 0
119 134 0
124 140 0
117 131 0
123 137 0
122 135 0
120 135 0
127 142 0
127 140 0
113 126 0
118 130 0
118 131 0
113 125 0
126 139 0
117 129 0
118 132 0
134 150 0
127 139 0
116 128 0
120 130 0
120 131 0
123 135 0
133 147 0
123 137 0
126 139 0
122 135 0
128 140 0
127 139 0
126 137 0
131 141 0
127 137 0
125 136 0
127 140 0
126 138 0
128 139 0
132 147 0
132 145 0
132 142 0
128 141 0
133 146 0
135 148 0
136 149 0
128 140 0
135 149 0
126 139 0
127 138 0
130 142 0
135 149 0
129 140 0
145 158 0
142 154 0
140 154 0
142 155 0
130 141 0
149 164 0
141 153 0
130 144 0
140 151 0
134 146 0
136 143 0
146 160 0
145 157 0
135 149 0
134 146 0
138 152 0
140 150 0
143 158 0
133 143 0
135 148 0
149 163 0
145 157 0
140 150 0
145 156 0
151 164 0
146 159 0
139 146 0
144 158 0
148 162 0
146 159 0
151 165 0
148 161 0
142 152 0
147 160 0
149 163 0
153 167 0
149 159 0
140 152 0
146 161 0
143 155 0
149 164 0
153 166 0
157 172 0
145 157 0
155 167 0
152 165 0
157 170 0
149 160 0
152 167 0
150 163 0
157 172 0
159 172 0
153 166 0
148 163 0
151 165 0
159 175 0
150 164 0
149 163 0
158 174 0
152 165 0
159 172 0
163 179 0
153 167 0
150 165 0
155 171 0
151 166 0
155 169 0
157 173 0
163 179 0
154 171 0
157 173 0
160 175 0
161 180 0
155 171 0
158 174 0
161 179 0
161 177 0
162 180 0
161 178 0
159 176 0
162 179 0
157 173 0
158 174 0
162 178 0
162 180 0
163 181 0
162 181 0
162 181 0
163 181 0
158 174 0
163 183 0
165 183 0
167 186 0
165 184 0
162 182 0
165 184 0
166 185 0
162 179 0
164 183 0
163 181 0
160 179 0
160 179 0
188 217 255
186 217 255
186 217 255
186 217 255
187 217 255
186 216 255
186 216 255
185 216 255
185 216 255
185 216 255
184 216 255
184 215 255
184 215 255
184 215 255
183 215 255
183 215 255
183 215 255
183 215 255
183 215 255
182 215 255
182 215 255
182 214 255
182 214 255
182 214 255
182 214 255
182 214 255
182 214 255
181 214 255
182 214 255
181 214 255
181 214 255
181 214 255
181 214 255
181 214 255
181 214 255
181 214 255
181 214 255
181 214 255
181 214 255
181 214 255
181 214 255
181 214 255
181 214 255
181 214 255
182 214 255
182 214 255
182 214 255
182 214 255
182 214 255
182 215 255
183 215 255
182 215 255
183 215 255
183 215 255
183 215 255
184 215 255
183 215 255
184 215 255
184 216 255
184 216 255
185 216 255
185 216 255
185 216 255
185 216 255
186 216 255
186 217 255
186 217 255
186 217 255
187 217 255
187 217 255
187 217 255
188 217 255
188 218 255
189 218 255
189 218 255
190 218 255
190 218 255
190 219 255
190 219 255
191 219 255
191 219 255
192 220 255
193 220 255
193 220 255
193 220 255
193 220 255
194 221 255
195 221 255
195 221 255
196 222 255
196 222 255
198 223 255
198 223 255
198 223 255
199 223 255
199 223 255
199 223 255
200 224 255
200 224 255
202 225 255
202 225 255
203 225 255
204 226 255
204 226 255
205 226 255
205 226 255
206 227 255
207 228 255
207 228 255
209 229 255
209 229 255
209 229 255
209 229 254
209 227 249
208 224 245
205 222 242
198 215 236
202 219 244
189 206 232
191 206 224
194 210 228
180 195 214
172 187 207
176 191 211
154 169 191
150 164 183
157 171 190
159 173 191
140 155 178
134 149 171
141 156 176
127 146 182
124 140 167
118 136 160
86 110 155
95 114 142
99 115 142
73 98 138
79 100 135
84 105 136
64 92 139
59 90 133
60 93 144
55 88 130
54 86 132
53 84 132
53 85 130
54 85 121
52 83 116
53 85 126
54 86 129
51 82 119
52 83 130
55 88 129
56 89 132
55 88 139
55 88 126
55 87 127
58 92 136
56 90 131
58 92 140
57 91 122
57 90 129
58 91 129
57 89 132
57 91 131
58 92 134
58 93 136
60 94 146
60 94 136
56 89 137
58 92 139
56 88 118
58 92 131
57 91 135
57 90 132
58 93 136
59 94 139
57 92 137
59 94 134
58 91 126
58 92 132
57 90 133
60 95 141
58 92 126
58 92 128
59 92 134
59 94 130
58 91 128
58 92 135
59 94 133
58 92 126
59 93 131
60 95 140
59 94 136
58 92 129
59 93 130
61 96 134
58 93 133
58 92 126
60 95 134
61 95 139
59 93 138
58 92 124
61 95 140
59 94 130
60 94 130
59 93 126
59 93 126
59 94 128
58 92 125
60 95 141
58 92 126
58 92 117
59 93 126
60 95 134
60 94 126
60 94 133
59 93 129
60 95 133
59 92 125
59 94 124
60 94 129
58 92 126
58 92 117
57 91 120
59 94 133
60 95 142
61 95 139
59 94 133
59 93 121
59 93 125
59 93 124
58 91 115
59 93 126
58 92 128
58 92 114
57 91 114
56 89 108
57 90 113
55 88 110
58 91 113
57 90 117
61 91 110
87 108 78
87 107 76
113 129 44
120 136 32
117 133 0
110 125 0
125 138 0
126 138 0
125 138 0
125 138 0
118 130 0
132 147 0
123 137 0
116 129 0
122 134 0
129 143 0
114 128 0
113 127 0
123 136 0
108 121 0
135 148 0
122 137 0
131 145 0
119 132 0
123 137 0
129 143 0
130 143 0
131 145 0
131 145 0
126 139 0
119 133 0
126 140 0
128 138 0
132 145 0
128 142 0
119 131 0
133 147 0
124 137 0
127 137 0
135 149 0
136 150 0
121 132 0
140 154 0
129 141 0
129 142 0
127 137 0
134 148 0
138 152 0
134 145 0
129 141 0
133 144 0
139 150 0
143 153 0
135 149 0
129 141 0
134 147 0
139 152 0
130 142 0
137 149 0
130 143 0
135 149 0
144 159 0
149 161 0
138 147 0
145 157 0
143 154 0
138 150 0
134 145 0
144 156 0
136 150 0
144 160 0
142 155 0
148 159 0
144 157 0
145 158 0
151 164 0
140 152 0
139 153 0
148 162 0
155 168 0
148 160 0
146 157 0
151 165 0
156 170 0
144 157 0
156 170 0
143 155 0
147 161 0
148 164 0
142 155 0
153 164 0
150 165 0
148 161 0
149 164 0
154 164 0
146 159 0
151 164 0
147 162 0
146 159 0
155 167 0
150 166 0
152 165 0
152 165 0
155 171 0
153 168 0
151 165 0
152 165 0
155 168 0
158 172 0
156 172 0
159 176 0
161 175 0
154 168 0
148 162 0
160 175 0
150 165 0
157 175 0
166 182 0
162 177 0
156 171 0
164 180 0
156 172 0
160 172 0
157 171 0
164 182 0
156 171 0
164 179 0
155 170 0
162 181 0
158 177 0
163 182 0
154 171 0
160 179 0
164 179 0
166 185 0
162 181 0
163 179 0
162 179 0
161 176 0
161 177 0
164 183 0
163 178 0
161 178 0
165 182 0
162 180 0
166 184 0
161 179 0
164 182 0
167 187 0
164 184 0
165 185 0
159 177 0
161 179 0
162 181 0
159 178 0
165 184 0
187 217 255
187 217 255
187 217 255
186 217 255
186 216 255
186 216 255
185 216 255
185 216 255
184 216 255
184 216 255
184 216 255
184 216 255
184 215 255
183 215 255
183 215 255
183 215 255
183 215 255
183 215 255
183 215 255
182 215 255
182 214 255
182 214 255
182 214 255
182 214 255
182 214 255
182 214 255
182 214 255
182 214 255
182 214 255
181 214 255
181 214 255
181 214 255
181 214 255
181 214 255
181 214 255
181 214 255
181 214 255
181 214 255
181 214 255
181 214 255
181 214 255
181 214 255
182 214 255
182 214 255
182 214 255
182 214 255
182 214 255
182 214 255
182 215 255
182 215 255
183 215 255
183 215 255
183 215 255
183 215 255
183 215 255
183 215 255
184 215 255
184 215 255
184 215 255
184 216 255
184 216 255
185 216 255
185 216 255
185 216 255
186 216 255
186 216 255
186 217 255
187 217 255
187 217 255
187 217 255
188 217 255
188 217 255
189 218 255
188 218 255
189 218 255
189 218 255
190 218 255
190 219 255
191 219 255
191 219 255
191 219 255
192 220 255
192 220 255
193 220 255
193 220 255
194 221 255
194 221 255
195 221 255
195 221 255
195 221 255
196 222 255
197 222 255
198 223 255
198 223 255
199 223 255
199 223 255
200 224 255
200 224 255
201 224 255
202 225 255
202 225 255
202 225 255
203 226 255
203 225 255
204 226 255
205 227 255
206 227 255
206 227 255
207 228 255
208 228 255
208 228 255
209 229 255
210 229 255
209 228 252
205 222 243
199 215 233
208 225 246
202 218 238
202 217 235
196 211 227
191 206 222
192 206 224
182 198 225
178 193 213
176 191 214
170 184 196
168 182 201
147 160 176
144 159 180
139 154 178
142 157 180
129 145 169
125 143 171
120 137 165
100 122 165
101 120 154
98 116 149
86 106 137
79 102 142
75 101 148
70 97 143
58 87 136
65 92 129
56 90 137
54 86 128
53 85 132
50 80 112
51 82 115
50 81 119
51 82 117
52 83 122
51 82 126
52 83 131
53 84 125
54 87 135
53 85 117
53 85 131
56 89 132
56 89 134
54 87 119
58 92 130
56 88 122
55 88 122
55 87 130
58 91 140
57 90 133
56 89 121
57 91 127
57 90 122
55 88 116
57 90 134
57 91 137
58 92 129
60 94 143
58 92 138
59 93 138
58 92 135
58 92 126
58 92 133
58 92 138
58 92 139
60 94 140
59 93 130
59 94 133
58 93 131
57 90 124
58 91 130
60 94 142
59 93 124
58 92 129
59 93 129
59 93 125
59 93 131
59 93 134
59 92 129
59 94 137
58 92 136
59 93 125
59 93 129
59 94 131
60 94 140
59 93 133
59 93 129
60 95 136
59 94 130
58 92 129
60 94 126
59 94 130
59 94 128
58 92 129
59 93 133
60 94 131
61 95 144
58 92 128
59 93 126
58 92 117
59 93 133
60 94 134
60 95 135
59 93 122
59 93 128
61 96 139
58 92 121
59 93 121
59 94 125
60 94 135
59 93 124
57 91 122
60 95 130
57 91 126
58 92 126
57 90 108
57 90 129
59 93 122
59 93 122
60 94 131
58 92 131
59 92 128
58 91 128
57 90 108
56 89 107
55 88 101
62 91 94
71 96 90
92 110 60
100 115 40
109 124 31
127 142 0
121 135 0
108 122 0
126 140 0
114 127 0
124 139 0
121 134 0
127 142 0
116 128 0
122 136 0
128 141 0
135 151 0
120 134 0
123 138 0
125 138 0
116 128 0
131 145 0
125 137 0
127 140 0
120 134 0
123 138 0
137 152 0
129 142 0
122 133 0
131 146 0
130 142 0
129 143 0
135 149 0
139 153 0
130 143 0
129 144 0
139 152 0
127 140 0
136 150 0
134 146 0
127 141 0
130 144 0
134 147 0
129 142 0
137 152 0
133 145 0
139 151 0
132 145 0
142 156 0
143 156 0
135 147 0
142 155 0
125 138 0
133 145 0
139 151 0
130 143 0
149 160 0
139 151 0
140 151 0
133 145 0
134 149 0
134 145 0
140 151 0
146 159 0
135 148 0
137 147 0
128 140 0
141 152 0
139 152 0
135 148 0
138 148 0
143 152 0
147 161 0
139 150 0
143 157 0
138 151 0
138 151 0
142 151 0
139 153 0
148 158 0
140 151 0
143 155 0
152 166 0
146 160 0
144 158 0
148 163 0
141 152 0
137 150 0
153 168 0
152 168 0
155 169 0
151 165 0
140 152 0
146 159 0
149 164 0
152 167 0
154 170 0
153 167 0
151 163 0
155 169 0
148 161 0
152 164 0
149 163 0
159 172 0
150 166 0
153 166 0
151 165 0
151 166 0
153 167 0
152 166 0
153 169 0
156 171 0
154 168 0
156 170 0
165 181 0
157 173 0
158 170 0
154 170 0
157 171 0
157 172 0
157 172 0
162 178 0
159 174 0
160 176 0
162 179 0
156 172 0
158 172 0
158 175 0
159 177 0
158 175 0
161 179 0
160 174 0
161 177 0
162 178 0
158 174 0
160 178 0
161 178 0
162 179 0
161 178 0
161 176 0
161 178 0
162 182 0
161 178 0
165 185 0
169 188 0
159 178 0
166 186 0
162 180 0
162 182 0
163 179 0
161 179 0
160 176 0
165 183 0
164 183 0
165 185 0
164 182 0
164 185 0
170 191 0
188 217 255
187 217 255
186 217 255
186 217 255
186 217 255
185 216 255
185 216 255
185 216 255
185 216 255
185 216 255
184 216 255
184 215 255
184 215 255
183 215 255
184 215 255
183 215 255
183 215 255
183 215 255
183 215 255
182 215 255
182 215 255
182 214 255
182 215 255
182 214 255
182 214 255
182 214 255
182 214 255
181 214 255
181 214 255
181 214 255
181 214 255
181 214 255
181 214 255
181 214 255
181 214 255
181 214 255
181 214 255
181 214 255
181 214 255
181 214 255
181 214 255
181 214 255
182 214 255
182 214 255
182 214 255
182 214 255
182 214 255
182 215 255
182 215 255
182 215 255
182 215 255
183 215 255
183 215 255
183 215 255
183 215 255
183 215 255
183 215 255
184 215 255
184 216 255
184 216 255
185 216 255
185 216 255
185 216 255
185 216 255
186 216 255
186 216 255
186 216 255
186 217 255
187 217 255
187 217 255
188 218 255
188 217 255
189 218 255
189 218 255
189 218 255
190 218 255
190 218 255
190 218 255
190 219 255
191 219 255
191 219 255
192 219 255
192 220 255
193 220 255
193 220 255
194 221 255
194 221 255
194 221 255
196 222 255
196 222 255
196 222 255
197 222 255
198 223 255
198 223 255
199 223 255
199 223 255
199 224 255
200 224 255
201 224 255
201 225 255
202 225 255
203 225 255
204 226 255
203 225 255
204 226 255
205 227 255
206 227 255
207 227 255
207 227 255
208 228 255
209 229 255
209 229 255
209 228 254
210 229 254
207 225 248
206 223 242
206 222 243
206 222 242
198 214 235
200 217 240
194 209 227
193 208 227
185 197 207
181 193 202
174 189 207
169 183 204
169 182 194
157 172 190
140 157 190
149 163 184
133 147 166
126 142 168
117 135 165
114 130 156
118 135 158
96 116 147
105 124 155
87 110 148
93 112 140
79 101 129
72 98 131
61 94 144
59 88 129
55 88 135
56 89 143
55 87 136
53 84 124
51 81 112
55 88 132
53 85 121
53 84 127
55 87 135
54 86 132
52 83 117
54 86 127
54 86 127
55 88 130
55 88 134
56 89 125
58 92 137
57 91 139
58 91 138
56 89 125
55 88 122
58 92 139
53 84 124
57 91 134
58 92 133
57 90 133
57 91 131
58 92 142
55 88 128
58 93 124
59 93 137
57 91 123
57 91 127
58 92 133
59 93 139
59 93 134
58 93 134
58 93 131
58 92 131
58 92 137
60 95 130
57 90 126
58 92 127
56 89 121
57 92 126
58 92 130
60 94 136
59 93 133
58 92 126
60 94 136
61 96 144
60 95 133
61 96 139
59 93 129
59 94 128
59 94 134
58 92 115
60 95 129
57 91 117
60 95 137
59 93 124
60 95 135
59 93 130
60 94 131
59 93 135
59 94 130
59 93 134
60 94 133
59 93 129
59 93 134
61 95 142
59 94 131
58 93 129
58 93 130
58 92 125
58 91 117
60 94 136
57 90 121
59 93 134
60 94 133
60 95 134
60 95 136
59 94 128
57 91 120
58 92 120
59 93 131
58 92 126
59 93 122
58 91 117
58 91 113
57 91 117
58 91 124
56 89 107
58 92 126
58 92 113
57 90 117
55 87 103
56 88 111
65 95 116
81 105 80
93 111 80
97 114 51
108 123 31
113 127 0
110 124 0
126 142 0
118 133 0
119 132 0
123 137 0
124 138 0
125 140 0
123 138 0
124 139 0
128 142 0
122 137 0
126 140 0
117 130 0
124 139 0
124 136 0
127 143 0
126 139 0
122 135 0
114 129 0
126 141 0
131 145 0
118 129 0
131 145 0
128 143 0
115 129 0
138 153 0
125 137 0
127 139 0
128 142 0
127 142 0
133 147 0
137 151 0
146 159 0
131 144 0
141 155 0
135 148 0
137 153 0
117 131 0
129 144 0
132 145 0
133 147 0
132 147 0
135 147 0
136 148 0
141 154 0
137 149 0
141 155 0
141 154 0
135 149 0
134 146 0
136 146 0
143 158 0
148 161 0
134 149 0
137 149 0
129 142 0
145 158 0
150 164 0
138 150 0
141 154 0
138 151 0
138 152 0
137 149 0
145 159 0
140 152 0
145 156 0
142 154 0
144 159 0
143 155 0
143 159 0
144 158 0
131 144 0
137 148 0
149 161 0
149 162 0
139 153 0
146 161 0
155 170 0
146 161 0
149 162 0
144 159 0
154 169 0
151 162 0
148 159 0
148 160 0
150 164 0
144 159 0
146 160 0
151 163 0
150 166 0
148 163 0
153 167 0
149 163 0
146 161 0
152 167 0
150 164 0
154 168 0
157 171 0
143 154 0
156 172 0
149 163 0
146 161 0
148 161 0
150 166 0
155 168 0
151 168 0
150 165 0
150 167 0
154 167 0
154 169 0
153 170 0
152 166 0
158 174 0
162 179 0
155 168 0
156 172 0
165 184 0
157 173 0
158 174 0
155 170 0
164 180 0
158 176 0
162 179 0
162 177 0
156 174 0
159 177 0
159 175 0
160 178 0
162 180 0
164 181 0
159 176 0
161 179 0
161 179 0
162 181 0
152 168 0
157 174 0
161 179 0
159 177 0
162 182 0
162 180 0
165 183 0
161 179 0
163 180 0
160 179 0
162 178 0
161 180 0
164 183 0
161 179 0
168 188 0
165 185 0
168 189 0
162 182 0
158 177 0
187 217 255
187 217 255
186 217 255
186 217 255
186 216 255
185 216 255
186 216 255
185 216 255
185 216 255
184 216 255
185 216 255
183 215 255
184 215 255
183 215 255
183 215 255
183 215 255
183 215 255
183 215 255
182 215 255
183 215 255
182 215 255
182 215 255
182 214 255
182 214 255
182 214 255
182 214 255
182 214 255
181 214 255
181 214 255
181 214 255
181 214 255
181 214 255
181 214 255
181 214 255
181 214 255
181 214 255
181 214 255
181 214 255
181 214 255
181 214 255
181 214 255
181 214 255
182 214 255
182 214 255
182 214 255
182 214 255
182 214 255
182 214 255
182 214 255
182 215 255
183 215 255
183 215 255
183 215 255
183 215 255
183 215 255
183 215 255
183 215 255
184 215 255
184 215 255
184 216 255
184 216 255
185 216 255
185 216 255
185 216 255
186 216 255
186 216 255
186 217 255
187 217 255
187 217 255
188 217 255
188 217 255
188 217 255
188 218 255
189 218 255
189 218 255
190 218 255
189 218 255
190 219 255
191 219 255
191 219 255
191 219 255
192 220 255
192 220 255
193 220 255
193 220 255
194 220 255
194 221 255
195 221 255
195 221 255
196 222 255
197 222 255
197 222 255
198 223 255
199 223 255
198 223 255
199 224 255
200 224 255
200 224 255
201 224 255
202 225 255
202 225 255
203 225 255
203 226 255
205 226 255
205 226 255
206 227 255
205 227 255
207 228 255
206 227 255
209 228 255
209 229 255
210 229 255
209 229 254
209 227 253
211 230 254
210 227 250
206 222 242
204 219 236
206 222 242
199 215 235
200 216 235
199 213 227
191 206 224
187 203 223
171 184 196
164 180 203
174 187 205
157 172 196
159 173 189
154 167 187
126 144 171
144 156 171
126 141 161
126 140 157
110 125 151
114 130 151
97 119 160
99 116 138
91 111 138
92 112 144
80 103 134
70 97 131
67 94 129
61 90 132
56 88 126
51 82 120
52 83 124
55 87 125
55 87 127
53 85 120
56 88 138
54 86 121
52 83 114
54 86 122
54 86 122
51 83 114
53 84 116
57 91 128
57 90 130
57 89 128
55 88 127
57 90 120
55 87 118
55 87 129
54 87 130
57 91 133
56 89 128
57 91 132
56 88 123
58 92 139
58 92 131
57 91 131
56 90 118
57 90 132
56 89 124
59 94 146
58 92 130
57 91 133
56 88 123
58 92 132
57 91 124
57 91 131
57 91 130
59 94 139
58 93 130
57 91 122
60 94 142
57 90 117
60 95 141
59 93 136
60 94 133
58 92 132
59 94 131
58 93 130
59 93 126
58 92 129
60 94 130
58 91 127
60 95 133
58 92 131
59 94 136
59 94 130
58 93 121
57 91 125
59 93 134
57 91 118
59 93 126
60 95 142
61 95 136
59 93 125
59 93 134
58 92 125
61 95 134
59 94 124
58 92 125
59 94 128
59 93 126
57 90 118
57 90 124
59 93 137
59 93 117
58 91 129
59 93 133
59 94 126
58 92 120
59 93 128
59 93 126
58 91 120
60 94 122
58 92 121
58 91 124
57 90 111
58 92 126
58 92 126
59 93 122
56 89 103
57 90 115
57 90 112
56 88 107
57 90 120
64 94 116
79 100 90
86 106 78
104 121 47
111 125 31
111 127 0
119 134 0
115 128 0
124 138 0
106 120 0
118 132 0
126 141 0
134 149 0
113 127 0
121 136 0
128 142 0
122 136 0
124 138 0
124 138 0
133 146 0
127 143 0
125 139 0
127 139 0
124 137 0
135 151 0
131 146 0
123 137 0
130 145 0
125 140 0
127 142 0
125 139 0
131 147 0
131 144 0
139 153 0
136 149 0
133 149 0
136 151 0
131 146 0
129 143 0
133 148 0
125 141 0
141 155 0
127 140 0
137 152 0
133 146 0
140 155 0
133 148 0
139 154 0
135 149 0
135 149 0
138 151 0
136 150 0
127 140 0
146 160 0
135 147 0
134 149 0
143 156 0
136 151 0
137 150 0
134 146 0
137 153 0
141 155 0
142 157 0
136 150 0
137 149 0
133 146 0
139 151 0
140 153 0
136 147 0
145 160 0
138 151 0
151 165 0
143 157 0
144 158 0
142 153 0
135 147 0
145 159 0
146 161 0
148 163 0
148 161 0
143 156 0
148 162 0
142 154 0
141 153 0
153 168 0
144 157 0
145 160 0
151 165 0
151 168 0
157 172 0
145 161 0
147 159 0
142 156 0
153 165 0
139 153 0
153 167 0
150 164 0
149 165 0
147 162 0
149 164 0
144 159 0
155 172 0
158 172 0
153 167 0
148 159 0
152 166 0
149 163 0
151 164 0
148 164 0
155 171 0
157 173 0
156 172 0
154 169 0
159 176 0
153 168 0
158 173 0
156 172 0
161 178 0
153 170 0
161 176 0
162 179 0
156 174 0
154 171 0
158 174 0
156 172 0
156 171 0
163 181 0
157 174 0
167 185 0
156 174 0
161 180 0
162 180 0
160 176 0
162 180 0
162 180 0
159 177 0
163 183 0
156 173 0
162 180 0
158 176 0
158 176 0
162 178 0
170 190 0
163 181 0
160 178 0
166 185 0
165 183 0
166 184 0
162 179 0
163 181 0
165 184 0
166 185 0
162 182 0
165 184 0
167 186 0
167 185 0
160 178 0
164 184 0
167 187 0
164 182 0
187 217 255
187 217 255
187 217 255
186 217 255
186 216 255
186 216 255
185 216 255
185 216 255
184 216 255
184 215 255
184 216 255
184 215 255
184 215 255
183 215 255
183 215 255
183 215 255
183 215 255
183 215 255
183 215 255
182 215 255
182 215 255
182 214 255
182 214 255
182 214 255
182 214 255
182 214 255
182 214 255
182 214 255
181 214 255
181 214 255
181 214 255
181 214 255
181 214 255
181 214 255
181 214 255
181 214 255
181 214 255
181 214 255
181 214 255
181 214 255
182 214 255
182 214 255
182 214 255
182 214 255
182 214 255
182 214 255
182 214 255
182 215 255
182 215 255
182 215 255
182 215 255
183 215 255
183 215 255
183 215 255
183 215 255
183 215 255
184 215 255
184 215 255
184 215 255
184 216 255
184 216 255
185 216 255
185 216 255
185 216 255
186 216 255
186 216 255
186 217 255
187 217 255
187 217 255
188 217 255
188 217 255
188 218 255
188 218 255
189 218 255
189 218 255
190 218 255
190 219 255
190 219 255
191 219 255
191 219 255
191 219 255
192 219 255
192 219 255
193 220 255
193 220 255
194 220 255
194 221 255
195 221 255
195 221 255
196 222 255
197 222 255
196 222 255
197 222 255
198 223 255
199 223 255
199 223 255
200 224 255
200 224 255
201 224 255
201 225 255
202 225 255
202 225 255
203 225 255
204 226 255
204 226 255
205 227 255
206 227 255
206 227 255
208 228 255
207 228 255
209 229 255
209 229 255
210 229 255
210 229 254
211 230 255
209 227 249
209 226 248
205 221 239
206 221 240
205 220 238
201 216 232
197 210 221
190 204 218
184 196 205
178 191 204
175 189 203
170 183 196
170 183 203
163 177 195
161 174 193
155 170 188
147 162 185
132 148 174
127 145 178
122 139 168
117 134 160
97 117 142
92 112 141
93 114 147
78 100 133
77 101 137
78 101 126
64 94 131
62 93 138
60 86 122
53 85 119
55 87 134
54 86 123
53 86 131
52 83 113
51 81 109
55 88 124
52 83 118
55 88 128
56 90 123
54 86 124
54 86 121
54 86 127
53 85 125
53 85 127
54 87 130
56 88 124
54 86 124
55 87 126
55 88 129
57 91 138
56 89 126
56 89 134
52 84 113
55 88 129
56 89 123
57 91 130
56 90 125
59 93 137
57 90 138
59 93 131
59 93 132
57 90 124
57 90 122
59 93 129
57 90 115
58 91 125
58 92 136
58 93 126
59 93 133
59 94 137
57 91 118
61 95 144
58 92 128
58 91 126
58 92 124
56 90 123
59 93 139
59 93 136
60 94 136
61 95 139
61 95 137
59 93 133
59 93 138
58 92 131
59 93 134
58 91 115
59 93 133
57 90 118
58 92 121
60 94 137
59 93 135
60 95 131
60 94 135
59 93 122
58 92 130
59 93 121
58 93 122
60 95 136
59 94 129
57 90 110
59 93 133
57 91 122
57 91 120
59 94 128
57 91 120
59 93 121
59 92 125
58 92 124
57 90 117
58 92 110
58 91 122
59 93 129
59 94 126
58 92 117
57 91 121
57 91 103
56 89 111
57 90 117
57 90 120
57 90 114
57 89 118
55 87 108
57 90 121
63 94 115
89 112 86
90 112 74
103 119 60
120 137 31
115 128 18
121 135 0
122 135 0
115 128 0
115 131 0
109 122 0
120 136 0
128 143 0
129 143 0
123 138 0
109 125 0
120 135 0
114 126 0
125 139 0
124 140 0
132 148 0
116 128 0
119 133 0
121 135 0
129 145 0
130 145 0
129 144 0
133 148 0
124 139 0
134 150 0
120 134 0
124 136 0
133 148 0
137 152 0
128 142 0
139 155 0
123 137 0
129 142 0
130 144 0
132 146 0
129 143 0
130 143 0
134 149 0
132 146 0
128 142 0
141 159 0
136 151 0
136 151 0
137 153 0
134 150 0
137 150 0
145 159 0
146 162 0
140 154 0
134 149 0
137 149 0
139 152 0
138 151 0
140 153 0
132 144 0
133 145 0
142 155 0
149 164 0
141 156 0
137 151 0
135 148 0
138 151 0
146 159 0
141 155 0
144 160 0
146 158 0
148 166 0
145 159 0
145 159 0
146 160 0
146 158 0
144 159 0
149 162 0
145 157 0
142 156 0
143 156 0
153 166 0
155 170 0
142 159 0
152 165 0
153 169 0
146 161 0
139 153 0
147 162 0
142 155 0
144 159 0
151 165 0
148 161 0
152 167 0
150 164 0
150 165 0
141 154 0
146 156 0
152 166 0
152 167 0
149 163 0
150 166 0
153 169 0
154 168 0
151 166 0
151 162 0
151 167 0
151 164 0
156 173 0
151 165 0
158 173 0
152 167 0
157 172 0
154 168 0
158 173 0
159 176 0
156 173 0
154 169 0
153 168 0
161 178 0
158 176 0
158 176 0
158 172 0
158 174 0
161 177 0
155 170 0
157 173 0
161 177 0
159 174 0
157 174 0
160 177 0
159 176 0
152 169 0
157 174 0
163 182 0
159 175 0
160 176 0
163 180 0
156 172 0
162 179 0
159 176 0
164 181 0
163 181 0
162 180 0
163 179 0
165 184 0
161 178 0
163 180 0
166 184 0
166 184 0
160 176 0
162 180 0
162 181 0
165 185 0
167 185 0
166 185 0
161 180 0
163 183 0
165 183 0
163 183 0
164 185 0
187 217 255
187 217 255
186 217 255
186 217 255
186 216 255
186 216 255
185 216 255
185 216 255
185 216 255
184 216 255
184 216 255
184 215 255
184 215 255
184 215 255
183 215 255
183 215 255
183 215 255
183 215 255
182 215 255
183 215 255
182 215 255
182 214 255
182 214 255
182 214 255
182 214 255
182 214 255
182 214 255
181 214 255
181 214 255
181 214 255
181 214 255
181 214 255
181 214 255
181 214 255
181 214 255
181 214 255
181 214 255
181 214 255
181 214 255
181 214 255
182 214 255
182 214 255
182 214 255
182 214 255
182 214 255
182 214 255
182 214 255
182 214 255
182 215 255
182 215 255
182 215 255
183 215 255
183 215 255
183 215 255
183 215 255
183 215 255
184 215 255
184 215 255
184 216 255
184 216 255
184 216 255
185 216 255
185 216 255
186 216 255
186 216 255
186 217 255
186 217 255
186 217 255
187 217 255
187 217 255
188 217 255
188 218 255
188 218 255
188 218 255
189 218 255
189 218 255
190 218 255
190 219 255
191 219 255
191 219 255
191 219 255
192 219 255
192 220 255
193 220 255
193 220 255
193 220 255
194 221 255
195 221 255
195 221 255
195 221 255
196 222 255
196 222 255
197 222 255
198 223 255
199 223 255
199 224 255
200 224 255
200 224 255
201 224 255
202 225 255
202 225 255
202 225 255
204 226 255
204 226 255
205 226 255
205 227 255
206 227 255
206 227 255
206 227 255
208 228 255
208 228 255
208 228 255
210 229 255
210 229 255
211 230 255
210 228 251
208 225 247
210 227 247
207 224 244
206 222 244
204 218 233
196 209 225
196 210 226
181 195 211
188 203 222
188 203 219
164 179 197
170 183 198
159 172 187
163 177 195
167 180 199
147 160 178
137 151 171
136 152 172
127 143 159
117 133 157
106 124 155
109 126 151
99 119 154
81 105 135
88 107 141
72 96 124
67 94 130
74 97 130
56 86 122
54 86 127
54 86 127
52 83 117
54 86 120
52 83 102
50 80 110
51 82 111
52 83 121
52 83 115
55 87 120
53 85 122
52 83 105
57 90 130
52 83 112
55 88 126
55 87 115
56 89 124
57 90 120
56 89 127
53 84 116
56 89 116
57 90 121
58 91 132
54 87 110
57 90 121
57 90 133
57 90 126
56 89 131
56 89 128
56 89 126
58 92 137
57 90 133
59 93 133
58 92 136
58 92 132
59 93 136
59 93 135
56 89 127
59 93 130
58 92 119
59 93 138
59 93 120
59 94 128
58 92 125
59 93 125
57 91 114
57 91 121
58 92 133
58 92 124
58 92 130
59 93 126
58 93 115
59 93 130
59 93 137
58 91 118
59 93 129
57 91 124
59 93 115
58 92 122
60 95 134
60 95 124
58 92 124
58 91 121
60 94 131
60 94 135
59 93 122
60 94 137
60 94 135
58 92 115
59 94 126
60 94 135
60 94 131
59 92 124
60 95 135
58 92 117
57 90 126
59 93 120
59 93 124
58 92 122
59 93 133
58 91 115
57 90 121
57 91 122
59 93 120
59 93 129
58 91 117
56 88 110
57 90 110
57 89 120
57 91 114
56 89 108
56 88 100
56 89 105
57 86 86
67 94 102
84 105 82
93 112 60
109 125 40
119 133 18
124 139 0
111 126 0
121 135 0
113 128 0
127 142 0
122 137 0
121 137 0
123 137 0
126 140 0
115 130 0
127 142 0
112 124 0
119 135 0
127 142 0
123 139 0
123 139 0
125 141 0
134 148 0
118 131 0
129 147 0
108 120 0
125 138 0
132 146 0
120 132 0
126 141 0
128 142 0
132 148 0
112 124 0
138 154 0
130 142 0
133 147 0
138 153 0
134 150 0
127 140 0
129 145 0
147 163 0
117 129 0
125 138 0
144 160 0
132 146 0
125 140 0
132 147 0
134 148 0
128 142 0
144 157 0
142 156 0
129 142 0
139 152 0
135 150 0
139 153 0
140 153 0
143 157 0
142 155 0
146 158 0
145 159 0
134 150 0
145 159 0
147 162 0
131 144 0
140 155 0
137 152 0
144 157 0
145 158 0
138 151 0
145 160 0
148 161 0
140 157 0
139 152 0
139 153 0
147 161 0
152 167 0
142 156 0
144 158 0
142 157 0
144 157 0
146 158 0
148 163 0
149 165 0
142 155 0
153 165 0
150 167 0
145 158 0
154 170 0
145 160 0
141 153 0
149 165 0
150 164 0
154 169 0
155 168 0
148 164 0
155 169 0
153 168 0
151 164 0
152 167 0
155 170 0
151 168 0
148 161 0
149 165 0
149 165 0
155 172 0
145 159 0
152 170 0
151 165 0
155 171 0
159 174 0
143 158 0
150 165 0
159 173 0
159 175 0
155 170 0
155 173 0
156 170 0
160 177 0
157 174 0
158 174 0
155 172 0
159 174 0
159 174 0
153 172 0
162 179 0
159 176 0
158 175 0
163 180 0
158 174 0
155 173 0
162 182 0
160 177 0
159 177 0
159 175 0
158 175 0
163 180 0
156 172 0
158 175 0
159 177 0
158 178 0
157 174 0
161 177 0
161 177 0
165 183 0
161 180 0
165 184 0
164 184 0
165 185 0
160 178 0
162 183 0
165 182 0
163 183 0
161 179 0
161 180 0
164 180 0
169 187 0
163 184 0
166 186 0
165 184 0
161 180 0
159 178 0
187 217 255
187 217 255
187 217 255
186 217 255
186 216 255
185 216 255
185 216 255
184 216 255
185 216 255
185 216 255
184 216 255
184 215 255
184 215 255
184 215 255
183 215 255
183 215 255
183 215 255
183 215 255
183 215 255
182 215 255
182 215 255
182 214 255
182 214 255
182 214 255
182 214 255
182 214 255
182 214 255
182 214 255
182 214 255
181 214 255
181 214 255
181 214 255
181 214 255
181 214 255
181 214 255
181 214 255
181 214 255
181 214 255
181 214 255
181 214 255
182 214 255
182 214 255
182 214 255
182 214 255
182 214 255
182 214 255
182 215 255
182 215 255
182 215 255
182 215 255
183 215 255
183 215 255
183 215 255
183 215 255
183 215 255
183 215 255
184 215 255
184 215 255
184 215 255
184 216 255
185 216 255
185 216 255
185 216 255
186 216 255
186 216 255
186 216 255
186 216 255
187 217 255
187 217 255
187 217 255
188 217 255
188 218 255
189 218 255
188 218 255
189 218 255
189 218 255
190 218 255
191 219 255
191 219 255
191 219 255
192 219 255
192 220 255
192 220 255
192 220 255
193 220 255
194 221 255
194 221 255
195 221 255
195 221 255
196 222 255
196 222 255
197 222 255
198 223 255
198 223 255
199 223 255
199 223 255
199 223 255
200 224 255
200 224 255
202 225 255
203 225 255
203 225 255
204 226 255
203 226 255
204 226 255
205 227 255
206 227 255
207 227 255
207 228 255
208 228 255
209 229 255
210 229 255
211 230 255
211 230 255
211 230 255
210 228 251
211 229 252
210 227 248
209 224 241
202 215 226
204 219 237
196 210 227
200 214 228
195 208 223
196 211 232
185 199 218
182 193 204
177 191 207
166 181 199
159 172 192
161 173 187
166 180 198
151 162 175
135 149 163
133 146 156
122 138 167
117 134 159
121 135 157
103 121 144
85 109 141
75 98 124
77 101 133
78 101 129
66 93 123
56 87 124
57 89 134
55 88 127
51 83 120
55 88 131
52 84 119
53 84 123
52 84 118
51 83 109
51 82 112
55 88 124
53 85 119
53 85 121
52 83 121
53 84 116
57 90 130
54 86 107
55 88 120
56 89 131
56 89 126
54 87 126
55 87 118
59 94 139
56 89 122
56 88 131
57 91 127
57 90 122
56 89 124
55 88 110
56 88 120
58 92 131
58 92 132
58 92 127
57 91 124
58 91 127
59 94 136
59 93 134
59 94 127
58 91 129
59 92 132
56 89 129
57 91 126
56 89 126
58 92 125
59 92 122
59 93 131
58 92 132
58 91 128
59 93 126
60 94 133
60 94 129
59 93 122
57 90 118
59 94 133
58 91 128
59 92 126
58 92 131
58 92 115
59 92 122
61 95 133
57 91 121
59 93 126
58 93 133
57 91 117
57 90 113
59 94 125
58 91 126
58 91 118
58 91 118
58 92 122
60 94 133
60 94 137
58 91 115
59 93 124
59 93 124
60 94 122
58 91 113
57 90 120
58 92 113
58 92 118
60 94 129
58 92 124
58 91 118
57 90 118
54 86 97
57 89 114
58 91 108
57 91 115
59 93 121
56 88 107
55 87 108
56 89 110
58 91 117
58 89 102
71 98 90
87 108 72
97 115 57
99 114 31
104 118 18
95 108 0
110 125 0
113 127 0
119 133 0
120 135 0
113 127 0
118 132 0
118 134 0
116 130 0
119 133 0
122 137 0
127 144 0
126 141 0
119 133 0
119 137 0
114 129 0
118 135 0
122 136 0
133 151 0
123 138 0
128 142 0
135 151 0
130 148 0
136 152 0
128 142 0
133 149 0
127 141 0
130 145 0
133 147 0
128 144 0
141 155 0
127 142 0
130 145 0
141 158 0
129 142 0
132 145 0
123 138 0
137 151 0
129 145 0
135 149 0
141 156 0
138 153 0
142 157 0
122 136 0
133 147 0
135 149 0
123 136 0
125 138 0
132 147 0
137 152 0
135 151 0
131 146 0
138 152 0
142 155 0
142 156 0
136 150 0
135 150 0
143 157 0
143 157 0
150 166 0
139 152 0
149 166 0
149 164 0
139 153 0
153 169 0
150 164 0
140 155 0
146 160 0
148 163 0
144 159 0
148 162 0
147 161 0
151 165 0
151 167 0
153 168 0
147 160 0
141 154 0
143 156 0
149 163 0
146 161 0
149 161 0
151 165 0
150 164 0
154 170 0
155 169 0
148 166 0
142 154 0
141 153 0
152 167 0
153 170 0
162 181 0
147 160 0
148 161 0
157 173 0
150 163 0
151 168 0
153 166 0
152 166 0
156 173 0
147 164 0
152 167 0
158 173 0
152 167 0
154 169 0
155 170 0
157 173 0
157 172 0
153 167 0
156 171 0
159 173 0
156 172 0
151 166 0
158 175 0
151 167 0
160 178 0
147 162 0
155 174 0
152 168 0
155 171 0
151 168 0
158 174 0
153 169 0
158 176 0
162 182 0
158 175 0
160 177 0
160 178 0
163 181 0
159 176 0
165 184 0
155 172 0
163 180 0
162 182 0
164 184 0
153 170 0
160 178 0
156 173 0
162 180 0
164 184 0
160 176 0
160 178 0
162 180 0
160 176 0
164 182 0
162 180 0
166 186 0
159 178 0
161 180 0
162 180 0
164 183 0
162 182 0
164 182 0
168 186 0
164 183 0
166 185 0
165 186 0
166 187 0
187 217 255
187 217 255
186 217 255
186 217 255
186 216 255
185 216 255
186 216 255
185 216 255
185 216 255
184 216 255
184 216 255
184 215 255
184 215 255
184 215 255
183 215 255
183 215 255
183 215 255
183 215 255
183 215 255
183 215 255
182 215 255
182 215 255
182 214 255
182 214 255
182 214 255
182 214 255
182 214 255
182 214 255
182 214 255
182 214 255
181 214 255
181 214 255
181 214 255
182 214 255
181 214 255
182 214 255
181 214 255
181 214 255
182 214 255
182 214 255
182 214 255
182 214 255
182 214 255
182 214 255
182 215 255
182 215 255
182 215 255
182 215 255
183 215 255
182 215 255
183 215 255
183 215 255
183 215 255
183 215 255
183 215 255
183 215 255
184 215 255
184 216 255
184 216 255
184 216 255
185 216 255
185 216 255
185 216 255
186 216 255
186 216 255
186 217 255
187 217 255
187 217 255
187 217 255
187 217 255
188 217 255
188 218 255
189 218 255
189 218 255
189 218 255
190 218 255
190 219 255
190 219 255
191 219 255
191 219 255
191 219 255
192 220 255
192 220 255
193 220 255
193 220 255
194 220 255
194 221 255
195 221 255
195 221 255
196 222 255
197 222 255
197 222 255
198 223 255
198 223 255
198 223 255
199 224 255
199 223 255
201 224 255
201 224 255
202 225 255
202 225 255
202 225 255
203 226 255
204 226 255
205 226 255
205 226 255
206 227 255
206 227 255
208 228 255
208 228 255
208 228 255
209 229 255
211 230 255
211 230 255
211 230 255
211 229 253
208 225 247
211 228 251
207 222 239
212 229 251
204 218 234
198 211 223
203 216 229
199 213 230
192 206 224
195 208 220
176 189 207
178 191 206
178 190 202
159 173 190
168 179 191
153 165 176
144 158 178
144 156 170
136 150 165
133 146 161
111 124 141
100 119 140
106 123 144
108 124 141
100 117 145
80 103 138
75 99 133
68 94 123
68 97 129
62 93 131
60 89 129
54 87 128
53 86 115
52 83 113
55 87 120
55 87 123
54 86 115
55 88 118
52 83 113
52 83 118
53 84 115
55 88 127
54 86 122
54 86 122
55 87 111
55 88 134
54 87 114
55 87 126
55 88 124
56 89 132
58 92 126
54 87 119
57 91 134
56 88 117
58 92 119
57 90 128
56 89 112
55 88 121
57 90 129
58 92 131
59 93 137
58 93 128
57 91 120
58 91 133
57 90 115
58 92 134
59 93 125
59 94 135
58 92 126
56 89 113
59 93 128
59 93 129
60 93 131
58 91 120
58 91 122
59 93 124
58 92 131
59 94 131
61 95 137
57 91 123
59 93 128
61 95 137
59 93 124
58 92 125
59 93 130
59 92 117
58 92 121
59 93 125
60 94 135
60 95 134
58 92 122
58 92 124
57 91 117
58 91 122
60 94 128
60 94 134
59 93 126
59 94 130
58 92 126
59 93 125
59 92 124
58 92 120
59 93 122
59 92 122
57 91 118
59 93 125
56 89 113
57 90 120
57 89 110
57 91 121
55 87 103
57 90 113
57 90 118
60 93 133
57 91 118
57 90 113
56 89 111
56 89 110
57 90 114
55 87 114
56 88 100
73 98 95
78 101 78
91 111 60
99 116 31
105 120 25
97 108 0
115 130 0
110 124 0
122 137 0
118 134 0
117 132 0
108 123 0
116 132 0
125 140 0
129 146 0
126 139 0
124 139 0
122 138 0
118 132 0
117 130 0
143 159 0
135 151 0
133 150 0
139 157 0
125 139 0
108 125 0
129 144 0
124 137 0
125 140 0
133 147 0
127 143 0
131 148 0
131 146 0
140 155 0
133 149 0
129 145 0
122 136 0
134 150 0
125 140 0
129 145 0
136 152 0
131 147 0
131 145 0
127 141 0
137 151 0
134 148 0
125 139 0
134 150 0
135 150 0
135 150 0
140 158 0
130 144 0
141 154 0
137 154 0
132 146 0
152 168 0
134 152 0
143 158 0
138 153 0
132 146 0
140 155 0
148 166 0
143 158 0
134 147 0
139 156 0
138 155 0
145 158 0
143 157 0
145 159 0
140 156 0
147 160 0
149 164 0
145 162 0
146 160 0
144 160 0
141 155 0
145 160 0
145 161 0
141 152 0
144 159 0
148 164 0
140 153 0
148 164 0
149 165 0
153 167 0
149 165 0
145 158 0
142 156 0
148 163 0
152 168 0
152 166 0
155 169 0
153 167 0
149 162 0
155 170 0
145 158 0
149 165 0
155 173 0
147 161 0
150 166 0
151 168 0
155 173 0
150 165 0
147 162 0
145 161 0
156 171 0
149 164 0
158 174 0
155 170 0
150 166 0
160 176 0
147 160 0
155 171 0
159 174 0
160 176 0
150 164 0
154 169 0
156 174 0
155 170 0
154 169 0
155 169 0
159 173 0
160 177 0
158 176 0
157 175 0
156 172 0
157 172 0
158 174 0
161 180 0
158 173 0
160 178 0
155 172 0
161 180 0
165 183 0
161 178 0
155 171 0
163 181 0
162 179 0
165 184 0
162 178 0
162 179 0
163 182 0
166 187 0
161 177 0
163 181 0
161 179 0
163 179 0
165 184 0
162 181 0
163 184 0
163 180 0
162 180 0
166 184 0
165 183 0
162 182 0
161 179 0
163 182 0
160 177 0
161 180 0
158 180 0
165 186 0
166 183 0
164 184 0
187 217 255
187 217 255
187 217 255
186 217 255
186 216 255
185 216 255
185 216 255
185 216 255
185 216 255
184 216 255
184 216 255
184 215 255
184 215 255
183 215 255
183 215 255
183 215 255
183 215 255
183 215 255
183 215 255
183 215 255
182 215 255
182 215 255
182 215 255
182 215 255
182 214 255
182 214 255
182 214 255
182 214 255
182 214 255
182 214 255
182 214 255
182 214 255
182 214 255
182 214 255
182 214 255
182 214 255
182 214 255
181 214 255
182 214 255
182 214 255
182 214 255
182 214 255
182 214 255
182 215 255
182 214 255
182 214 255
182 215 255
182 215 255
183 215 255
183 215 255
183 215 255
183 215 255
183 215 255
183 215 255
184 215 255
183 215 255
184 216 255
184 216 255
185 216 255
185 216 255
185 216 255
185 216 255
185 216 255
186 216 255
186 217 255
186 217 255
187 217 255
187 217 255
187 217 255
187 217 255
188 217 255
188 218 255
189 218 255
189 218 255
189 218 255
189 218 255
190 218 255
190 219 255
191 219 255
191 219 255
192 219 255
192 220 255
193 220 255
194 220 255
193 220 255
194 220 255
195 221 255
195 221 255
195 221 255
196 222 255
197 222 255
197 222 255
197 222 255
198 223 255
199 223 255
199 223 255
200 224 255
200 224 255
201 224 255
202 225 255
201 225 255
203 226 255
203 226 255
204 226 255
205 226 255
205 227 255
207 227 255
207 227 255
206 227 255
208 228 255
208 228 255
209 229 255
210 229 255
211 230 255
212 230 255
212 230 255
212 230 255
212 229 252
211 228 249
208 225 246
209 223 240
205 220 235
200 213 226
201 213 222
199 214 233
200 213 224
189 203 220
170 182 193
181 192 203
162 174 189
164 176 191
159 169 175
157 170 187
144 158 176
145 158 175
140 152 162
130 145 160
118 134 155
113 128 138
95 112 127
85 105 125
98 115 125
77 101 136
81 103 135
61 90 119
62 91 120
65 93 118
54 86 117
53 85 117
55 87 124
54 86 119
54 85 111
52 83 117
54 87 119
50 81 109
54 86 128
55 88 116
53 85 115
53 84 115
54 86 112
52 83 108
53 85 113
56 89 122
56 89 120
57 90 122
54 86 118
56 90 125
57 90 128
57 90 124
58 92 134
56 89 123
60 94 132
59 92 135
55 88 120
55 88 115
54 87 106
56 89 122
57 90 120
58 92 124
56 89 125
57 90 113
59 93 127
58 91 124
59 92 128
58 92 128
59 94 138
60 94 129
57 91 128
57 90 120
58 92 131
57 90 113
59 94 128
58 92 128
59 93 126
57 90 115
57 91 117
59 94 136
57 89 117
58 92 125
60 94 124
58 92 124
60 94 131
60 94 129
59 92 122
58 91 122
59 92 125
58 92 121
58 92 130
59 92 130
60 94 134
58 91 124
58 92 122
56 89 110
59 93 128
59 93 126
58 92 105
61 95 139
59 94 128
58 92 125
57 90 124
58 92 121
57 91 120
59 93 117
56 89 110
58 92 126
57 90 111
58 91 120
57 89 108
58 91 118
57 90 120
57 90 124
58 91 122
56 88 118
56 89 111
57 90 111
54 86 95
71 97 80
83 105 78
96 114 60
109 126 51
116 130 18
114 129 0
109 124 0
117 132 0
118 130 0
98 112 0
112 125 0
123 138 0
124 139 0
123 138 0
123 138 0
119 134 0
125 138 0
126 141 0
130 146 0
116 130 0
108 123 0
133 145 0
116 131 0
130 145 0
128 145 0
128 143 0
114 127 0
132 149 0
133 148 0
132 145 0
127 143 0
133 149 0
137 153 0
126 139 0
137 154 0
124 140 0
123 141 0
130 144 0
130 144 0
135 152 0
134 150 0
134 150 0
140 156 0
125 141 0
136 151 0
135 151 0
134 148 0
140 156 0
141 157 0
141 155 0
138 154 0
139 154 0
130 146 0
134 150 0
140 155 0
140 155 0
129 146 0
137 151 0
136 151 0
146 162 0
137 151 0
141 154 0
142 156 0
145 162 0
145 159 0
138 154 0
149 166 0
138 153 0
137 153 0
147 162 0
139 153 0
136 149 0
147 164 0
151 166 0
147 162 0
142 160 0
149 163 0
147 162 0
143 159 0
146 161 0
147 164 0
147 162 0
149 164 0
146 160 0
149 163 0
144 158 0
145 158 0
144 160 0
147 161 0
140 154 0
152 167 0
148 163 0
151 167 0
152 168 0
144 161 0
149 167 0
150 163 0
153 170 0
144 157 0
155 169 0
156 170 0
150 165 0
157 172 0
155 169 0
150 167 0
149 164 0
157 172 0
158 173 0
151 165 0
156 173 0
155 173 0
157 175 0
152 168 0
150 166 0
154 172 0
156 173 0
151 168 0
155 172 0
160 177 0
156 171 0
156 173 0
154 172 0
155 172 0
156 170 0
158 176 0
153 169 0
155 172 0
159 175 0
159 175 0
161 179 0
157 174 0
154 170 0
158 174 0
162 181 0
159 175 0
161 178 0
161 180 0
164 183 0
162 180 0
163 182 0
156 176 0
165 184 0
160 179 0
160 177 0
167 186 0
164 184 0
157 175 0
165 183 0
163 183 0
154 171 0
163 181 0
161 181 0
162 182 0
163 182 0
162 181 0
160 179 0
167 186 0
161 180 0
165 185 0
163 182 0
164 183 0
163 183 0
164 183 0
165 185 0
187 217 255
187 217 255
187 217 255
186 217 255
186 216 255
186 216 255
185 216 255
185 216 255
185 216 255
184 216 255
184 215 255
184 216 255
183 215 255
184 215 255
183 215 255
183 215 255
183 215 255
183 215 255
183 215 255
183 215 255
182 215 255
182 215 255
182 214 255
182 215 255
182 214 255
182 214 255
182 214 255
182 214 255
182 214 255
182 214 255
182 214 255
182 214 255
182 214 255
181 214 255
182 214 255
182 214 255
182 214 255
182 214 255
182 214 255
182 214 255
182 214 255
182 214 255
182 214 255
182 215 255
182 215 255
182 215 255
182 215 255
183 215 255
183 215 255
183 215 255
183 215 255
183 215 255
183 215 255
184 215 255
184 215 255
184 215 255
184 215 255
184 216 255
184 216 255
185 216 255
185 216 255
185 216 255
185 216 255
186 216 255
186 217 255
186 217 255
186 217 255
187 217 255
187 217 255
187 217 255
188 218 255
188 218 255
189 218 255
189 218 255
189 218 255
190 218 255
191 219 255
190 219 255
191 219 255
191 219 255
192 220 255
193 220 255
193 220 255
193 220 255
194 221 255
194 221 255
194 221 255
195 221 255
195 221 255
196 222 255
196 222 255
197 222 255
198 223 255
198 223 255
199 223 255
199 223 255
200 224 255
200 224 255
201 224 255
201 224 255
202 225 255
202 225 255
203 225 255
204 226 255
205 226 255
205 227 255
207 227 255
206 227 255
207 228 255
208 228 255
208 228 255
209 229 255
209 229 255
211 230 255
211 230 255
212 230 255
213 231 255
212 229 252
212 229 251
211 227 248
206 221 237
208 223 239
207 222 238
203 217 230
200 214 227
194 206 219
193 205 217
187 200 213
174 185 197
173 185 195
168 180 189
165 178 191
164 175 182
151 163 178
153 163 168
131 146 169
127 142 165
124 138 151
116 132 149
107 124 141
96 116 143
99 117 137
82 102 118
75 99 123
70 93 110
61 91 129
63 91 114
55 85 114
53 85 121
53 85 115
54 86 110
53 85 114
50 81 99
52 84 116
52 83 107
53 85 116
53 84 119
55 87 116
52 83 121
57 90 126
55 87 127
55 87 115
53 85 103
55 87 119
55 88 119
56 89 124
56 89 113
57 91 116
56 88 122
55 89 122
56 89 133
56 90 128
58 92 128
58 92 133
57 91 124
57 90 129
57 91 132
58 92 124
57 91 122
57 90 119
59 93 130
56 89 118
57 90 116
58 92 122
58 91 133
58 92 122
57 90 129
60 95 135
58 91 122
60 94 137
57 90 113
58 91 124
60 94 129
60 94 131
58 92 128
60 94 126
58 92 134
59 93 128
56 89 113
57 91 108
59 92 128
59 92 130
56 88 111
58 92 110
56 89 114
59 93 120
57 90 120
57 91 121
56 89 110
58 92 117
57 90 117
58 92 115
58 92 113
59 94 131
58 92 122
59 93 120
56 89 115
58 91 115
58 92 110
59 93 115
57 90 97
55 87 100
55 88 99
59 93 128
57 91 110
56 89 108
57 91 118
57 90 103
57 90 126
56 89 113
57 90 107
55 86 99
56 89 114
57 90 115
57 88 105
64 91 102
86 106 77
87 105 80
112 132 40
99 111 0
106 120 0
115 129 0
121 134 0
115 128 0
122 138 0
116 133 0
118 130 0
112 128 0
124 139 0
122 138 0
124 137 0
115 132 0
131 147 0
125 139 0
120 135 0
118 132 0
122 135 0
120 134 0
121 135 0
137 154 0
131 147 0
118 135 0
128 141 0
124 138 0
135 149 0
129 143 0
123 138 0
143 159 0
130 145 0
143 160 0
122 138 0
138 154 0
139 154 0
132 148 0
134 149 0
126 142 0
141 157 0
136 152 0
144 163 0
134 147 0
131 146 0
134 147 0
133 150 0
131 147 0
131 145 0
135 148 0
130 145 0
144 160 0
141 157 0
138 153 0
139 154 0
140 155 0
138 155 0
152 166 0
144 160 0
142 156 0
140 155 0
142 158 0
137 152 0
150 165 0
145 161 0
141 157 0
141 155 0
143 159 0
143 157 0
138 154 0
142 157 0
138 153 0
131 145 0
143 158 0
150 166 0
145 160 0
143 159 0
141 154 0
142 155 0
149 162 0
137 151 0
150 165 0
149 162 0
147 162 0
149 165 0
145 162 0
145 159 0
147 162 0
148 162 0
145 159 0
150 165 0
144 160 0
149 164 0
154 170 0
142 157 0
145 162 0
153 166 0
150 164 0
144 159 0
155 172 0
148 162 0
148 161 0
156 172 0
153 168 0
152 168 0
152 169 0
157 174 0
154 171 0
153 170 0
154 169 0
155 170 0
153 169 0
153 171 0
158 174 0
155 172 0
158 175 0
161 181 0
156 171 0
159 177 0
154 170 0
157 174 0
153 165 0
156 173 0
155 171 0
159 175 0
160 179 0
162 179 0
159 177 0
159 176 0
151 168 0
154 172 0
163 181 0
153 170 0
159 177 0
159 176 0
155 172 0
160 177 0
164 184 0
163 182 0
162 180 0
161 179 0
160 177 0
160 178 0
160 179 0
156 173 0
167 186 0
161 181 0
166 186 0
165 185 0
166 186 0
157 176 0
164 183 0
161 178 0
162 181 0
160 177 0
163 181 0
165 184 0
165 182 0
166 184 0
167 188 0
163 184 0
163 183 0
165 186 0
166 188 0
187 217 255
187 217 255
186 217 255
186 217 255
186 216 255
186 216 255
185 216 255
185 216 255
185 216 255
185 216 255
184 216 255
184 216 255
184 216 255
184 215 255
184 215 255
183 215 255
183 215 255
183 215 255
182 215 255
183 215 255
183 215 255
182 215 255
182 215 255
182 215 255
182 215 255
182 214 255
182 214 255
182 214 255
182 214 255
182 214 255
182 214 255
182 214 255
182 214 255
182 214 255
182 214 255
182 214 255
182 214 255
182 214 255
182 214 255
182 214 255
182 214 255
182 214 255
182 214 255
182 214 255
182 215 255
182 215 255
182 215 255
183 215 255
183 215 255
183 215 255
183 215 255
183 215 255
183 215 255
184 215 255
184 215 255
184 215 255
184 215 255
184 216 255
185 216 255
185 216 255
185 216 255
185 216 255
186 216 255
186 217 255
186 216 255
186 217 255
187 217 255
187 217 255
187 217 255
188 217 255
188 217 255
188 218 255
189 218 255
189 218 255
189 218 255
190 219 255
190 219 255
190 219 255
191 219 255
192 220 255
192 220 255
192 220 255
193 220 255
193 220 255
194 220 255
194 221 255
194 221 255
195 221 255
195 221 255
196 222 255
196 222 255
197 222 255
198 223 255
198 223 255
199 224 255
199 223 255
200 224 255
200 224 255
201 224 255
202 225 255
202 225 255
203 225 255
203 226 255
204 226 255
205 226 255
205 227 255
206 227 255
207 228 255
207 228 255
208 228 255
209 228 255
209 229 255
210 229 255
211 230 255
211 230 255
213 231 255
213 231 255
213 230 254
212 229 250
210 224 243
211 227 247
210 224 239
205 217 227
202 214 223
200 213 227
197 211 226
198 210 219
188 201 217
179 192 203
183 194 204
175 185 194
172 183 195
155 168 182
152 166 177
150 164 179
123 138 150
140 151 162
112 130 155
118 135 156
121 135 148
100 119 138
91 111 131
88 107 129
73 95 110
72 96 128
62 89 116
65 90 112
62 88 115
57 87 109
54 86 111
52 84 113
55 87 120
53 85 116
54 86 116
52 83 124
54 86 115
55 87 115
52 84 100
52 84 103
55 88 122
52 84 105
56 89 127
55 87 118
54 86 120
57 90 121
53 85 110
51 82 107
57 91 129
55 88 109
55 88 115
59 93 124
58 91 129
58 92 141
56 89 103
56 88 124
56 89 123
57 90 115
57 90 117
59 93 126
60 94 136
57 90 120
58 91 124
54 87 99
59 93 124
60 94 129
58 91 124
58 92 130
57 90 121
59 93 129
59 93 129
58 91 120
57 91 123
58 91 114
58 91 131
59 93 128
58 93 125
57 91 111
56 89 110
59 94 121
57 91 120
59 94 134
59 93 126
58 92 120
59 92 128
59 93 131
56 90 113
57 91 115
57 91 121
59 92 121
58 92 115
58 92 120
59 93 133
58 92 118
58 91 121
57 90 118
59 92 120
58 92 122
58 91 120
58 91 122
58 92 114
58 92 121
58 92 124
57 90 111
58 91 122
58 92 114
57 91 117
57 90 117
57 90 117
58 90 108
55 87 103
58 91 108
54 86 107
58 91 113
59 90 90
72 96 84
74 96 74
101 117 57
103 119 40
111 126 18
109 121 0
121 134 0
116 132 0
111 125 0
119 135 0
136 153 0
113 126 0
116 131 0
115 130 0
124 141 0
123 138 0
122 136 0
126 140 0
120 135 0
120 133 0
137 152 0
123 136 0
124 139 0
123 138 0
131 147 0
124 139 0
124 140 0
128 145 0
133 149 0
130 146 0
126 141 0
137 151 0
129 146 0
126 142 0
136 152 0
136 152 0
129 145 0
126 142 0
129 143 0
133 146 0
140 156 0
134 149 0
136 152 0
133 148 0
133 151 0
140 156 0
139 155 0
127 143 0
139 154 0
136 151 0
135 151 0
135 150 0
137 154 0
144 159 0
134 148 0
146 161 0
134 149 0
141 156 0
139 155 0
140 154 0
145 162 0
138 153 0
144 159 0
140 156 0
151 167 0
141 157 0
149 166 0
145 157 0
137 153 0
141 159 0
151 169 0
148 164 0
147 164 0
143 160 0
140 157 0
153 170 0
149 165 0
136 150 0
148 163 0
142 157 0
150 167 0
152 168 0
150 165 0
139 153 0
153 167 0
153 169 0
156 171 0
149 164 0
147 164 0
152 168 0
147 163 0
148 164 0
143 159 0
155 169 0
149 166 0
148 165 0
150 166 0
155 171 0
156 171 0
144 161 0
150 166 0
159 176 0
158 175 0
155 170 0
157 173 0
151 168 0
155 174 0
153 171 0
160 177 0
148 162 0
153 167 0
151 166 0
150 166 0
157 174 0
150 167 0
158 172 0
160 177 0
161 180 0
163 181 0
161 178 0
157 173 0
160 178 0
160 177 0
163 181 0
156 173 0
159 175 0
160 178 0
155 171 0
157 175 0
158 175 0
163 181 0
159 179 0
159 176 0
161 180 0
160 178 0
159 178 0
159 177 0
157 174 0
163 184 0
157 174 0
159 176 0
163 181 0
162 182 0
161 180 0
165 184 0
161 178 0
159 178 0
159 178 0
158 177 0
160 179 0
163 182 0
161 178 0
156 173 0
161 177 0
160 179 0
162 181 0
161 178 0
165 184 0
162 182 0
166 185 0
164 184 0
165 186 0
168 188 0
164 183 0
166 186 0
167 187 0
187 217 255
187 217 255
187 217 255
187 217 255
186 216 255
186 216 255
186 216 255
185 216 255
185 216 255
185 216 255
184 216 255
184 216 255
184 215 255
184 215 255
183 215 255
184 215 255
183 215 255
183 215 255
183 215 255
183 215 255
183 215 255
183 215 255
183 215 255
183 215 255
182 215 255
182 214 255
182 215 255
182 214 255
182 215 255
182 214 255
182 214 255
182 214 255
182 214 255
182 214 255
182 214 255
182 214 255
182 214 255
182 214 255
182 215 255
182 214 255
182 214 255
182 215 255
182 215 255
182 215 255
182 215 255
182 215 255
182 215 255
183 215 255
183 215 255
183 215 255
184 215 255
183 215 255
183 215 255
183 215 255
184 216 255
184 216 255
184 215 255
185 216 255
184 216 255
185 216 255
185 216 255
185 216 255
186 216 255
186 216 255
186 217 255
187 217 255
187 217 255
187 217 255
187 217 255
188 218 255
188 218 255
188 218 255
189 218 255
189 218 255
189 218 255
190 218 255
190 219 255
191 219 255
191 219 255
192 219 255
192 220 255
193 220 255
193 220 255
193 220 255
193 220 255
194 221 255
195 221 255
196 221 255
195 221 255
196 222 255
197 222 255
197 222 255
198 223 255
198 223 255
200 224 255
199 223 255
200 224 255
201 224 255
202 225 255
202 225 255
202 225 255
203 225 255
204 226 255
204 226 255
204 226 255
205 227 255
206 227 255
207 228 255
207 227 255
207 228 255
209 229 255
210 229 255
211 230 255
211 230 255
212 230 255
212 230 255
213 231 255
214 231 255
214 231 254
213 229 250
213 229 250
209 225 245
206 220 234
203 216 230
206 219 232
199 212 225
202 215 229
194 206 216
189 202 213
185 196 203
179 191 207
179 189 193
178 189 204
169 180 187
146 160 175
150 163 169
141 153 156
126 143 162
121 136 147
113 126 126
109 126 141
102 122 141
89 109 128
78 102 122
77 100 124
72 96 121
69 94 112
67 94 118
57 88 111
55 88 121
53 84 118
54 86 127
54 87 118
54 85 113
50 81 106
51 82 98
52 83 107
54 86 113
52 82 106
52 83 112
56 88 115
51 82 105
52 83 114
54 86 112
56 90 132
54 86 113
56 89 125
56 88 110
58 91 118
56 88 115
55 88 116
57 90 122
55 88 117
54 87 105
55 88 122
57 90 124
57 90 122
58 92 133
58 92 122
57 91 127
56 89 127
57 91 125
58 91 119
57 91 112
60 94 129
58 91 124
57 91 122
57 90 118
59 92 129
57 91 126
58 91 118
58 92 129
58 92 120
57 90 108
59 93 126
57 89 111
58 91 121
59 92 130
60 95 135
58 92 120
57 91 113
58 91 118
58 91 105
57 90 120
60 94 125
58 91 117
57 90 117
59 92 129
58 91 120
57 90 115
58 92 121
58 92 120
58 91 121
57 90 117
58 92 125
58 92 117
57 89 120
57 91 113
59 92 129
56 88 110
57 89 107
58 92 118
57 90 111
56 88 107
57 90 113
55 88 105
56 88 110
56 89 97
57 90 103
55 88 113
55 88 100
55 87 99
53 84 92
69 96 95
85 108 60
86 103 44
102 119 40
111 126 31
116 131 0
116 130 0
107 120 0
116 131 0
113 130 0
119 134 0
118 132 0
110 125 0
113 126 0
115 130 0
116 132 0
132 149 0
129 145 0
126 144 0
110 125 0
115 130 0
126 142 0
130 146 0
126 141 0
125 141 0
134 152 0
128 143 0
131 146 0
133 149 0
127 143 0
138 155 0
132 148 0
129 143 0
130 147 0
127 142 0
127 142 0
140 156 0
130 145 0
137 152 0
132 148 0
134 148 0
133 149 0
135 152 0
136 152 0
136 152 0
145 162 0
135 148 0
135 150 0
131 146 0
141 157 0
142 160 0
132 149 0
130 143 0
137 151 0
140 157 0
131 145 0
140 156 0
149 164 0
136 151 0
139 153 0
142 155 0
142 158 0
137 151 0
140 155 0
147 162 0
141 157 0
147 162 0
146 162 0
139 152 0
139 153 0
144 159 0
136 151 0
151 168 0
145 160 0
143 159 0
147 163 0
140 156 0
139 153 0
144 161 0
151 168 0
145 161 0
141 155 0
147 162 0
148 164 0
145 161 0
152 170 0
144 162 0
151 168 0
148 163 0
147 165 0
148 163 0
151 166 0
146 158 0
148 161 0
144 158 0
151 165 0
148 165 0
161 179 0
152 168 0
156 174 0
153 168 0
154 170 0
151 167 0
151 167 0
151 167 0
152 168 0
154 172 0
151 167 0
157 174 0
159 172 0
155 173 0
155 171 0
158 175 0
149 165 0
149 166 0
153 171 0
156 172 0
148 164 0
155 173 0
158 176 0
157 173 0
154 171 0
158 177 0
157 175 0
156 172 0
156 171 0
160 178 0
159 178 0
155 172 0
160 177 0
154 171 0
158 176 0
156 174 0
163 182 0
160 180 0
156 174 0
155 172 0
164 182 0
162 181 0
157 170 0
162 179 0
160 181 0
159 178 0
158 175 0
163 181 0
168 184 0
166 184 0
162 181 0
165 184 0
162 180 0
158 177 0
166 185 0
162 180 0
161 180 0
163 182 0
162 181 0
165 185 0
165 184 0
161 181 0
167 188 0
168 187 0
169 190 0
169 188 0
160 179 0
168 189 0
166 186 0
169 188 0
187 217 255
187 217 255
187 217 255
186 217 255
186 217 255
186 217 255
185 216 255
185 216 255
185 216 255
185 216 255
185 216 255
184 216 255
184 216 255
184 216 255
184 215 255
184 215 255
183 215 255
183 215 255
183 215 255
183 215 255
183 215 255
183 215 255
183 215 255
182 215 255
182 215 255
182 215 255
182 214 255
182 214 255
182 215 255
182 215 255
182 214 255
182 215 255
182 214 255
182 214 255
182 214 255
182 214 255
182 214 255
182 214 255
182 215 255
182 215 255
182 215 255
182 215 255
182 215 255
183 215 255
183 215 255
183 215 255
183 215 255
183 215 255
183 215 255
183 215 255
184 215 255
184 215 255
184 215 255
184 215 255
184 215 255
184 216 255
185 216 255
185 216 255
185 216 255
185 216 255
185 216 255
186 216 255
186 216 255
186 217 255
187 217 255
187 217 255
187 217 255
188 217 255
188 217 255
188 218 255
188 218 255
188 218 255
190 218 255
189 218 255
190 218 255
190 219 255
191 219 255
191 219 255
192 219 255
192 220 255
193 220 255
193 220 255
194 221 255
194 220 255
194 220 255
195 221 255
195 221 255
195 221 255
196 222 255
196 222 255
196 222 255
197 222 255
198 223 255
199 223 255
199 223 255
200 224 255
200 224 255
200 224 255
201 224 255
201 224 255
203 225 255
203 225 255
203 226 255
203 226 255
204 226 255
206 227 255
206 227 255
206 227 255
207 228 255
208 228 255
208 228 255
209 229 255
210 229 255
210 229 255
211 230 255
212 230 255
213 231 255
213 231 255
214 232 255
214 230 252
215 231 252
209 223 241
208 222 238
210 224 239
205 218 231
209 222 236
207 220 235
199 212 223
194 207 220
188 200 211
183 195 205
178 191 206
166 179 192
167 179 185
153 165 178
146 156 160
145 159 173
151 164 173
137 151 163
109 126 135
98 118 147
106 123 131
88 108 127
82 104 117
82 105 123
68 94 124
63 90 120
60 87 101
63 89 109
53 85 119
51 82 107
54 86 113
54 85 104
51 82 99
55 88 109
52 84 115
51 81 107
54 86 108
53 84 102
52 83 109
53 84 102
53 84 107
55 87 119
54 85 101
55 87 117
55 87 118
54 86 118
57 90 121
55 88 112
54 86 111
57 90 118
57 90 115
59 93 131
56 89 113
55 87 112
59 93 127
57 91 122
57 90 118
57 90 126
55 88 107
59 92 133
58 92 122
56 89 108
58 91 118
56 89 120
58 92 128
59 93 128
57 91 123
58 91 128
60 94 140
57 91 114
57 91 117
58 91 114
58 91 117
58 92 120
58 92 125
57 91 115
60 95 135
59 93 126
58 91 110
59 93 124
58 92 124
59 93 120
57 90 118
59 92 129
58 92 118
59 93 115
59 93 121
60 94 134
57 90 124
58 92 118
59 93 128
58 91 121
57 91 115
56 89 111
60 94 129
56 88 107
58 92 117
56 89 113
59 93 118
57 90 114
56 89 115
57 91 103
55 87 100
56 88 105
56 88 110
56 89 110
56 89 105
57 90 111
56 88 111
54 86 102
71 98 86
78 101 72
85 105 70
114 131 47
100 114 36
104 118 25
118 132 0
119 133 0
98 113 0
117 133 0
121 138 0
118 133 0
126 141 0
108 122 0
124 137 0
126 140 0
119 136 0
122 137 0
116 132 0
123 138 0
118 133 0
125 141 0
129 143 0
125 141 0
126 140 0
117 133 0
122 138 0
130 145 0
130 146 0
126 142 0
132 150 0
124 137 0
132 148 0
136 153 0
135 150 0
136 151 0
130 147 0
119 134 0
136 153 0
130 146 0
135 151 0
128 144 0
139 155 0
127 140 0
134 150 0
146 161 0
142 157 0
141 156 0
139 156 0
139 156 0
136 154 0
126 141 0
136 153 0
142 158 0
130 147 0
147 163 0
139 158 0
133 148 0
139 157 0
136 154 0
144 160 0
133 149 0
136 152 0
139 154 0
134 150 0
136 152 0
146 164 0
139 155 0
149 166 0
132 148 0
141 157 0
140 157 0
139 156 0
139 153 0
144 159 0
144 161 0
139 153 0
150 166 0
141 155 0
150 167 0
147 162 0
147 165 0
139 154 0
147 165 0
143 158 0
148 165 0
150 165 0
141 155 0
154 169 0
147 162 0
151 166 0
150 164 0
153 167 0
152 167 0
157 173 0
145 163 0
147 163 0
152 167 0
146 161 0
151 167 0
157 174 0
150 167 0
154 171 0
143 159 0
149 166 0
153 168 0
151 164 0
151 169 0
157 174 0
151 168 0
154 167 0
154 173 0
154 172 0
158 178 0
155 171 0
153 170 0
157 174 0
155 173 0
160 180 0
153 172 0
157 176 0
162 180 0
150 167 0
158 176 0
155 173 0
155 172 0
158 175 0
161 177 0
150 167 0
163 181 0
151 166 0
156 172 0
166 183 0
157 177 0
162 179 0
162 181 0
160 177 0
159 177 0
160 179 0
159 175 0
157 173 0
155 170 0
161 180 0
160 178 0
161 178 0
163 181 0
159 177 0
159 179 0
160 178 0
161 180 0
164 180 0
159 178 0
165 185 0
159 177 0
161 179 0
161 179 0
162 181 0
164 184 0
165 185 0
162 183 0
166 185 0
163 184 0
164 185 0
164 182 0
163 182 0
163 182 0
165 186 0
165 186 0
167 184 0
188 217 255
187 217 255
187 217 255
187 217 255
186 216 255
186 216 255
186 216 255
186 216 255
185 216 255
185 216 255
185 216 255
185 216 255
184 215 255
184 216 255
184 216 255
184 215 255
184 215 255
184 215 255
183 215 255
183 215 255
183 215 255
183 215 255
183 215 255
183 215 255
183 215 255
182 215 255
182 215 255
182 215 255
182 215 255
182 215 255
182 215 255
182 215 255
182 215 255
182 215 255
182 215 255
182 215 255
182 215 255
182 215 255
182 215 255
182 215 255
182 215 255
182 215 255
183 215 255
182 215 255
182 215 255
183 215 255
183 215 255
183 215 255
183 215 255
183 215 255
183 215 255
184 215 255
184 215 255
184 216 255
184 216 255
184 216 255
185 216 255
185 216 255
184 216 255
185 216 255
186 216 255
185 216 255
186 217 255
186 217 255
186 217 255
187 217 255
188 217 255
187 217 255
188 217 255
188 218 255
189 218 255
189 218 255
189 218 255
189 218 255
190 218 255
190 219 255
191 219 255
191 219 255
191 219 255
192 220 255
192 220 255
193 220 255
193 220 255
194 220 255
194 221 255
195 221 255
195 221 255
195 221 255
196 222 255
197 222 255
197 222 255
198 223 255
198 223 255
199 223 255
199 223 255
200 224 255
200 224 255
201 224 255
200 224 255
202 225 255
203 225 255
203 225 255
203 226 255
204 226 255
205 226 255
205 226 255
206 227 255
206 227 255
207 227 255
208 228 255
209 229 255
209 229 255
210 229 255
211 230 255
211 230 255
212 230 255
212 230 255
213 231 255
214 231 255
214 231 254
213 229 251
215 230 250
213 228 248
210 224 241
204 217 231
205 218 231
207 220 235
200 212 225
189 201 210
190 202 210
180 191 198
178 190 196
174 185 193
178 190 198
162 174 179
152 167 181
136 150 154
132 146 151
125 140 150
127 140 138
118 134 147
108 123 127
98 118 128
92 112 115
78 100 106
68 94 121
63 89 116
68 92 109
57 88 115
54 85 108
55 88 122
53 85 117
53 84 116
52 82 101
53 84 110
55 88 120
54 86 102
54 86 106
54 86 109
54 85 117
56 90 125
52 84 98
55 87 109
56 89 117
54 87 107
54 86 103
53 84 107
56 89 116
56 89 116
56 89 111
57 90 112
55 87 120
58 91 118
56 88 122
56 88 116
55 88 104
56 89 108
54 86 114
57 90 130
56 89 114
58 91 127
57 91 115
55 87 108
58 91 126
56 89 108
58 92 115
56 89 119
57 90 119
58 92 129
56 90 118
58 91 126
57 91 117
57 90 115
58 92 118
59 93 128
57 89 115
58 92 127
58 92 125
59 92 126
57 90 119
56 89 107
58 92 118
58 91 117
57 90 118
58 91 121
58 91 122
57 91 111
58 92 125
57 91 113
56 88 110
56 89 100
56 89 110
58 91 129
56 88 111
59 92 117
58 92 124
57 90 114
58 91 121
58 91 111
57 90 113
57 90 111
57 91 110
58 92 121
56 89 110
55 87 95
55 87 102
56 89 107
56 88 113
56 88 108
59 89 107
63 91 84
90 112 90
93 112 72
99 116 26
104 118 31
107 121 0
105 119 0
109 122 0
119 135 0
125 141 0
119 133 0
115 129 0
107 121 0
103 116 0
123 138 0
127 143 0
123 138 0
123 140 0
123 138 0
128 142 0
121 137 0
122 136 0
119 134 0
128 145 0
127 145 0
130 148 0
120 137 0
128 145 0
132 149 0
126 141 0
132 148 0
124 142 0
122 137 0
128 143 0
126 143 0
118 135 0
138 154 0
128 144 0
126 143 0
125 141 0
126 142 0
132 148 0
133 150 0
137 152 0
134 150 0
128 142 0
137 152 0
124 141 0
140 157 0
132 149 0
137 152 0
131 147 0
142 157 0
126 143 0
133 152 0
135 153 0
139 156 0
139 154 0
136 153 0
138 153 0
142 157 0
136 153 0
138 155 0
141 158 0
143 159 0
139 154 0
144 161 0
142 156 0
134 150 0
140 155 0
149 166 0
146 163 0
144 162 0
145 161 0
144 162 0
144 161 0
144 160 0
145 163 0
148 164 0
149 166 0
150 167 0
151 166 0
149 166 0
152 169 0
145 161 0
152 168 0
148 167 0
144 160 0
142 159 0
151 170 0
142 156 0
151 168 0
153 171 0
150 166 0
152 170 0
140 154 0
148 165 0
153 168 0
153 171 0
154 170 0
161 180 0
148 162 0
152 167 0
145 160 0
155 172 0
152 168 0
155 173 0
156 171 0
158 175 0
154 172 0
156 171 0
153 168 0
156 174 0
146 162 0
159 177 0
161 178 0
157 173 0
154 170 0
157 175 0
162 179 0
157 176 0
154 171 0
158 175 0
156 172 0
158 174 0
147 164 0
154 172 0
161 177 0
163 181 0
155 173 0
153 173 0
161 178 0
157 172 0
159 178 0
158 175 0
156 174 0
159 178 0
165 185 0
160 178 0
159 179 0
160 179 0
161 179 0
163 180 0
169 190 0
158 175 0
163 181 0
160 179 0
166 185 0
165 183 0
160 178 0
167 186 0
165 183 0
163 184 0
166 186 0
165 183 0
160 178 0
164 185 0
163 183 0
166 187 0
162 183 0
161 180 0
164 186 0
165 186 0
163 183 0
162 180 0
166 187 0
164 185 0
161 182 0
163 183 0
167 188 0
187 217 255
187 217 255
187 217 255
186 217 255
186 217 255
186 217 255
186 216 255
186 216 255
185 216 255
185 216 255
185 216 255
185 216 255
184 216 255
184 216 255
184 215 255
184 215 255
184 215 255
184 215 255
183 215 255
183 215 255
183 215 255
183 215 255
183 215 255
183 215 255
183 215 255
183 215 255
183 215 255
183 215 255
182 215 255
182 215 255
182 215 255
182 215 255
182 215 255
182 215 255
182 215 255
182 215 255
182 215 255
182 215 255
183 215 255
182 215 255
183 215 255
183 215 255
183 215 255
183 215 255
183 215 255
183 215 255
183 215 255
183 215 255
183 215 255
184 215 255
184 215 255
184 215 255
184 216 255
184 216 255
184 216 255
185 216 255
185 216 255
185 216 255
186 216 255
186 216 255
186 216 255
186 217 255
186 217 255
187 217 255
187 217 255
187 217 255
188 217 255
188 217 255
188 218 255
188 218 255
189 218 255
188 218 255
189 218 255
190 218 255
190 218 255
191 219 255
191 219 255
191 219 255
191 219 255
192 220 255
193 220 255
193 220 255
193 220 255
194 220 255
194 221 255
194 221 255
195 221 255
196 221 255
196 222 255
197 222 255
197 222 255
197 222 255
198 223 255
198 223 255
199 224 255
200 224 255
200 224 255
200 224 255
202 225 255
203 225 255
202 225 255
203 226 255
203 225 255
204 226 255
205 227 255
206 227 255
206 227 255
207 228 255
208 228 255
208 228 255
209 229 255
209 229 255
210 229 255
210 229 255
211 230 255
212 231 255
213 231 255
213 231 255
214 232 255
216 233 255
213 229 250
214 230 251
216 231 250
208 223 240
210 224 240
211 224 238
203 215 225
203 216 225
195 206 214
189 200 202
185 199 210
185 197 200
175 187 192
168 180 190
165 179 188
153 164 166
150 162 166
138 151 153
133 144 134
127 143 147
119 134 139
105 124 134
109 124 111
83 103 109
79 102 115
71 96 118
68 91 105
63 92 115
58 88 109
58 90 107
53 84 111
56 85 101
51 81 90
55 86 113
52 82 103
52 83 106
50 80 91
53 84 107
54 86 106
53 84 92
53 84 107
52 83 104
51 82 108
54 86 110
55 87 114
53 85 103
55 87 118
57 90 120
55 87 110
54 85 111
54 86 107
53 85 108
55 88 112
57 89 107
56 89 117
55 87 107
56 88 116
54 86 109
56 89 120
55 87 110
58 92 121
57 90 114
57 91 132
56 89 107
57 90 113
55 87 110
58 91 122
57 90 118
57 91 115
57 91 124
57 90 118
58 91 120
57 90 117
57 90 118
58 91 120
58 92 121
60 95 130
56 89 115
57 90 121
57 91 115
58 91 120
57 90 114
57 90 97
56 89 108
59 93 115
58 91 120
58 91 120
55 88 100
57 90 120
58 92 120
58 91 113
59 93 120
56 90 107
56 89 103
58 91 115
55 88 100
59 92 129
59 93 129
57 91 110
55 87 92
59 93 120
55 87 105
57 89 118
56 89 111
57 90 108
56 88 114
53 85 94
54 85 99
59 91 103
76 101 84
81 104 78
87 108 67
101 118 60
108 125 25
109 122 0
120 135 0
109 123 0
115 131 0
112 127 0
126 144 0
116 130 0
102 116 0
120 132 0
127 144 0
119 136 0
113 129 0
111 126 0
121 138 0
121 135 0
118 136 0
118 134 0
125 141 0
121 137 0
122 137 0
138 153 0
124 139 0
125 139 0
121 136 0
126 143 0
130 146 0
136 155 0
144 161 0
122 138 0
122 139 0
133 150 0
119 135 0
133 149 0
130 145 0
132 149 0
125 139 0
137 154 0
140 157 0
132 149 0
139 156 0
143 159 0
133 147 0
134 151 0
135 152 0
137 154 0
135 151 0
135 151 0
131 148 0
139 155 0
144 162 0
148 165 0
140 158 0
141 158 0
143 160 0
129 144 0
140 158 0
143 161 0
136 153 0
136 151 0
139 157 0
140 158 0
138 154 0
135 151 0
141 157 0
141 156 0
149 168 0
142 162 0
147 163 0
144 161 0
136 153 0
145 161 0
142 158 0
139 154 0
147 163 0
153 168 0
147 163 0
143 158 0
150 167 0
142 157 0
144 162 0
151 167 0
141 155 0
153 169 0
146 163 0
158 176 0
150 166 0
135 150 0
148 165 0
148 165 0
152 170 0
150 168 0
151 169 0
152 169 0
154 171 0
158 176 0
152 169 0
159 179 0
151 168 0
153 170 0
150 169 0
151 169 0
153 171 0
151 170 0
157 175 0
154 171 0
149 165 0
157 177 0
156 174 0
159 176 0
154 172 0
160 179 0
157 176 0
152 169 0
159 176 0
158 176 0
156 171 0
156 174 0
152 170 0
156 175 0
160 175 0
159 176 0
157 176 0
157 175 0
159 175 0
159 178 0
156 175 0
161 180 0
161 179 0
160 180 0
162 180 0
157 175 0
158 174 0
161 179 0
159 178 0
165 185 0
160 179 0
166 187 0
166 184 0
161 178 0
163 182 0
156 174 0
154 171 0
162 181 0
162 180 0
163 183 0
164 184 0
166 185 0
163 183 0
160 178 0
162 182 0
157 175 0
164 182 0
167 186 0
161 181 0
164 185 0
163 180 0
162 180 0
168 189 0
160 179 0
163 181 0
165 185 0
168 188 0
164 185 0
162 182 0
165 184 0
169 188 0
188 217 255
187 217 255
186 217 255
187 217 255
187 217 255
186 216 255
186 216 255
186 216 255
185 216 255
185 216 255
184 216 255
185 216 255
184 216 255
184 216 255
184 216 255
184 216 255
184 215 255
184 215 255
184 215 255
183 215 255
183 215 255
183 215 255
183 215 255
183 215 255
183 215 255
183 215 255
183 215 255
182 215 255
182 215 255
182 215 255
182 215 255
183 215 255
183 215 255
182 215 255
182 215 255
183 215 255
183 215 255
183 215 255
183 215 255
183 215 255
183 215 255
183 215 255
183 215 255
183 215 255
183 215 255
183 215 255
183 215 255
184 215 255
184 215 255
184 215 255
184 215 255
184 216 255
184 216 255
185 216 255
185 216 255
185 216 255
185 216 255
185 216 255
185 216 255
186 216 255
186 216 255
186 217 255
187 217 255
187 217 255
187 217 255
187 217 255
187 217 255
188 217 255
188 218 255
188 218 255
189 218 255
189 218 255
190 218 255
190 218 255
190 219 255
191 219 255
191 219 255
191 219 255
192 220 255
192 219 255
193 220 255
193 220 255
193 220 255
193 220 255
194 221 255
195 221 255
196 222 255
196 222 255
196 222 255
197 222 255
197 222 255
197 222 255
199 223 255
199 223 255
199 223 255
200 224 255
200 224 255
201 224 255
202 225 255
202 225 255
203 225 255
204 226 255
203 225 255
204 226 255
205 227 255
206 227 255
207 227 255
207 228 255
208 228 255
208 228 255
208 228 255
210 229 255
210 229 255
211 230 255
212 230 255
212 230 255
212 231 255
213 231 255
215 232 255
215 232 255
215 232 254
215 231 252
214 230 252
211 225 244
206 218 230
211 225 241
205 217 232
194 206 208
200 212 215
198 211 220
186 197 200
188 199 200
179 190 182
176 189 193
152 165 165
158 170 158
164 178 177
153 165 161
143 158 156
127 143 135
127 141 138
111 127 125
94 113 108
94 116 121
82 105 111
75 98 110
76 99 102
61 89 113
54 86 115
55 84 111
56 87 116
54 86 112
54 85 107
51 81 97
53 85 91
55 87 115
53 85 105
53 84 107
54 86 109
52 83 94
51 82 102
52 83 102
52 83 101
55 87 118
53 85 107
54 85 99
54 85 106
55 87 116
55 87 115
57 90 125
57 90 123
54 86 105
57 91 116
57 89 115
55 87 107
56 90 113
57 90 115
56 89 117
54 86 103
54 86 109
55 88 119
58 91 132
54 86 99
56 89 113
59 92 125
58 92 121
57 90 120
55 88 115
58 91 126
56 88 115
59 92 115
57 90 108
57 90 114
58 92 120
58 91 117
59 92 125
59 93 118
57 89 115
54 86 102
58 91 121
56 88 107
58 91 111
55 87 110
58 92 122
59 93 120
57 90 108
57 91 115
58 91 121
59 93 120
56 89 108
57 90 108
56 89 110
56 89 113
56 89 115
56 88 108
56 88 110
55 87 94
57 91 114
56 88 114
55 87 107
55 88 105
54 86 100
52 82 92
55 88 107
56 88 97
54 86 92
58 90 102
55 86 102
68 93 86
83 105 78
91 110 62
104 121 47
101 117 18
112 128 18
119 135 0
111 127 0
105 118 0
114 127 0
125 141 0
107 122 0
107 122 0
115 129 0
118 135 0
132 149 0
118 134 0
118 135 0
119 133 0
123 137 0
122 139 0
123 139 0
129 145 0
125 141 0
130 147 0
130 145 0
118 133 0
123 141 0
116 133 0
122 136 0
128 145 0
126 141 0
137 153 0
134 151 0
121 136 0
133 150 0
133 149 0
130 146 0
130 146 0
134 150 0
142 157 0
134 150 0
127 143 0
138 153 0
128 144 0
136 153 0
140 157 0
135 153 0
138 155 0
141 158 0
135 152 0
132 147 0
140 156 0
138 155 0
140 158 0
139 156 0
136 151 0
138 155 0
133 147 0
138 153 0
143 159 0
134 151 0
143 160 0
139 153 0
138 155 0
143 159 0
151 166 0
149 164 0
148 165 0
144 160 0
149 166 0
140 155 0
153 170 0
149 167 0
142 158 0
144 160 0
152 170 0
140 157 0
147 165 0
149 163 0
149 167 0
156 174 0
148 163 0
145 162 0
138 156 0
139 153 0
148 165 0
144 159 0
152 171 0
149 168 0
148 165 0
141 156 0
152 168 0
146 162 0
147 165 0
154 170 0
147 164 0
150 167 0
157 174 0
156 172 0
155 174 0
152 169 0
150 167 0
153 169 0
154 172 0
151 168 0
150 167 0
152 168 0
154 172 0
157 176 0
150 167 0
153 170 0
153 169 0
155 173 0
158 173 0
153 171 0
153 171 0
151 167 0
156 175 0
158 175 0
156 174 0
155 171 0
159 176 0
160 177 0
153 172 0
158 177 0
154 171 0
156 174 0
156 174 0
161 178 0
155 171 0
155 174 0
159 177 0
159 176 0
163 181 0
164 183 0
160 179 0
163 182 0
156 173 0
157 176 0
167 185 0
162 181 0
161 179 0
163 183 0
157 174 0
158 177 0
157 175 0
162 179 0
160 179 0
163 184 0
158 175 0
166 185 0
163 184 0
159 182 0
166 186 0
169 191 0
166 185 0
159 177 0
164 182 0
165 186 0
162 183 0
160 179 0
169 190 0
163 183 0
165 188 0
162 183 0
164 184 0
168 187 0
164 184 0
166 186 0
162 183 0
166 187 0
188 217 255
188 217 255
187 217 255
187 217 255
187 217 255
186 217 255
186 216 255
186 216 255
186 216 255
185 216 255
185 216 255
185 216 255
185 216 255
184 216 255
184 215 255
184 216 255
184 216 255
184 215 255
184 215 255
184 215 255
183 215 255
183 215 255
183 215 255
183 215 255
183 215 255
183 215 255
183 215 255
183 215 255
183 215 255
183 215 255
183 215 255
183 215 255
183 215 255
183 215 255
183 215 255
183 215 255
183 215 255
183 215 255
183 215 255
183 215 255
183 215 255
183 215 255
183 215 255
183 215 255
183 215 255
183 215 255
184 215 255
184 215 255
184 215 255
184 215 255
184 216 255
184 216 255
184 216 255
185 216 255
185 216 255
185 216 255
185 216 255
186 216 255
185 216 255
186 216 255
186 217 255
186 217 255
186 217 255
187 217 255
187 217 255
188 217 255
188 217 255
188 217 255
189 218 255
189 218 255
189 218 255
189 218 255
190 218 255
190 218 255
190 219 255
191 219 255
191 219 255
192 220 255
192 220 255
192 220 255
193 220 255
193 220 255
194 221 255
194 221 255
194 221 255
195 221 255
196 222 255
196 222 255
196 222 255
197 222 255
197 222 255
198 223 255
199 223 255
198 223 255
199 223 255
200 224 255
200 224 255
201 224 255
201 225 255
202 225 255
203 225 255
203 226 255
204 226 255
204 226 255
205 227 255
206 227 255
206 227 255
207 228 255
207 228 255
208 228 255
209 229 255
209 229 255
210 229 255
211 230 255
212 230 255
212 231 255
213 231 255
214 231 255
214 232 255
214 232 255
216 232 255
214 231 253
217 233 254
216 230 249
213 228 247
213 227 244
202 214 221
206 218 223
203 216 224
202 215 223
189 202 201
185 196 196
187 199 206
178 191 194
171 183 180
159 173 163
149 161 143
146 159 155
135 148 134
132 147 140
126 139 124
118 135 132
99 119 119
105 123 111
89 110 110
89 111 113
72 93 108
62 89 97
65 90 108
56 85 97
59 88 103
54 86 112
53 82 111
55 87 115
53 85 105
55 87 111
52 82 101
52 82 96
51 81 104
54 86 106
55 88 113
52 82 93
53 84 100
53 83 106
55 87 108
56 88 119
55 86 114
53 84 103
55 87 113
55 88 118
54 86 117
56 89 114
55 88 120
54 86 103
57 89 123
56 89 119
56 88 110
57 90 120
58 91 128
56 89 106
56 88 105
56 89 109
56 89 111
55 88 112
55 87 99
57 90 110
59 92 129
57 91 117
58 91 118
58 92 122
58 92 115
56 90 114
57 89 115
56 89 114
57 90 110
59 93 117
56 89 107
57 90 124
54 86 100
57 90 120
55 88 114
57 90 108
57 91 107
58 91 110
58 91 122
59 94 122
57 90 115
56 89 118
57 90 114
57 89 102
58 91 108
58 91 114
57 90 103
56 89 111
55 87 97
58 92 124
54 86 86
58 91 110
56 88 107
53 84 99
54 86 95
54 86 105
54 87 97
55 88 107
54 85 100
54 85 90
63 90 90
58 84 72
79 100 62
94 110 57
102 120 51
97 114 0
101 115 0
95 109 0
103 118 0
111 125 0
112 126 0
109 124 0
110 126 0
106 120 0
115 131 0
120 135 0
121 137 0
121 136 0
127 143 0
117 133 0
122 139 0
134 152 0
127 144 0
118 133 0
123 140 0
122 139 0
131 148 0
112 126 0
121 138 0
125 142 0
119 135 0
123 138 0
129 146 0
127 142 0
128 143 0
131 147 0
122 138 0
129 143 0
138 156 0
131 148 0
131 147 0
126 144 0
132 149 0
130 148 0
139 156 0
140 157 0
134 152 0
140 157 0
133 149 0
134 150 0
138 157 0
140 157 0
141 159 0
134 151 0
135 150 0
136 152 0
138 156 0
143 161 0
144 163 0
137 154 0
142 160 0
142 160 0
137 153 0
151 170 0
136 152 0
150 167 0
138 154 0
142 161 0
145 161 0
137 155 0
145 162 0
147 165 0
141 157 0
142 158 0
144 160 0
150 168 0
144 160 0
147 164 0
148 164 0
148 167 0
146 164 0
151 168 0
141 159 0
156 174 0
147 164 0
145 162 0
143 160 0
146 163 0
149 168 0
151 166 0
154 171 0
150 168 0
150 168 0
156 174 0
148 165 0
147 165 0
148 165 0
155 171 0
146 163 0
151 168 0
157 174 0
158 176 0
146 163 0
158 176 0
153 170 0
148 164 0
152 167 0
155 171 0
159 178 0
151 167 0
154 171 0
151 167 0
156 173 0
160 176 0
156 174 0
151 170 0
162 180 0
156 173 0
155 172 0
159 179 0
156 174 0
157 175 0
153 170 0
163 183 0
160 178 0
159 178 0
160 177 0
157 175 0
155 172 0
158 178 0
156 173 0
161 181 0
160 178 0
157 176 0
161 179 0
162 182 0
158 178 0
155 172 0
161 180 0
159 180 0
164 183 0
161 181 0
156 177 0
164 183 0
163 181 0
163 183 0
154 172 0
160 176 0
163 182 0
160 178 0
169 187 0
164 185 0
159 179 0
159 179 0
158 177 0
165 185 0
158 178 0
162 180 0
162 180 0
165 186 0
162 182 0
161 179 0
162 180 0
165 186 0
158 176 0
164 185 0
163 183 0
167 186 0
162 184 0
167 185 0
163 183 0
166 184 0
162 180 0
165 186 0
187 217 255
187 217 255
187 217 255
187 217 255
186 217 255
186 217 255
186 217 255
186 216 255
185 216 255
185 216 255
185 216 255
185 216 255
185 216 255
184 216 255
184 216 255
184 216 255
184 216 255
184 216 255
184 215 255
184 216 255
184 215 255
183 215 255
184 215 255
183 215 255
183 215 255
183 215 255
183 215 255
183 215 255
183 215 255
183 215 255
183 215 255
183 215 255
183 215 255
183 215 255
183 215 255
183 215 255
183 215 255
183 215 255
183 215 255
183 215 255
183 215 255
184 215 255
183 215 255
184 215 255
183 215 255
184 215 255
184 215 255
184 215 255
184 215 255
184 215 255
185 216 255
184 216 255
185 216 255
185 216 255
185 216 255
185 216 255
185 216 255
186 216 255
186 216 255
186 216 255
186 217 255
187 217 255
186 217 255
187 217 255
187 217 255
188 217 255
188 217 255
188 218 255
188 218 255
189 218 255
189 218 255
190 218 255
190 218 255
190 218 255
191 219 255
191 219 255
192 220 255
191 219 255
192 219 255
192 220 255
193 220 255
194 220 255
194 220 255
194 220 255
195 221 255
195 221 255
195 221 255
196 222 255
197 222 255
197 222 255
197 222 255
198 223 255
199 223 255
199 224 255
200 224 255
200 224 255
200 224 255
201 224 255
202 225 255
202 225 255
203 226 255
203 225 255
204 226 255
205 226 255
205 227 255
206 227 255
206 227 255
207 227 255
208 228 255
209 229 255
209 229 255
209 229 255
211 230 255
210 229 255
211 230 255
212 231 255
213 231 255
214 232 255
214 231 255
215 232 255
216 232 255
217 233 255
217 233 255
214 230 247
214 228 247
212 227 241
206 219 229
206 219 226
201 213 218
194 206 201
196 207 203
182 194 193
175 186 181
187 198 194
173 186 181
173 186 178
167 181 175
149 163 160
139 152 147
130 147 143
116 131 118
115 131 121
115 134 115
104 122 109
98 114 88
81 104 118
81 104 106
76 97 93
72 94 97
64 91 100
61 88 98
60 85 108
52 83 106
54 86 103
52 84 102
50 80 96
52 83 110
51 82 100
53 84 97
55 87 114
53 84 93
53 84 97
53 85 99
53 84 103
56 89 121
53 85 106
53 84 114
54 86 95
56 88 118
55 87 95
54 85 104
54 85 92
54 86 113
54 86 106
55 87 102
54 86 102
55 87 107
55 88 115
53 85 104
56 88 113
55 88 114
57 90 117
55 87 107
57 91 123
57 89 114
57 90 124
55 88 103
56 88 110
55 88 102
59 92 125
56 89 120
56 89 110
57 90 111
59 93 128
58 92 125
58 91 118
57 90 118
56 88 106
59 92 124
55 88 108
57 91 115
56 89 108
57 91 108
57 89 120
57 91 118
54 87 103
55 87 92
57 90 103
57 89 108
59 92 118
56 89 107
57 90 111
55 87 102
56 89 105
57 90 111
57 90 110
56 87 108
55 87 100
56 89 108
56 88 97
54 85 88
55 87 102
55 87 99
57 90 114
55 86 92
71 98 103
78 99 80
77 97 62
89 107 44
99 115 31
104 117 18
98 112 0
106 119 0
105 118 0
109 124 0
112 128 0
111 126 0
105 121 0
122 137 0
124 139 0
113 128 0
121 135 0
122 138 0
106 122 0
114 129 0
115 131 0
127 143 0
136 152 0
102 117 0
121 134 0
119 136 0
115 132 0
122 140 0
135 152 0
132 149 0
127 144 0
136 148 0
118 133 0
130 146 0
128 146 0
138 153 0
124 138 0
126 143 0
130 149 0
143 159 0
135 149 0
141 158 0
125 141 0
130 145 0
135 153 0
137 152 0
130 149 0
129 145 0
138 154 0
124 139 0
126 141 0
133 151 0
135 151 0
139 157 0
136 152 0
145 163 0
133 150 0
135 151 0
145 162 0
138 154 0
137 152 0
142 160 0
137 155 0
140 157 0
142 159 0
138 153 0
146 161 0
140 155 0
150 169 0
146 162 0
143 159 0
146 163 0
145 163 0
139 154 0
148 165 0
147 165 0
148 166 0
145 162 0
151 166 0
146 162 0
151 167 0
148 167 0
147 165 0
149 166 0
151 168 0
147 165 0
142 157 0
151 172 0
145 164 0
141 156 0
154 173 0
151 169 0
143 158 0
148 165 0
146 163 0
154 174 0
152 169 0
147 164 0
151 167 0
144 159 0
155 173 0
154 172 0
147 164 0
154 172 0
148 165 0
156 174 0
150 165 0
144 159 0
152 168 0
162 180 0
154 172 0
153 169 0
145 162 0
154 171 0
147 164 0
151 168 0
160 178 0
156 175 0
156 176 0
161 179 0
156 173 0
159 177 0
158 176 0
156 172 0
154 173 0
157 177 0
162 182 0
161 180 0
151 169 0
152 169 0
162 180 0
155 172 0
155 172 0
162 181 0
162 181 0
163 183 0
158 176 0
158 177 0
156 171 0
162 182 0
165 184 0
161 179 0
160 178 0
160 179 0
152 171 0
158 177 0
162 182 0
155 171 0
161 179 0
162 181 0
161 181 0
164 184 0
167 186 0
166 184 0
156 175 0
162 181 0
162 182 0
162 182 0
165 184 0
166 186 0
165 185 0
162 182 0
167 189 0
164 184 0
165 185 0
161 182 0
165 186 0
165 183 0
170 190 0
161 180 0
166 186 0
162 184 0
168 188 0
167 188 0
163 183 0
188 217 255
187 217 255
187 217 255
187 217 255
187 217 255
186 217 255
186 217 255
186 217 255
185 216 255
185 216 255
185 216 255
185 216 255
185 216 255
185 216 255
185 216 255
185 216 255
184 216 255
184 215 255
184 215 255
184 215 255
184 215 255
184 215 255
183 215 255
183 215 255
184 215 255
183 215 255
183 215 255
183 215 255
183 215 255
183 215 255
183 215 255
183 215 255
183 215 255
183 215 255
183 215 255
183 215 255
183 215 255
183 215 255
183 215 255
183 215 255
183 215 255
183 215 255
184 215 255
183 215 255
184 215 255
184 215 255
184 215 255
184 216 255
184 216 255
184 216 255
185 216 255
185 216 255
184 216 255
185 216 255
185 216 255
185 216 255
186 216 255
186 216 255
186 217 255
187 217 255
187 217 255
187 217 255
187 217 255
187 217 255
188 217 255
188 218 255
188 217 255
188 218 255
189 218 255
189 218 255
190 218 255
189 218 255
190 218 255
191 219 255
191 219 255
191 219 255
191 219 255
192 220 255
192 220 255
193 220 255
193 220 255
194 221 255
194 221 255
195 221 255
195 221 255
195 221 255
196 222 255
196 222 255
197 222 255
197 222 255
197 222 255
198 223 255
199 223 255
199 223 255
200 224 255
201 224 255
201 224 255
201 224 255
203 225 255
202 225 255
202 225 255
203 225 255
204 226 255
205 226 255
206 227 255
206 227 255
207 228 255
207 228 255
208 228 255
208 228 255
210 229 255
210 229 255
211 230 255
210 230 255
212 230 255
213 231 255
214 231 255
214 231 255
214 232 255
215 232 255
215 232 255
216 233 255
217 233 255
216 231 249
215 230 246
214 228 242
211 226 236
208 222 228
199 211 210
197 210 210
202 215 213
193 206 203
173 187 177
182 195 178
175 187 175
165 178 170
161 174 163
147 162 152
144 159 149
126 143 129
115 134 123
117 134 121
106 126 113
102 120 94
95 115 103
75 99 103
77 99 99
84 105 105
69 93 99
61 89 106
62 89 103
54 85 102
56 83 110
55 87 115
53 84 110
51 81 99
54 86 108
52 83 105
54 86 102
50 80 96
52 83 90
54 86 113
52 82 97
51 81 96
51 82 100
53 85 105
51 81 96
55 87 106
54 86 115
54 86 98
55 87 103
55 87 104
56 88 118
53 84 105
54 86 113
57 90 122
53 84 102
58 91 118
56 89 115
56 88 103
55 87 108
55 88 112
55 87 110
57 90 115
55 87 110
56 89 114
58 91 118
56 88 107
57 90 114
57 90 111
58 91 126
57 90 107
57 90 110
53 85 99
55 87 102
57 90 115
56 89 114
56 89 105
57 91 117
57 89 113
56 89 107
55 87 105
57 90 115
57 90 105
55 87 110
57 90 105
58 91 115
55 88 102
55 88 107
58 91 117
56 89 115
59 93 122
56 89 107
56 89 107
57 90 111
54 85 110
55 88 108
58 91 111
56 88 117
54 85 90
56 89 105
56 88 105
55 87 103
61 90 92
73 96 72
85 107 65
85 103 57
98 115 44
91 105 25
94 109 18
108 121 0
107 124 0
106 120 0
101 116 0
105 122 0
114 129 0
112 128 0
113 128 0
103 119 0
113 127 0
115 132 0
123 138 0
105 120 0
115 132 0
109 124 0
127 145 0
120 137 0
126 143 0
133 150 0
122 138 0
125 142 0
124 141 0
122 139 0
120 136 0
125 143 0
132 149 0
121 139 0
123 139 0
119 136 0
138 153 0
130 146 0
127 143 0
133 149 0
132 149 0
145 163 0
120 135 0
134 150 0
135 153 0
135 154 0
135 153 0
137 151 0
129 146 0
128 145 0
134 151 0
140 158 0
141 158 0
124 142 0
133 151 0
142 161 0
134 151 0
134 152 0
138 155 0
138 153 0
137 154 0
135 151 0
143 161 0
141 159 0
136 153 0
137 153 0
141 158 0
140 156 0
141 157 0
148 167 0
157 175 0
145 161 0
144 162 0
143 159 0
144 162 0
146 163 0
148 165 0
145 164 0
141 157 0
147 168 0
141 158 0
142 161 0
148 166 0
149 165 0
156 172 0
148 165 0
150 167 0
151 168 0
146 162 0
149 167 0
149 166 0
142 161 0
152 169 0
146 163 0
148 165 0
153 170 0
149 165 0
143 156 0
158 175 0
150 166 0
151 169 0
145 162 0
152 169 0
152 172 0
161 179 0
157 174 0
151 168 0
149 167 0
155 172 0
155 172 0
152 170 0
157 175 0
154 171 0
157 173 0
155 174 0
157 174 0
155 173 0
157 176 0
160 177 0
152 169 0
155 173 0
159 177 0
150 167 0
157 175 0
160 179 0
158 176 0
153 172 0
159 179 0
156 176 0
160 178 0
160 177 0
155 173 0
154 171 0
154 170 0
161 178 0
163 180 0
159 177 0
155 174 0
156 173 0
160 179 0
155 169 0
160 179 0
164 185 0
163 181 0
158 176 0
155 174 0
160 178 0
161 179 0
164 183 0
159 178 0
165 184 0
163 183 0
162 181 0
164 180 0
163 180 0
158 179 0
165 184 0
159 179 0
160 179 0
157 175 0
160 179 0
166 187 0
168 187 0
160 178 0
162 182 0
164 183 0
160 179 0
159 179 0
158 176 0
166 187 0
169 190 0
161 180 0
166 187 0
160 180 0
162 183 0
165 184 0
164 183 0
188 218 255
188 218 255
187 217 255
187 217 255
187 217 255
187 217 255
186 217 255
186 217 255
186 217 255
186 216 255
185 216 255
186 216 255
185 216 255
185 216 255
185 216 255
185 216 255
185 216 255
185 216 255
184 216 255
184 215 255
184 215 255
184 215 255
184 215 255
184 215 255
184 215 255
184 215 255
183 215 255
184 215 255
183 215 255
183 215 255
184 215 255
184 215 255
183 215 255
183 215 255
183 215 255
183 215 255
184 215 255
184 215 255
183 215 255
184 215 255
183 215 255
184 215 255
184 215 255
184 215 255
184 216 255
184 215 255
184 216 255
184 215 255
185 216 255
185 216 255
185 216 255
185 216 255
186 216 255
185 216 255
185 216 255
185 216 255
187 217 255
186 217 255
186 217 255
187 217 255
186 217 255
187 217 255
188 217 255
187 217 255
188 217 255
188 218 255
189 218 255
189 218 255
188 218 255
189 218 255
190 219 255
190 219 255
190 219 255
191 219 255
192 219 255
192 219 255
192 220 255
192 220 255
193 220 255
193 220 255
193 220 255
193 220 255
194 221 255
194 221 255
195 221 255
195 221 255
196 222 255
197 222 255
197 222 255
198 223 255
198 223 255
198 223 255
199 223 255
199 223 255
200 224 255
200 224 255
201 224 255
201 224 255
202 225 255
203 225 255
203 225 255
204 226 255
204 226 255
205 227 255
206 227 255
206 227 255
206 227 255
207 228 255
208 228 255
209 229 255
210 229 255
210 229 255
211 230 255
211 230 255
212 230 255
213 231 255
213 231 255
214 231 255
215 232 255
215 232 255
216 233 255
217 233 255
216 232 253
217 233 253
215 230 247
213 228 239
213 227 240
211 225 232
200 214 211
191 204 201
194 206 194
185 197 193
188 200 193
183 196 177
176 190 186
167 181 174
168 182 161
152 167 151
142 157 149
136 153 134
119 138 130
114 134 122
116 135 105
105 124 106
109 128 97
97 121 92
94 114 90
74 96 92
84 106 96
66 89 90
63 86 99
58 84 100
61 85 93
52 83 102
54 85 103
55 87 107
53 84 103
54 86 104
55 87 107
50 81 99
52 83 94
56 89 118
54 86 106
54 85 106
51 83 94
52 83 94
54 86 99
53 85 109
53 84 103
54 85 107
55 87 109
54 86 95
53 84 104
54 86 106
55 88 109
56 89 111
56 88 117
54 86 106
56 90 108
57 90 118
56 88 115
56 89 107
57 90 114
56 89 108
55 88 118
55 87 108
56 89 119
56 88 120
56 88 113
57 90 117
57 91 108
56 90 118
54 86 99
57 90 115
58 91 121
56 88 107
55 87 100
56 88 105
57 90 117
56 89 105
57 91 118
54 86 95
57 90 107
57 89 110
56 90 108
55 88 110
57 91 117
56 89 105
57 89 107
55 87 107
55 87 111
57 90 111
56 88 107
55 87 99
55 87 108
53 84 100
55 87 107
56 89 111
53 85 99
56 88 113
56 88 100
53 84 84
60 88 97
69 94 74
96 114 47
79 97 47
79 95 0
113 129 18
93 109 18
106 120 0
98 112 0
105 120 0
104 119 0
112 127 0
117 133 0
113 130 0
123 139 0
113 128 0
104 119 0
120 137 0
124 141 0
125 141 0
124 140 0
117 133 0
115 132 0
115 132 0
123 139 0
130 147 0
124 142 0
130 147 0
128 144 0
120 138 0
131 148 0
127 145 0
128 145 0
129 146 0
132 150 0
132 147 0
128 145 0
129 146 0
129 146 0
128 145 0
124 140 0
135 153 0
131 148 0
129 146 0
140 157 0
126 143 0
131 147 0
137 155 0
143 161 0
137 155 0
140 156 0
137 154 0
140 156 0
137 155 0
132 151 0
140 157 0
138 155 0
138 156 0
133 151 0
140 156 0
136 153 0
139 156 0
140 157 0
136 154 0
148 166 0
138 152 0
143 160 0
143 158 0
144 161 0
143 161 0
139 158 0
147 163 0
149 168 0
148 163 0
140 157 0
150 167 0
144 162 0
149 164 0
148 167 0
145 163 0
142 159 0
148 167 0
149 168 0
145 163 0
148 165 0
153 171 0
140 157 0
150 167 0
147 165 0
148 165 0
148 168 0
158 175 0
150 168 0
154 172 0
147 163 0
154 172 0
151 170 0
153 171 0
147 163 0
145 162 0
158 176 0
156 174 0
152 172 0
149 165 0
156 173 0
153 170 0
155 174 0
154 172 0
154 174 0
147 163 0
153 170 0
156 173 0
154 170 0
152 169 0
155 174 0
148 163 0
159 179 0
154 174 0
151 164 0
159 177 0
155 173 0
157 175 0
154 173 0
156 174 0
153 168 0
153 168 0
155 173 0
155 174 0
154 171 0
152 171 0
159 178 0
159 176 0
157 175 0
163 181 0
160 178 0
154 172 0
156 175 0
160 177 0
162 181 0
154 173 0
159 177 0
161 180 0
160 179 0
157 176 0
159 179 0
160 182 0
169 187 0
157 174 0
158 178 0
163 181 0
160 178 0
163 183 0
157 175 0
164 184 0
160 177 0
167 184 0
168 187 0
167 186 0
163 183 0
167 188 0
162 182 0
163 184 0
166 185 0
166 187 0
166 186 0
161 181 0
164 185 0
164 184 0
167 187 0
161 182 0
162 181 0
168 189 0
165 186 0
161 180 0
167 187 0
165 184 0
157 176 0
168 189 0
188 217 255
188 218 255
188 217 255
187 217 255
187 217 255
187 217 255
187 217 255
186 217 255
186 217 255
186 216 255
186 216 255
186 216 255
186 216 255
185 216 255
185 216 255
185 216 255
184 216 255
185 216 255
185 216 255
184 216 255
184 216 255
184 216 255
184 215 255
184 215 255
184 215 255
184 216 255
183 215 255
184 215 255
184 215 255
184 215 255
184 215 255
183 215 255
184 215 255
183 215 255
184 215 255
184 216 255
184 215 255
184 215 255
183 215 255
184 215 255
184 215 255
184 216 255
184 215 255
184 215 255
184 215 255
185 216 255
185 216 255
185 216 255
185 216 255
185 216 255
185 216 255
185 216 255
185 216 255
185 216 255
186 216 255
186 217 255
186 216 255
186 217 255
187 217 255
187 217 255
188 217 255
187 217 255
187 217 255
188 218 255
188 217 255
188 218 255
189 218 255
189 218 255
189 218 255
190 218 255
190 218 255
190 219 255
191 219 255
191 219 255
191 219 255
191 219 255
192 219 255
193 220 255
192 220 255
193 220 255
193 220 255
194 221 255
194 221 255
195 221 255
195 221 255
196 222 255
196 222 255
197 222 255
197 222 255
198 223 255
198 223 255
199 223 255
199 223 255
199 224 255
200 224 255
200 224 255
201 225 255
201 225 255
203 225 255
203 225 255
203 226 255
204 226 255
204 226 255
205 227 255
205 227 255
206 227 255
207 228 255
207 228 255
209 229 255
209 229 255
209 229 255
210 229 255
211 230 255
211 230 255
212 230 255
212 231 255
214 231 255
214 231 255
214 232 255
215 232 255
216 233 255
217 233 255
217 233 254
216 232 250
214 230 245
212 228 243
212 227 237
209 224 232
205 219 219
201 215 213
197 211 203
196 209 192
191 204 190
189 202 190
172 187 155
178 192 162
164 179 153
155 169 140
154 169 152
144 163 130
140 158 126
123 143 108
123 144 114
107 127 111
108 127 104
100 123 98
92 115 101
78 99 77
76 99 90
79 99 92
73 100 100
68 94 97
59 87 109
53 85 99
53 83 99
50 80 90
52 82 111
53 84 102
53 84 103
53 85 84
53 83 101
51 81 97
53 85 93
53 84 96
52 82 88
53 84 96
51 81 90
55 88 108
53 84 108
53 84 89
56 89 111
54 86 103
54 85 100
55 88 99
56 89 118
53 84 97
54 85 107
55 86 103
55 88 110
55 87 103
54 85 103
55 86 110
56 89 110
56 88 109
56 88 113
56 89 104
57 90 117
55 87 99
55 87 103
53 85 94
54 86 97
55 87 117
57 90 113
55 87 99
57 90 107
55 87 108
57 90 114
56 89 113
56 88 113
57 90 113
55 87 105
56 89 103
54 86 102
54 86 102
55 88 107
55 87 110
55 87 107
58 91 125
57 90 108
57 90 108
56 88 108
57 90 110
55 87 108
55 88 97
57 90 102
57 90 107
56 89 102
53 83 95
55 86 102
55 85 90
60 90 102
60 84 60
82 105 70
88 107 54
81 99 31
103 120 40
112 127 25
106 121 0
103 118 0
105 120 0
112 128 0
106 123 0
104 120 0
112 129 0
110 124 0
119 134 0
120 136 0
115 131 0
107 123 0
112 127 0
117 135 0
109 124 0
118 134 0
117 134 0
120 135 0
124 138 0
120 136 0
122 137 0
124 141 0
109 124 0
117 133 0
126 142 0
136 153 0
124 140 0
133 149 0
126 141 0
120 136 0
136 154 0
131 150 0
125 142 0
130 147 0
131 147 0
129 147 0
131 149 0
134 150 0
126 142 0
136 155 0
122 138 0
132 150 0
135 152 0
144 161 0
145 164 0
139 157 0
136 154 0
132 149 0
142 160 0
133 149 0
138 154 0
139 156 0
139 157 0
140 158 0
137 152 0
145 164 0
140 157 0
144 164 0
140 158 0
148 167 0
143 161 0
148 166 0
150 169 0
146 166 0
155 175 0
144 163 0
148 166 0
147 166 0
139 156 0
139 156 0
140 156 0
149 167 0
148 167 0
139 155 0
147 166 0
141 160 0
153 171 0
138 156 0
142 159 0
142 160 0
140 157 0
146 162 0
139 156 0
155 172 0
150 168 0
148 166 0
148 165 0
132 148 0
151 169 0
149 164 0
154 174 0
150 169 0
150 169 0
150 167 0
145 161 0
157 177 0
153 170 0
151 169 0
151 167 0
153 169 0
162 181 0
154 174 0
154 172 0
151 170 0
144 161 0
153 172 0
156 175 0
157 174 0
154 176 0
152 170 0
146 165 0
154 173 0
159 177 0
150 168 0
161 180 0
160 180 0
157 177 0
155 174 0
155 174 0
164 183 0
148 164 0
160 177 0
157 175 0
156 176 0
158 177 0
157 173 0
159 178 0
155 173 0
154 172 0
158 176 0
159 179 0
159 175 0
155 172 0
157 177 0
164 184 0
161 181 0
158 177 0
157 176 0
159 178 0
164 182 0
168 188 0
156 175 0
158 176 0
158 177 0
164 183 0
162 182 0
160 179 0
164 183 0
161 179 0
163 184 0
160 178 0
165 184 0
159 180 0
162 182 0
162 179 0
157 176 0
162 182 0
161 179 0
164 183 0
161 181 0
164 186 0
168 189 0
160 180 0
162 182 0
162 183 0
164 184 0
159 177 0
161 182 0
162 182 0
168 187 0
171 190 0
167 189 0
168 189 0
188 218 255
188 218 255
188 217 255
187 217 255
187 217 255
187 217 255
187 217 255
187 217 255
186 217 255
186 217 255
186 217 255
186 217 255
186 216 255
186 216 255
185 216 255
185 216 255
185 216 255
185 216 255
185 216 255
185 216 255
184 215 255
184 215 255
184 215 255
185 216 255
185 216 255
184 216 255
184 215 255
184 216 255
184 215 255
184 215 255
184 215 255
184 216 255
184 215 255
184 215 255
184 215 255
184 216 255
184 215 255
184 215 255
184 216 255
184 215 255
184 216 255
184 216 255
185 216 255
184 216 255
184 216 255
185 216 255
185 216 255
185 216 255
185 216 255
185 216 255
185 216 255
185 216 255
186 216 255
186 216 255
186 217 255
186 217 255
187 217 255
186 217 255
187 217 255
187 217 255
187 217 255
187 217 255
188 217 255
188 218 255
188 218 255
189 218 255
189 218 255
189 218 255
189 218 255
190 219 255
190 218 255
190 219 255
191 219 255
191 219 255
191 219 255
192 220 255
192 220 255
192 220 255
193 220 255
194 221 255
193 220 255
194 221 255
195 221 255
195 221 255
196 222 255
196 222 255
197 222 255
197 222 255
198 223 255
198 223 255
198 223 255
198 223 255
199 224 255
199 223 255
200 224 255
201 224 255
201 225 255
202 225 255
202 225 255
203 225 255
203 226 255
204 226 255
205 227 255
205 227 255
206 227 255
206 227 255
207 228 255
208 228 255
208 228 255
209 229 255
209 229 255
211 230 255
210 229 255
211 230 255
212 230 255
213 231 255
213 231 255
214 231 255
214 232 255
216 232 255
216 233 255
216 233 255
217 233 254
217 233 252
215 231 242
213 229 236
213 228 237
209 224 230
204 219 214
198 211 208
201 216 204
196 208 194
191 204 185
179 192 163
180 196 173
167 183 154
151 168 133
156 172 138
154 171 128
144 158 112
136 157 119
135 152 99
117 135 86
116 135 82
108 127 95
97 121 97
93 113 94
92 114 87
81 105 106
90 111 86
72 94 90
67 94 95
59 86 92
54 84 81
54 85 100
52 83 85
53 84 91
53 84 94
53 84 92
52 82 110
56 88 102
54 86 104
53 85 107
52 84 98
53 85 94
52 83 101
51 82 96
54 86 97
55 87 107
52 83 93
54 86 97
55 87 99
54 86 99
54 85 104
53 84 98
55 86 105
55 87 107
55 88 104
57 89 120
55 88 99
56 88 107
58 91 116
54 87 99
55 88 102
55 88 95
56 89 102
57 89 118
55 88 102
53 85 86
56 89 107
55 87 102
56 88 100
57 90 124
56 89 107
55 88 105
55 87 102
55 88 105
55 88 102
57 90 111
56 88 111
55 88 100
55 88 102
56 89 99
56 89 113
54 86 103
56 89 103
54 85 94
54 87 103
55 87 99
54 86 90
55 87 99
56 87 105
57 89 107
54 86 107
55 87 97
56 87 117
54 85 94
53 85 92
63 91 100
68 94 78
69 94 74
87 108 57
73 90 44
87 102 40
97 112 31
110 125 18
105 121 0
106 120 0
101 115 0
110 124 0
110 125 0
112 129 0
104 119 0
108 125 0
109 125 0
127 144 0
122 138 0
117 133 0
111 126 0
112 125 0
115 131 0
111 126 0
124 139 0
123 139 0
131 147 0
123 140 0
128 143 0
127 141 0
121 137 0
125 141 0
124 141 0
127 145 0
129 145 0
126 143 0
129 147 0
133 150 0
130 148 0
141 157 0
127 144 0
124 142 0
138 156 0
134 151 0
130 147 0
133 149 0
135 154 0
138 156 0
126 142 0
130 146 0
131 148 0
132 148 0
135 153 0
139 157 0
134 153 0
134 154 0
141 159 0
131 147 0
145 163 0
140 158 0
134 152 0
137 155 0
145 163 0
140 159 0
141 159 0
141 158 0
131 148 0
143 159 0
142 159 0
136 153 0
148 166 0
144 161 0
140 158 0
145 162 0
145 165 0
149 168 0
148 167 0
147 166 0
150 169 0
142 161 0
140 158 0
152 170 0
145 165 0
149 168 0
141 158 0
138 156 0
148 164 0
149 166 0
150 168 0
147 166 0
150 167 0
154 173 0
151 168 0
148 165 0
153 171 0
152 171 0
148 166 0
155 170 0
151 170 0
157 173 0
152 171 0
155 174 0
152 169 0
147 164 0
154 172 0
153 170 0
147 162 0
153 171 0
157 175 0
149 166 0
154 173 0
148 165 0
155 174 0
154 172 0
148 165 0
157 175 0
154 173 0
154 173 0
150 167 0
157 176 0
156 173 0
159 177 0
157 176 0
153 169 0
159 177 0
153 171 0
159 178 0
155 176 0
155 173 0
158 176 0
156 177 0
154 172 0
156 172 0
156 175 0
160 178 0
157 178 0
159 179 0
154 172 0
160 178 0
160 180 0
153 172 0
159 179 0
166 186 0
158 176 0
160 179 0
156 174 0
156 175 0
162 183 0
156 173 0
162 181 0
163 181 0
166 185 0
163 183 0
162 183 0
158 175 0
162 181 0
164 183 0
165 185 0
163 183 0
163 183 0
158 179 0
167 186 0
163 181 0
164 185 0
164 183 0
166 187 0
165 184 0
167 186 0
164 184 0
165 185 0
166 184 0
164 187 0
166 185 0
164 183 0
167 188 0
159 177 0
168 188 0
160 179 0
167 187 0
160 181 0
168 190 0
165 185 0
189 218 255
189 218 255
188 218 255
188 218 255
188 217 255
188 217 255
187 217 255
187 217 255
187 217 255
186 217 255
186 217 255
186 217 255
186 216 255
186 216 255
185 216 255
186 216 255
185 216 255
185 216 255
185 216 255
185 216 255
184 216 255
185 216 255
185 216 255
185 216 255
185 216 255
184 216 255
184 216 255
184 216 255
184 215 255
184 216 255
184 215 255
184 216 255
184 216 255
184 216 255
184 215 255
184 215 255
184 216 255
184 215 255
184 216 255
184 216 255
184 216 255
185 216 255
184 216 255
184 216 255
185 216 255
185 216 255
185 216 255
184 216 255
185 216 255
185 216 255
185 216 255
186 216 255
186 216 255
186 216 255
186 217 255
186 217 255
186 217 255
187 217 255
187 217 255
187 217 255
187 217 255
188 218 255
188 218 255
188 218 255
189 218 255
189 218 255
189 218 255
189 218 255
189 218 255
190 219 255
190 219 255
191 219 255
191 219 255
191 219 255
192 220 255
192 220 255
193 220 255
193 220 255
193 220 255
193 220 255
194 221 255
194 221 255
195 221 255
195 221 255
195 221 255
196 222 255
197 222 255
197 222 255
198 223 255
198 223 255
199 223 255
199 224 255
200 224 255
200 224 255
200 224 255
201 224 255
202 225 255
203 225 255
202 225 255
203 225 255
204 226 255
204 226 255
206 227 255
205 227 255
206 227 255
206 227 255
208 228 255
208 228 255
209 229 255
210 229 255
209 229 255
210 229 255
211 230 255
211 230 255
213 231 255
213 231 255
213 231 255
214 231 255
215 232 255
216 232 255
216 233 255
217 233 255
217 233 254
218 233 253
215 231 245
212 228 233
210 226 227
206 221 218
203 218 220
204 219 213
199 213 198
199 213 191
194 209 186
186 201 174
188 201 187
173 188 146
165 180 145
160 175 147
154 172 126
148 164 131
137 155 119
129 148 100
134 151 111
117 137 101
106 125 98
117 136 83
102 122 79
98 121 102
82 106 107
88 111 99
82 102 75
71 96 95
66 91 91
57 83 90
51 82 97
52 83 87
52 82 94
49 80 82
50 80 82
50 80 85
53 84 91
49 78 83
53 84 85
54 85 107
53 84 103
53 84 99
54 86 103
52 83 90
52 82 91
53 83 97
52 83 98
52 83 98
52 83 94
53 85 103
52 83 103
53 85 102
53 84 92
55 87 107
56 89 110
53 83 94
55 87 102
56 88 105
56 88 113
53 84 94
55 87 102
55 87 110
55 87 100
54 86 102
55 87 103
55 87 102
57 90 116
55 87 101
54 86 107
55 87 109
56 89 111
57 90 114
56 89 108
57 90 108
56 88 113
57 89 111
58 91 117
54 86 97
57 89 108
54 86 95
53 84 95
55 88 103
58 91 111
56 89 97
55 87 103
54 85 88
54 85 92
58 91 121
54 86 99
54 86 102
55 87 100
53 84 92
53 84 100
66 92 86
82 105 70
79 100 54
80 101 60
105 121 44
94 110 25
109 125 25
102 115 0
100 115 0
112 127 0
102 116 0
111 125 0
114 131 0
105 119 0
112 129 0
104 120 0
109 123 0
118 135 0
112 130 0
120 138 0
108 122 0
114 130 0
110 128 0
119 135 0
132 150 0
121 139 0
122 140 0
122 140 0
118 134 0
112 129 0
120 138 0
125 143 0
135 153 0
130 148 0
124 142 0
126 143 0
121 136 0
118 134 0
142 160 0
137 156 0
129 147 0
126 146 0
118 136 0
137 154 0
134 152 0
137 156 0
122 139 0
133 151 0
132 152 0
140 158 0
134 151 0
139 155 0
134 149 0
136 154 0
142 161 0
139 157 0
139 157 0
137 155 0
129 146 0
131 148 0
131 147 0
142 160 0
139 157 0
144 162 0
138 157 0
146 166 0
137 155 0
140 159 0
142 160 0
144 161 0
143 160 0
146 163 0
141 157 0
142 159 0
145 164 0
144 163 0
142 161 0
151 169 0
147 165 0
146 163 0
156 174 0
144 161 0
142 161 0
152 173 0
146 164 0
146 164 0
156 175 0
147 165 0
151 169 0
144 160 0
153 170 0
151 169 0
141 156 0
148 166 0
147 165 0
146 162 0
152 171 0
147 164 0
148 164 0
149 164 0
158 175 0
156 173 0
152 170 0
153 171 0
156 176 0
150 169 0
154 171 0
157 176 0
144 160 0
147 163 0
149 168 0
153 172 0
148 165 0
155 173 0
156 176 0
160 181 0
160 178 0
158 177 0
157 178 0
162 180 0
158 176 0
160 179 0
157 177 0
157 177 0
160 178 0
155 174 0
161 181 0
148 167 0
162 184 0
158 178 0
152 170 0
156 175 0
164 186 0
159 178 0
151 168 0
158 177 0
157 175 0
153 173 0
159 176 0
157 174 0
161 180 0
157 176 0
162 182 0
160 177 0
163 183 0
157 175 0
161 181 0
162 182 0
157 176 0
157 177 0
159 177 0
161 180 0
164 183 0
163 181 0
159 177 0
165 184 0
164 185 0
159 179 0
162 182 0
159 178 0
157 174 0
164 184 0
159 178 0
161 182 0
164 185 0
161 181 0
163 183 0
166 185 0
161 181 0
165 183 0
161 181 0
164 182 0
164 183 0
165 184 0
165 186 0
162 183 0
169 188 0
165 186 0
167 187 0
166 186 0
165 186 0
163 183 0
164 185 0
189 218 255
188 218 255
189 218 255
188 218 255
188 218 255
188 217 255
187 217 255
187 217 255
187 217 255
187 217 255
186 217 255
186 217 255
186 216 255
186 216 255
186 216 255
185 216 255
185 216 255
185 216 255
185 216 255
185 216 255
185 216 255
185 216 255
185 216 255
185 216 255
184 216 255
185 216 255
184 216 255
184 216 255
184 216 255
185 216 255
184 216 255
185 216 255
184 216 255
184 215 255
185 216 255
185 216 255
185 216 255
185 216 255
184 216 255
185 216 255
185 216 255
185 216 255
185 216 255
185 216 255
185 216 255
186 216 255
185 216 255
185 216 255
186 216 255
186 217 255
186 216 255
186 217 255
186 217 255
187 217 255
186 217 255
187 217 255
187 217 255
187 217 255
188 217 255
188 217 255
188 218 255
188 218 255
188 218 255
188 218 255
189 218 255
189 218 255
190 218 255
189 218 255
190 219 255
191 219 255
191 219 255
191 219 255
191 219 255
191 219 255
192 220 255
192 220 255
192 220 255
193 220 255
194 221 255
194 221 255
194 221 255
195 221 255
194 221 255
196 222 255
196 222 255
197 222 255
197 222 255
197 223 255
198 223 255
198 223 255
199 223 255
199 223 255
200 224 255
200 224 255
200 224 255
201 225 255
202 225 255
202 225 255
203 226 255
204 226 255
203 226 255
204 226 255
205 226 255
205 227 255
206 227 255
207 228 255
207 228 255
207 228 255
209 229 255
209 229 255
210 229 255
210 229 255
210 229 255
212 230 255
212 230 255
213 231 255
214 232 255
214 231 255
215 232 255
216 233 255
217 233 255
217 233 255
218 234 254
218 233 253
214 231 242
213 229 234
213 229 238
210 227 228
205 220 214
207 221 218
198 214 193
197 212 186
195 209 196
183 200 162
176 192 151
182 197 170
176 193 147
166 183 141
155 173 121
144 161 91
135 153 115
134 154 107
124 143 89
112 131 94
121 142 74
111 131 92
102 122 104
98 119 78
92 112 91
87 108 77
76 99 85
75 98 84
61 86 89
63 90 90
54 82 86
57 84 84
52 82 87
52 83 87
52 82 97
52 84 92
53 84 92
52 83 99
53 84 101
51 81 76
53 84 99
51 81 97
50 81 87
53 84 89
53 85 96
51 82 95
53 84 99
53 85 97
54 85 98
51 81 88
55 87 100
52 83 96
54 85 99
55 87 111
56 88 107
55 86 102
54 86 102
55 88 110
56 88 111
56 88 108
56 89 105
53 84 103
55 87 99
52 84 99
56 88 102
54 86 107
55 87 102
55 87 99
55 88 102
55 87 103
55 87 102
55 87 99
57 90 114
55 87 114
55 88 100
56 89 108
54 86 94
57 90 103
54 86 100
54 86 92
54 86 95
53 84 94
56 89 102
54 86 103
53 85 90
54 86 100
55 88 105
56 88 108
55 88 95
53 84 94
55 87 100
59 87 80
63 89 74
83 104 60
87 106 60
88 105 51
94 109 0
102 117 18
99 115 0
101 115 0
101 116 0
106 123 0
93 107 0
103 119 0
112 127 0
103 120 0
123 138 0
105 122 0
117 134 0
103 121 0
105 120 0
115 131 0
118 135 0
116 131 0
125 142 0
123 140 0
125 141 0
115 130 0
114 130 0
129 146 0
119 136 0
114 131 0
130 148 0
118 136 0
123 140 0
125 144 0
129 147 0
125 141 0
129 147 0
129 147 0
127 144 0
126 143 0
133 150 0
120 137 0
139 157 0
129 149 0
133 150 0
133 151 0
136 155 0
128 144 0
129 148 0
129 147 0
138 156 0
137 153 0
138 156 0
133 152 0
139 156 0
138 158 0
133 152 0
135 152 0
142 161 0
139 155 0
138 156 0
146 165 0
146 165 0
143 161 0
135 154 0
129 149 0
133 150 0
142 160 0
141 161 0
144 162 0
146 165 0
133 151 0
142 161 0
146 166 0
148 166 0
136 155 0
135 152 0
145 162 0
148 165 0
144 161 0
143 161 0
142 159 0
155 175 0
142 159 0
148 165 0
153 168 0
145 164 0
145 163 0
145 162 0
151 171 0
145 163 0
150 168 0
150 169 0
151 170 0
150 167 0
158 178 0
149 168 0
150 168 0
154 172 0
150 170 0
149 167 0
152 170 0
146 163 0
153 173 0
151 171 0
156 174 0
158 175 0
149 169 0
157 175 0
154 171 0
154 173 0
151 168 0
156 175 0
154 172 0
152 171 0
145 163 0
159 176 0
154 172 0
158 178 0
156 176 0
151 168 0
158 178 0
160 180 0
154 171 0
155 174 0
156 174 0
158 176 0
163 182 0
158 176 0
148 166 0
159 176 0
157 176 0
154 174 0
160 177 0
156 174 0
156 177 0
159 177 0
157 175 0
160 180 0
157 176 0
150 169 0
160 179 0
165 185 0
159 176 0
162 180 0
162 182 0
161 180 0
162 181 0
163 181 0
160 179 0
159 178 0
163 183 0
158 178 0
156 173 0
161 181 0
166 183 0
160 179 0
162 182 0
158 179 0
164 184 0
158 178 0
164 184 0
161 182 0
165 185 0
164 182 0
163 185 0
165 185 0
162 182 0
165 185 0
167 188 0
159 180 0
163 184 0
161 181 0
166 185 0
164 183 0
160 182 0
166 186 0
167 185 0
166 188 0
163 185 0
167 187 0
166 187 0
170 190 0
163 183 0
189 218 255
189 218 255
189 218 255
188 218 255
188 218 255
188 217 255
188 217 255
188 217 255
187 217 255
187 217 255
187 217 255
187 217 255
186 216 255
186 217 255
186 216 255
186 216 255
186 217 255
186 216 255
185 216 255
185 216 255
186 216 255
185 216 255
185 216 255
185 216 255
185 216 255
185 216 255
185 216 255
185 216 255
185 216 255
184 216 255
185 216 255
184 216 255
185 216 255
184 216 255
185 216 255
185 216 255
184 216 255
185 216 255
185 216 255
185 216 255
185 216 255
185 216 255
185 216 255
185 216 255
185 216 255
186 216 255
185 216 255
186 216 255
186 216 255
186 216 255
187 217 255
186 217 255
187 217 255
186 217 255
186 217 255
187 217 255
188 217 255
187 217 255
188 218 255
188 217 255
188 218 255
188 218 255
188 218 255
189 218 255
189 218 255
189 218 255
190 218 255
190 218 255
190 219 255
190 219 255
190 219 255
191 219 255
192 219 255
192 219 255
192 220 255
193 220 255
193 220 255
193 220 255
194 221 255
194 221 255
195 221 255
195 221 255
195 221 255
196 222 255
197 222 255
196 222 255
196 222 255
198 223 255
198 223 255
199 224 255
199 223 255
199 223 255
200 224 255
201 224 255
200 224 255
201 225 255
202 225 255
202 225 255
203 225 255
203 226 255
204 226 255
204 226 255
205 227 255
206 227 255
207 228 255
208 228 255
207 228 255
208 228 255
209 229 255
209 229 255
210 229 255
211 230 255
212 230 255
212 230 255
212 231 255
213 231 255
214 231 255
214 231 255
215 232 255
216 232 255
217 233 255
218 233 255
217 233 252
216 232 250
215 231 242
213 229 236
212 228 230
212 228 228
208 224 217
205 221 208
204 221 206
198 215 186
196 213 177
191 207 171
183 199 165
176 191 145
172 188 147
170 185 135
160 176 138
138 155 104
147 165 122
137 157 100
139 158 94
127 147 89
110 133 92
121 143 75
107 127 74
102 121 85
94 115 76
79 102 89
78 99 84
70 96 100
59 86 90
60 87 95
60 87 80
52 83 98
52 83 94
50 80 99
50 79 74
54 85 107
51 81 86
50 80 88
53 83 88
53 83 91
53 84 86
51 81 82
52 84 93
53 84 100
52 83 99
54 86 93
54 85 96
53 84 96
53 84 94
52 83 86
54 86 104
54 85 91
56 88 108
51 81 84
53 86 88
55 87 107
55 88 113
55 86 97
53 85 98
54 86 105
55 87 102
53 85 98
51 81 94
54 86 88
53 85 107
54 86 100
52 84 99
56 88 107
55 87 114
57 89 110
55 87 110
54 86 94
57 90 115
52 83 94
54 86 103
55 87 103
53 85 94
51 81 84
54 86 95
54 86 102
56 88 100
53 84 90
54 86 86
55 87 97
55 87 100
54 87 99
54 85 95
52 83 86
56 87 90
51 80 84
63 86 62
68 90 76
77 97 57
93 110 47
93 110 40
89 102 18
108 125 0
97 111 0
98 113 0
112 126 0
114 130 0
106 120 0
105 120 0
115 131 0
97 110 0
105 122 0
111 124 0
106 123 0
119 136 0
118 135 0
105 121 0
120 137 0
113 130 0
113 129 0
119 135 0
117 134 0
120 136 0
110 129 0
116 132 0
129 145 0
118 133 0
129 147 0
128 144 0
123 141 0
121 139 0
118 134 0
121 139 0
127 144 0
135 152 0
122 139 0
131 151 0
132 149 0
128 145 0
128 144 0
136 154 0
130 147 0
129 146 0
131 149 0
132 150 0
130 148 0
130 147 0
133 150 0
140 158 0
140 158 0
135 154 0
140 159 0
131 147 0
139 159 0
142 161 0
137 154 0
136 154 0
140 157 0
143 161 0
138 155 0
140 158 0
139 157 0
140 156 0
142 160 0
145 163 0
145 161 0
147 164 0
139 158 0
145 162 0
143 160 0
139 155 0
140 160 0
148 166 0
143 160 0
153 171 0
145 163 0
139 157 0
138 157 0
146 165 0
154 172 0
148 166 0
144 162 0
145 162 0
146 164 0
143 160 0
152 172 0
148 167 0
149 168 0
149 165 0
143 162 0
149 167 0
149 167 0
154 172 0
156 173 0
154 173 0
154 170 0
149 166 0
151 169 0
151 170 0
146 166 0
156 175 0
152 169 0
155 171 0
156 173 0
147 164 0
154 172 0
152 170 0
161 178 0
155 174 0
156 176 0
153 172 0
158 176 0
152 168 0
153 170 0
157 176 0
159 179 0
151 170 0
156 175 0
153 173 0
156 175 0
149 168 0
156 174 0
155 172 0
150 168 0
156 175 0
156 174 0
160 178 0
159 180 0
157 177 0
159 177 0
158 177 0
153 173 0
155 174 0
158 178 0
157 175 0
161 179 0
155 173 0
157 176 0
157 176 0
163 181 0
161 178 0
158 178 0
156 176 0
162 182 0
162 182 0
161 180 0
163 181 0
161 180 0
156 176 0
161 178 0
161 180 0
159 181 0
158 177 0
157 178 0
162 183 0
162 183 0
157 176 0
161 180 0
161 181 0
159 179 0
156 176 0
164 185 0
164 185 0
161 181 0
164 185 0
166 185 0
168 187 0
166 186 0
159 180 0
168 188 0
162 183 0
163 182 0
159 179 0
164 185 0
163 184 0
166 185 0
166 186 0
165 186 0
162 183 0
164 182 0
165 186 0
166 187 0
189 218 255
189 218 255
189 218 255
188 218 255
188 218 255
189 218 255
188 217 255
188 217 255
188 217 255
187 217 255
187 217 255
187 217 255
187 217 255
187 217 255
186 216 255
186 217 255
186 216 255
186 217 255
186 216 255
186 216 255
185 216 255
186 216 255
185 216 255
185 216 255
185 216 255
185 216 255
185 216 255
185 216 255
185 216 255
185 216 255
185 216 255
185 216 255
185 216 255
185 216 255
184 216 255
184 216 255
185 216 255
185 216 255
185 216 255
185 216 255
186 216 255
185 216 255
186 216 255
185 216 255
186 216 255
186 216 255
186 216 255
186 217 255
186 216 255
186 217 255
186 217 255
187 217 255
186 217 255
187 217 255
188 217 255
187 217 255
187 217 255
187 217 255
188 218 255
188 217 255
189 218 255
189 218 255
189 218 255
189 218 255
189 218 255
190 218 255
190 218 255
190 219 255
191 219 255
191 219 255
190 219 255
191 219 255
192 220 255
193 220 255
193 220 255
193 220 255
193 220 255
194 221 255
194 221 255
195 221 255
195 221 255
195 221 255
196 222 255
196 222 255
196 222 255
197 222 255
197 222 255
198 223 255
198 223 255
198 223 255
199 223 255
200 224 255
201 224 255
200 224 255
201 225 255
202 225 255
202 225 255
203 225 255
203 226 255
204 226 255
205 227 255
205 226 255
206 227 255
206 227 255
206 227 255
207 228 255
207 228 255
208 228 255
209 229 255
209 229 255
211 230 255
210 230 255
212 230 255
212 231 255
213 231 255
214 231 255
214 232 255
215 232 255
215 232 255
216 233 255
217 233 255
218 234 255
218 233 253
218 234 254
216 232 246
212 228 233
213 229 231
210 227 221
206 223 207
206 223 212
199 216 188
201 218 195
198 216 183
190 206 163
190 206 167
186 203 163
177 194 144
173 188 150
163 180 114
156 172 78
146 164 91
152 171 80
136 155 98
139 159 74
108 125 74
106 126 76
112 131 89
106 129 76
97 118 74
79 102 76
86 110 82
76 101 90
70 94 77
64 90 83
62 84 84
61 87 86
51 81 84
51 81 85
53 85 86
49 78 72
48 77 77
53 83 90
49 78 80
52 83 93
51 82 80
50 80 83
52 83 86
50 80 84
53 85 101
53 84 99
52 84 88
53 84 100
51 82 82
53 84 88
54 85 99
52 83 90
52 82 94
56 88 99
56 88 105
54 85 105
56 89 97
54 86 90
54 85 86
53 85 87
54 86 100
55 87 94
56 88 115
53 84 96
56 89 105
54 85 92
54 86 88
55 87 91
56 88 107
53 85 97
53 84 94
51 82 94
53 85 99
53 85 92
54 86 102
53 85 97
54 87 102
55 87 99
54 87 95
56 88 100
52 83 86
55 87 102
53 83 95
54 85 102
54 86 82
55 87 95
55 85 82
69 93 86
53 78 51
72 94 72
70 91 67
92 108 31
94 111 31
96 112 25
92 106 0
94 111 18
97 112 0
88 102 0
100 115 0
106 122 0
105 120 0
106 123 0
105 121 0
118 135 0
106 123 0
96 112 0
115 131 0
117 133 0
118 136 0
122 138 0
118 134 0
124 142 0
112 129 0
124 142 0
120 138 0
117 133 0
130 148 0
121 138 0
120 137 0
126 144 0
119 137 0
124 141 0
128 145 0
127 145 0
122 138 0
125 143 0
127 144 0
124 142 0
133 150 0
131 149 0
128 146 0
134 153 0
124 141 0
132 149 0
132 149 0
134 152 0
125 140 0
124 140 0
133 151 0
131 148 0
132 148 0
136 154 0
136 154 0
140 159 0
141 161 0
142 161 0
138 156 0
141 160 0
147 165 0
137 155 0
142 161 0
141 160 0
139 158 0
144 160 0
144 162 0
140 157 0
139 158 0
141 157 0
143 161 0
147 164 0
143 163 0
141 158 0
152 171 0
136 154 0
148 165 0
148 167 0
142 160 0
140 157 0
145 164 0
146 163 0
150 171 0
143 162 0
140 157 0
146 164 0
150 168 0
151 170 0
152 172 0
148 167 0
150 170 0
141 160 0
155 172 0
145 164 0
150 169 0
137 155 0
141 160 0
148 166 0
148 166 0
154 173 0
147 166 0
153 173 0
151 169 0
157 178 0
150 166 0
144 161 0
147 165 0
157 175 0
155 174 0
158 176 0
155 175 0
149 167 0
160 178 0
147 165 0
155 174 0
156 173 0
157 176 0
155 174 0
155 175 0
155 174 0
154 173 0
153 173 0
159 180 0
154 172 0
154 173 0
153 172 0
151 170 0
154 174 0
159 178 0
152 172 0
158 174 0
164 184 0
160 179 0
159 176 0
161 182 0
159 179 0
151 171 0
158 176 0
160 179 0
159 178 0
154 173 0
160 179 0
159 176 0
158 178 0
157 176 0
161 181 0
159 180 0
162 180 0
155 172 0
158 176 0
163 183 0
166 186 0
158 177 0
154 171 0
160 179 0
160 180 0
166 186 0
163 181 0
159 180 0
161 179 0
155 174 0
160 180 0
163 183 0
161 181 0
164 184 0
168 189 0
163 183 0
167 188 0
165 187 0
166 186 0
163 182 0
167 187 0
164 185 0
160 181 0
167 188 0
164 185 0
164 184 0
167 188 0
163 184 0
163 183 0
160 179 0
164 184 0
165 186 0
164 185 0
158 179 0
163 185 0
165 186 0
167 187 0
189 218 255
189 218 255
189 218 255
188 218 255
188 218 255
189 218 255
188 218 255
188 218 255
187 217 255
188 217 255
187 217 255
187 217 255
187 217 255
186 217 255
186 217 255
187 217 255
187 217 255
186 217 255
186 217 255
186 216 255
186 216 255
186 216 255
186 216 255
186 216 255
185 216 255
185 216 255
186 216 255
186 216 255
186 216 255
185 216 255
185 216 255
185 216 255
186 216 255
185 216 255
185 216 255
185 216 255
185 216 255
185 216 255
186 216 255
186 216 255
186 217 255
186 216 255
185 216 255
186 217 255
186 216 255
186 216 255
186 217 255
186 217 255
186 217 255
187 217 255
187 217 255
187 217 255
187 217 255
187 217 255
188 217 255
188 217 255
188 217 255
188 218 255
188 218 255
189 218 255
188 218 255
189 218 255
189 218 255
190 218 255
190 219 255
190 219 255
191 219 255
191 219 255
191 219 255
191 219 255
192 220 255
192 220 255
192 220 255
192 220 255
193 220 255
193 220 255
193 220 255
194 221 255
195 221 255
195 221 255
195 221 255
196 222 255
196 222 255
196 222 255
197 222 255
197 222 255
197 222 255
198 223 255
199 223 255
198 223 255
200 224 255
200 224 255
201 224 255
201 224 255
201 224 255
202 225 255
202 225 255
202 225 255
203 226 255
204 226 255
204 226 255
205 227 255
206 227 255
206 227 255
207 227 255
207 228 255
208 228 255
209 228 255
209 229 255
209 229 255
210 229 255
211 230 255
212 230 255
212 231 255
213 231 255
214 231 255
214 232 255
215 232 255
215 232 255
216 233 255
217 233 255
217 233 255
216 232 250
217 232 249
216 232 245
214 230 237
211 228 228
210 227 224
203 220 194
210 226 221
201 219 193
193 210 167
195 211 182
194 211 169
191 207 164
182 199 148
170 189 114
170 187 122
165 182 106
155 173 101
146 165 88
145 165 82
142 162 97
132 151 70
124 143 76
111 132 72
117 140 93
110 130 68
93 113 80
96 115 72
91 110 75
78 100 79
83 106 80
71 97 67
67 90 84
60 87 77
55 82 79
49 79 80
50 80 65
50 80 93
48 76 82
51 81 86
50 80 79
52 83 101
50 80 78
49 79 72
51 82 91
50 80 76
51 81 92
51 82 94
54 85 107
51 81 81
53 83 95
53 83 90
51 82 90
53 84 84
54 85 100
53 84 97
50 80 87
52 82 97
52 83 84
53 84 90
53 84 93
53 84 97
54 86 76
53 85 97
54 87 92
53 85 95
55 87 102
54 85 102
55 88 102
53 84 94
56 88 95
53 85 99
54 85 99
53 84 88
55 87 105
56 88 99
53 85 92
53 85 95
53 85 92
50 80 92
54 86 103
54 85 86
53 85 97
54 85 92
53 84 94
54 83 78
53 82 84
65 90 67
76 98 88
80 100 57
84 104 72
73 93 36
101 118 44
91 107 25
96 111 18
100 116 0
111 128 0
108 122 0
96 112 0
98 112 0
101 116 0
96 110 0
118 134 0
110 126 0
102 117 0
116 133 0
106 119 0
104 120 0
122 136 0
111 126 0
123 139 0
106 122 0
112 127 0
113 130 0
121 138 0
116 134 0
117 132 0
119 137 0
118 135 0
125 142 0
113 131 0
125 143 0
120 138 0
120 136 0
121 136 0
126 142 0
133 150 0
133 150 0
119 135 0
138 154 0
130 147 0
128 145 0
136 154 0
124 141 0
133 151 0
126 144 0
130 146 0
136 154 0
140 159 0
134 153 0
134 152 0
144 162 0
125 144 0
128 146 0
128 145 0
136 155 0
131 148 0
136 155 0
133 150 0
135 153 0
130 149 0
131 152 0
139 157 0
145 165 0
145 163 0
131 147 0
135 154 0
141 159 0
143 161 0
140 157 0
151 169 0
146 163 0
139 159 0
142 163 0
144 165 0
150 169 0
152 172 0
145 163 0
134 152 0
143 162 0
139 157 0
140 157 0
147 165 0
147 164 0
141 160 0
146 163 0
139 157 0
150 165 0
148 166 0
155 174 0
146 164 0
149 169 0
146 164 0
150 168 0
150 168 0
152 170 0
156 175 0
152 172 0
153 170 0
146 164 0
154 172 0
156 175 0
154 173 0
151 169 0
143 160 0
149 167 0
152 169 0
153 171 0
153 173 0
152 171 0
151 171 0
148 165 0
157 176 0
154 173 0
153 171 0
154 172 0
156 175 0
150 167 0
155 173 0
159 176 0
154 171 0
161 179 0
158 177 0
165 185 0
155 172 0
164 185 0
155 173 0
158 180 0
156 174 0
161 179 0
156 175 0
160 178 0
156 174 0
160 179 0
160 180 0
160 179 0
157 175 0
151 171 0
158 177 0
154 173 0
160 179 0
163 182 0
162 181 0
159 180 0
155 173 0
162 182 0
162 180 0
161 180 0
161 178 0
156 176 0
160 180 0
166 187 0
166 186 0
164 184 0
160 179 0
163 184 0
160 178 0
160 178 0
156 176 0
161 180 0
160 179 0
160 181 0
160 180 0
161 180 0
164 182 0
168 188 0
161 181 0
165 184 0
162 182 0
165 185 0
164 184 0
160 180 0
163 183 0
167 187 0
161 181 0
163 182 0
168 188 0
166 185 0
166 188 0
159 176 0
168 189 0
165 186 0
162 182 0
161 180 0
166 186 0
164 184 0
160 181 0
166 188 0
190 218 255
190 219 255
190 218 255
190 218 255
189 218 255
189 218 255
188 218 255
188 217 255
188 218 255
188 217 255
188 217 255
188 217 255
187 217 255
187 217 255
187 217 255
187 217 255
187 217 255
186 217 255
186 217 255
186 217 255
186 216 255
186 217 255
186 217 255
186 217 255
185 216 255
186 217 255
186 216 255
186 216 255
186 216 255
185 216 255
186 216 255
185 216 255
186 216 255
185 216 255
186 216 255
186 216 255
186 216 255
186 216 255
186 216 255
186 216 255
186 216 255
186 217 255
186 217 255
186 216 255
186 217 255
187 217 255
187 217 255
187 217 255
187 217 255
187 217 255
187 217 255
187 217 255
187 217 255
188 217 255
188 217 255
188 217 255
188 218 255
188 217 255
189 218 255
189 218 255
189 218 255
190 218 255
190 219 255
190 218 255
190 219 255
190 219 255
190 219 255
191 219 255
192 220 255
191 219 255
192 219 255
191 219 255
192 220 255
193 220 255
193 220 255
193 220 255
194 221 255
194 221 255
194 221 255
195 221 255
195 221 255
196 221 255
196 222 255
197 222 255
197 222 255
197 222 255
197 222 255
198 223 255
198 223 255
199 223 255
200 224 255
200 224 255
200 224 255
201 224 255
201 225 255
202 225 255
202 225 255
203 225 255
203 226 255
204 226 255
205 227 255
205 227 255
206 227 255
206 227 255
208 228 255
207 228 255
208 228 255
209 229 255
208 228 255
210 229 255
211 230 255
211 230 255
212 230 255
212 231 255
213 231 255
214 232 255
215 232 255
216 233 255
215 232 255
216 232 255
217 233 255
218 234 255
216 232 249
216 232 246
215 231 242
213 229 234
212 228 228
210 226 218
206 223 211
207 224 209
203 220 194
199 216 188
196 214 177
192 209 163
190 207 167
185 203 134
177 196 131
175 193 111
168 186 118
165 183 102
154 173 100
157 178 97
145 164 86
144 163 60
137 157 57
124 142 70
108 127 73
104 126 77
102 120 55
102 123 78
86 108 74
85 106 72
70 92 79
66 91 73
69 96 82
61 88 85
53 82 85
52 80 80
48 78 64
48 76 75
53 83 80
52 83 79
49 79 68
49 78 72
51 81 89
52 83 86
51 81 94
52 83 80
51 81 86
51 82 80
50 80 86
51 82 82
53 84 97
52 82 91
54 85 81
52 83 90
55 86 88
54 85 94
54 86 95
53 85 95
54 86 111
51 81 90
54 86 94
53 85 103
55 86 100
53 84 99
52 82 84
52 82 93
54 86 102
53 84 97
52 83 94
53 84 99
54 86 100
52 82 90
53 84 80
52 82 82
53 84 95
55 87 94
54 86 97
54 86 99
52 83 90
52 82 86
54 86 100
52 83 94
53 84 94
54 84 82
58 86 82
65 90 70
67 91 72
77 97 60
76 93 57
79 97 44
81 98 40
90 105 18
97 112 18
91 108 0
92 107 0
99 114 0
94 109 0
88 101 0
96 110 0
95 114 0
106 122 0
111 128 0
114 131 0
118 135 0
103 120 0
103 118 0
114 130 0
106 121 0
133 149 0
113 128 0
111 128 0
115 131 0
123 141 0
111 126 0
113 129 0
126 144 0
119 135 0
134 154 0
120 137 0
117 134 0
122 139 0
126 141 0
125 142 0
118 134 0
115 130 0
131 149 0
123 140 0
135 152 0
128 146 0
135 154 0
121 136 0
134 151 0
130 148 0
125 142 0
135 155 0
137 154 0
139 158 0
131 150 0
134 152 0
131 148 0
134 152 0
132 149 0
147 167 0
121 138 0
137 153 0
141 158 0
138 155 0
136 155 0
142 161 0
141 161 0
145 163 0
133 150 0
135 152 0
141 159 0
146 165 0
131 151 0
142 160 0
144 162 0
149 168 0
139 157 0
145 163 0
140 159 0
147 164 0
152 172 0
139 156 0
140 160 0
144 164 0
145 164 0
144 160 0
153 171 0
150 168 0
143 160 0
148 167 0
152 170 0
147 164 0
147 167 0
143 161 0
150 169 0
141 159 0
153 173 0
150 168 0
150 169 0
149 169 0
148 168 0
145 162 0
160 177 0
150 169 0
154 174 0
150 167 0
151 170 0
150 168 0
148 167 0
144 161 0
159 179 0
154 174 0
154 172 0
156 173 0
155 175 0
149 169 0
154 173 0
155 174 0
157 177 0
157 177 0
151 168 0
150 170 0
158 178 0
150 168 0
157 175 0
153 171 0
159 178 0
151 169 0
150 168 0
163 185 0
158 177 0
155 175 0
160 179 0
158 178 0
153 171 0
160 179 0
155 174 0
156 176 0
156 176 0
159 178 0
157 176 0
154 173 0
151 169 0
160 181 0
158 177 0
159 179 0
163 184 0
158 176 0
157 176 0
163 182 0
156 174 0
165 185 0
161 182 0
162 183 0
156 175 0
160 180 0
162 181 0
154 173 0
165 185 0
163 182 0
158 176 0
163 182 0
167 188 0
157 178 0
162 182 0
164 183 0
162 183 0
159 179 0
165 186 0
155 175 0
161 181 0
162 181 0
163 182 0
161 182 0
160 180 0
166 186 0
162 182 0
162 182 0
163 183 0
165 186 0
165 185 0
165 184 0
163 183 0
167 187 0
163 183 0
159 179 0
165 188 0
162 181 0
161 181 0
165 185 0
158 177 0
166 187 0
161 180 0
166 187 0
160 181 0
190 219 255
190 219 255
190 218 255
189 218 255
189 218 255
189 218 255
189 218 255
188 218 255
188 218 255
188 218 255
188 218 255
188 218 255
188 217 255
187 217 255
187 217 255
187 217 255
187 217 255
187 217 255
187 217 255
186 217 255
186 217 255
186 217 255
187 217 255
186 216 255
186 217 255
186 216 255
186 216 255
186 217 255
186 216 255
186 216 255
186 216 255
186 216 255
186 216 255
186 217 255
186 216 255
186 216 255
186 216 255
186 216 255
186 217 255
186 217 255
186 217 255
186 217 255
186 217 255
186 217 255
186 217 255
187 217 255
187 217 255
187 217 255
187 217 255
187 217 255
187 217 255
188 217 255
187 217 255
188 217 255
188 217 255
188 218 255
188 218 255
189 218 255
189 218 255
189 218 255
190 218 255
190 219 255
190 219 255
190 219 255
190 219 255
191 219 255
191 219 255
191 219 255
192 219 255
192 219 255
192 220 255
192 220 255
193 220 255
193 220 255
193 220 255
194 221 255
194 221 255
195 221 255
194 221 255
195 221 255
196 222 255
196 222 255
197 222 255
197 222 255
197 222 255
197 222 255
199 223 255
199 223 255
199 224 255
200 224 255
200 224 255
200 224 255
201 224 255
202 225 255
202 225 255
202 225 255
203 226 255
203 226 255
205 226 255
204 226 255
206 227 255
205 227 255
206 227 255
207 228 255
208 228 255
208 228 255
208 228 255
209 229 255
209 229 255
210 229 255
211 230 255
212 230 255
212 231 255
213 231 255
214 231 255
214 231 255
215 232 255
215 232 255
217 233 255
216 233 255
218 234 255
218 234 255
216 232 249
216 231 244
215 231 242
214 229 233
212 228 230
208 224 212
202 220 193
205 222 206
204 222 203
202 219 193
194 210 169
192 210 159
187 205 147
183 199 136
182 201 130
177 195 125
168 186 111
164 183 102
157 175 88
148 165 84
143 161 70
135 155 52
130 149 51
141 161 60
112 133 67
112 130 70
102 121 72
95 119 74
82 102 57
99 119 51
74 97 86
73 97 70
71 96 78
65 91 65
56 85 83
52 80 72
50 79 70
50 79 84
48 77 60
52 82 88
50 79 68
50 80 77
52 83 95
51 82 83
53 83 92
52 83 92
51 81 79
51 82 90
51 82 80
48 77 99
52 82 99
51 82 80
53 85 90
50 80 89
53 85 90
52 83 82
54 86 82
49 79 80
51 82 82
52 83 95
51 81 88
51 82 94
53 84 102
54 86 95
54 85 95
52 83 83
53 84 92
55 87 99
54 86 92
54 87 103
55 87 95
52 83 92
51 81 84
55 87 90
53 85 84
50 79 86
51 81 84
52 83 99
54 85 95
49 78 74
51 82 74
57 85 78
61 86 70
68 92 65
73 94 65
70 89 40
80 100 51
93 111 40
80 98 31
102 118 25
94 111 31
98 114 0
91 105 0
96 111 0
93 108 0
96 111 0
112 127 0
103 118 0
94 110 0
95 110 0
97 114 0
95 110 0
113 129 0
114 133 0
112 128 0
112 127 0
118 136 0
112 127 0
123 140 0
116 131 0
120 135 0
107 122 0
125 143 0
120 135 0
108 126 0
125 142 0
127 145 0
114 129 0
120 136 0
125 141 0
127 144 0
124 142 0
122 139 0
123 141 0
121 138 0
128 145 0
126 143 0
124 143 0
136 154 0
127 145 0
134 153 0
127 145 0
131 149 0
126 142 0
125 142 0
134 152 0
129 148 0
126 141 0
132 149 0
135 154 0
135 152 0
138 156 0
133 151 0
131 148 0
133 152 0
146 163 0
134 153 0
124 139 0
134 152 0
133 151 0
145 161 0
142 162 0
145 163 0
141 158 0
146 164 0
144 165 0
140 158 0
134 151 0
138 156 0
156 174 0
153 173 0
142 158 0
146 165 0
148 167 0
139 158 0
152 171 0
143 162 0
144 165 0
153 173 0
146 163 0
146 163 0
146 166 0
146 164 0
151 172 0
153 173 0
153 174 0
149 165 0
156 175 0
149 168 0
144 163 0
155 173 0
158 179 0
147 165 0
157 177 0
146 162 0
150 167 0
150 168 0
154 174 0
141 159 0
151 170 0
149 167 0
153 171 0
158 176 0
155 173 0
151 172 0
157 178 0
150 168 0
148 167 0
153 174 0
152 173 0
153 174 0
158 178 0
157 176 0
156 174 0
156 174 0
158 176 0
159 180 0
150 167 0
153 169 0
156 175 0
153 170 0
153 172 0
156 174 0
158 179 0
157 176 0
153 171 0
160 181 0
153 172 0
160 180 0
163 185 0
158 178 0
151 172 0
157 177 0
155 174 0
162 181 0
158 176 0
158 178 0
154 173 0
156 177 0
161 179 0
160 179 0
163 183 0
157 172 0
162 182 0
158 177 0
158 176 0
162 182 0
156 176 0
156 176 0
162 183 0
165 186 0
156 177 0
160 181 0
163 183 0
157 178 0
165 184 0
164 185 0
163 183 0
161 179 0
164 184 0
165 186 0
165 184 0
162 183 0
159 178 0
164 185 0
160 180 0
160 181 0
161 183 0
163 184 0
163 182 0
165 185 0
164 185 0
161 181 0
165 186 0
160 181 0
166 187 0
164 184 0
164 185 0
161 181 0
160 180 0
163 185 0
167 187 0
162 182 0
166 187 0
162 182 0
165 185 0
165 184 0
164 187 0
191 219 255
190 219 255
190 219 255
190 218 255
189 218 255
189 218 255
190 218 255
189 218 255
189 218 255
189 218 255
188 218 255
188 217 255
188 217 255
187 217 255
187 217 255
187 217 255
187 217 255
187 217 255
187 217 255
187 217 255
187 217 255
187 217 255
187 217 255
187 217 255
186 216 255
186 217 255
186 217 255
186 217 255
186 217 255
186 216 255
186 217 255
186 217 255
186 217 255
187 217 255
186 216 255
186 217 255
186 216 255
187 217 255
186 217 255
186 217 255
187 217 255
186 217 255
187 217 255
187 217 255
187 217 255
187 217 255
187 217 255
188 217 255
187 217 255
188 218 255
188 217 255
188 217 255
188 218 255
188 217 255
188 218 255
189 218 255
189 218 255
189 218 255
189 218 255
189 218 255
189 218 255
190 219 255
191 219 255
190 219 255
191 219 255
191 219 255
191 219 255
191 219 255
192 219 255
193 220 255
193 220 255
193 220 255
193 220 255
193 220 255
194 221 255
194 221 255
195 221 255
194 221 255
196 222 255
196 222 255
196 222 255
197 222 255
196 222 255
197 222 255
197 222 255
198 223 255
199 223 255
199 223 255
199 224 255
199 224 255
200 224 255
201 224 255
202 225 255
202 225 255
203 225 255
202 225 255
203 226 255
203 226 255
204 226 255
205 226 255
205 226 255
207 228 255
207 228 255
207 228 255
207 228 255
209 229 255
209 229 255
209 229 255
210 229 255
210 229 255
211 230 255
211 230 255
212 230 255
212 231 255
213 231 255
214 232 255
214 232 255
215 232 255
216 232 255
216 233 255
217 233 255
217 233 253
216 232 245
216 232 245
209 226 226
213 229 234
210 227 224
211 227 223
207 224 211
207 224 206
205 222 201
206 222 203
194 211 161
188 206 147
191 208 155
182 199 142
178 196 120
174 191 113
164 181 110
168 186 103
161 180 76
152 170 72
143 161 60
137 155 47
129 148 68
128 147 51
116 134 60
127 146 54
114 133 78
113 134 72
89 109 67
92 113 70
87 106 62
78 98 62
77 99 82
63 89 70
59 85 70
63 90 77
51 81 88
45 73 64
52 82 83
48 77 72
48 77 68
49 78 71
51 81 82
49 78 76
51 81 82
51 81 82
52 83 82
50 80 67
51 80 90
52 83 80
51 82 74
53 84 100
54 85 84
50 79 84
52 82 92
52 83 80
50 80 78
53 84 88
53 84 94
49 79 80
52 83 92
51 82 82
50 79 80
51 81 99
52 83 88
50 80 76
53 84 90
53 83 84
52 83 90
51 82 86
52 82 88
52 84 84
55 87 100
51 82 86
51 81 86
51 82 82
53 84 92
49 78 74
56 84 78
67 91 70
71 92 67
77 98 57
73 92 47
79 97 40
77 96 47
85 101 31
99 114 25
88 103 0
90 105 18
78 90 0
110 125 0
90 105 0
110 125 0
97 111 0
103 117 0
109 125 0
116 131 0
101 115 0
105 119 0
98 113 0
98 114 0
111 128 0
115 131 0
105 121 0
108 123 0
106 122 0
106 122 0
111 127 0
111 128 0
116 131 0
109 126 0
119 136 0
105 122 0
117 134 0
127 144 0
118 136 0
119 136 0
119 135 0
127 146 0
123 140 0
117 135 0
117 135 0
124 141 0
133 152 0
126 142 0
124 141 0
133 151 0
134 151 0
122 140 0
130 147 0
126 144 0
131 149 0
129 148 0
121 140 0
136 156 0
124 142 0
132 151 0
133 151 0
136 154 0
133 149 0
137 154 0
142 161 0
133 153 0
142 162 0
134 153 0
148 168 0
140 158 0
140 159 0
135 153 0
135 155 0
138 155 0
137 158 0
131 151 0
144 162 0
142 162 0
130 146 0
134 153 0
142 161 0
143 161 0
146 165 0
140 159 0
149 170 0
141 161 0
148 166 0
141 163 0
150 169 0
143 163 0
146 164 0
145 163 0
150 169 0
152 171 0
143 162 0
155 174 0
151 171 0
137 157 0
152 172 0
148 167 0
150 169 0
148 168 0
148 165 0
147 166 0
148 167 0
153 173 0
146 165 0
157 176 0
146 165 0
150 171 0
151 171 0
152 171 0
148 166 0
155 176 0
155 175 0
153 172 0
147 165 0
149 167 0
156 175 0
158 178 0
149 168 0
151 170 0
155 175 0
153 172 0
154 173 0
157 175 0
151 172 0
157 175 0
154 173 0
153 171 0
154 173 0
156 174 0
160 180 0
150 168 0
154 173 0
154 172 0
159 177 0
161 181 0
157 175 0
154 171 0
159 179 0
157 177 0
159 179 0
163 182 0
160 180 0
166 186 0
156 177 0
157 176 0
159 179 0
158 177 0
158 176 0
157 178 0
157 177 0
162 181 0
164 185 0
162 183 0
162 183 0
155 175 0
160 180 0
161 180 0
163 184 0
154 173 0
164 185 0
158 178 0
160 180 0
157 177 0
161 181 0
163 183 0
163 182 0
165 184 0
164 185 0
164 184 0
163 181 0
161 180 0
164 183 0
164 184 0
164 184 0
165 184 0
163 184 0
165 186 0
163 183 0
164 184 0
166 187 0
162 181 0
158 178 0
161 182 0
163 184 0
164 184 0
167 188 0
163 184 0
163 183 0
164 184 0
162 183 0
168 189 0
162 184 0
166 187 0
163 185 0
162 183 0
165 186 0
162 182 0
161 183 0
191 219 255
190 219 255
190 219 255
189 218 255
190 218 255
189 218 255
189 218 255
189 218 255
189 218 255
188 218 255
188 218 255
188 217 255
188 218 255
188 217 255
188 217 255
188 217 255
188 217 255
187 217 255
187 217 255
187 217 255
187 217 255
187 217 255
187 217 255
187 217 255
187 217 255
187 217 255
187 217 255
187 217 255
187 217 255
187 217 255
187 217 255
187 217 255
186 217 255
186 217 255
186 217 255
187 217 255
187 217 255
187 217 255
187 217 255
187 217 255
186 217 255
187 217 255
187 217 255
187 217 255
187 217 255
187 217 255
188 217 255
187 217 255
188 217 255
188 217 255
188 218 255
189 218 255
189 218 255
189 218 255
189 218 255
189 218 255
189 218 255
189 218 255
190 218 255
190 219 255
190 218 255
190 219 255
190 219 255
190 219 255
191 219 255
191 219 255
192 219 255
192 220 255
192 220 255
192 220 255
193 220 255
193 220 255
193 220 255
194 221 255
194 221 255
195 221 255
194 221 255
195 221 255
196 222 255
196 222 255
197 222 255
197 222 255
197 222 255
198 223 255
198 223 255
198 223 255
199 223 255
199 223 255
199 223 255
200 224 255
201 224 255
201 224 255
203 225 255
202 225 255
202 225 255
203 225 255
203 226 255
203 226 255
205 226 255
204 226 255
206 227 255
207 227 255
207 227 255
207 228 255
208 228 255
209 229 255
209 229 255
210 229 255
210 229 255
210 229 255
211 230 255
212 230 255
213 231 255
214 231 255
213 231 255
215 232 255
215 232 255
216 233 255
216 233 255
217 233 255
218 234 255
218 234 255
217 232 249
215 231 245
213 229 234
214 230 236
210 226 223
206 223 207
208 225 221
206 223 209
204 221 199
201 218 186
193 211 159
195 213 161
187 204 147
182 200 130
180 199 121
169 187 97
170 189 103
170 188 102
158 176 65
146 166 72
147 165 51
145 164 49
127 144 57
120 139 70
123 142 60
108 129 65
124 144 62
103 123 78
90 109 51
104 124 70
79 101 57
74 95 78
69 91 78
74 98 67
61 85 76
55 82 78
54 83 74
49 77 79
50 80 73
50 80 71
45 73 67
52 82 75
53 83 88
50 80 72
48 76 77
51 81 88
51 81 78
48 77 80
52 82 86
50 79 78
50 80 70
49 79 68
52 83 82
51 81 88
50 80 70
51 81 100
50 81 66
53 84 92
52 83 84
50 80 74
51 82 88
51 81 90
52 82 67
53 84 94
53 85 105
51 82 70
52 83 84
51 81 95
53 84 86
50 80 95
50 79 82
53 84 90
52 83 90
49 78 84
55 82 78
62 88 74
61 86 65
69 91 70
69 91 65
68 89 60
79 97 47
81 96 36
95 111 25
92 107 25
76 92 0
93 109 18
104 118 0
93 109 0
94 108 0
88 104 0
85 99 0
88 104 0
96 111 0
95 109 0
113 128 0
114 130 0
108 125 0
107 124 0
118 135 0
99 114 0
105 120 0
100 116 0
104 119 0
109 126 0
126 142 0
114 131 0
103 118 0
109 127 0
114 133 0
112 129 0
121 137 0
116 135 0
119 135 0
107 125 0
113 129 0
113 132 0
111 128 0
119 136 0
121 138 0
124 141 0
122 140 0
115 133 0
120 137 0
103 121 0
139 159 0
126 145 0
128 145 0
121 137 0
123 140 0
123 141 0
127 145 0
129 146 0
129 147 0
134 152 0
138 155 0
134 153 0
130 149 0
131 151 0
135 152 0
137 155 0
135 153 0
142 160 0
141 161 0
141 159 0
143 162 0
127 145 0
137 155 0
137 155 0
133 152 0
135 154 0
135 154 0
138 157 0
142 161 0
138 160 0
143 163 0
142 161 0
142 161 0
138 156 0
145 163 0
139 157 0
147 166 0
138 155 0
147 165 0
151 170 0
143 161 0
150 167 0
142 160 0
153 172 0
147 166 0
148 167 0
146 164 0
147 166 0
153 172 0
146 165 0
142 162 0
150 167 0
148 167 0
145 163 0
146 167 0
138 157 0
145 162 0
144 164 0
156 175 0
154 173 0
154 172 0
150 168 0
151 171 0
152 171 0
150 169 0
164 183 0
148 168 0
143 162 0
151 170 0
148 167 0
154 175 0
146 164 0
145 162 0
153 172 0
153 172 0
151 169 0
156 176 0
155 175 0
155 174 0
157 177 0
152 171 0
162 183 0
160 179 0
155 174 0
151 169 0
152 172 0
160 180 0
160 181 0
160 180 0
164 185 0
160 178 0
156 174 0
150 168 0
148 165 0
151 169 0
159 180 0
157 178 0
162 182 0
154 173 0
160 182 0
160 180 0
155 176 0
161 180 0
160 181 0
158 178 0
157 178 0
157 177 0
156 175 0
154 175 0
161 182 0
158 176 0
166 186 0
162 181 0
158 178 0
160 180 0
161 181 0
158 179 0
159 179 0
158 176 0
164 183 0
156 176 0
167 188 0
157 176 0
168 188 0
157 176 0
164 183 0
160 181 0
166 187 0
166 186 0
166 187 0
160 181 0
168 189 0
156 177 0
162 181 0
162 183 0
162 181 0
161 181 0
165 185 0
164 184 0
165 186 0
164 186 0
164 183 0
164 185 0
166 186 0
163 183 0
165 187 0
162 183 0
166 186 0
169 191 0
169 190 0
166 186 0
170 192 0
167 189 0
166 188 0
190 219 255
191 219 255
191 219 255
191 219 255
190 218 255
190 218 255
189 218 255
190 218 255
189 218 255
189 218 255
189 218 255
189 218 255
189 218 255
188 218 255
188 218 255
188 218 255
188 218 255
188 217 255
187 217 255
187 217 255
187 217 255
188 217 255
187 217 255
187 217 255
187 217 255
187 217 255
187 217 255
187 217 255
187 217 255
187 217 255
187 217 255
187 217 255
187 217 255
187 217 255
187 217 255
187 217 255
187 217 255
187 217 255
187 217 255
187 217 255
187 217 255
187 217 255
188 218 255
187 217 255
188 217 255
188 217 255
188 218 255
188 218 255
188 217 255
189 218 255
188 218 255
189 218 255
188 218 255
190 218 255
189 218 255
189 218 255
190 218 255
190 218 255
190 219 255
190 219 255
191 219 255
190 219 255
191 219 255
191 219 255
191 219 255
192 220 255
192 219 255
192 220 255
192 220 255
193 220 255
193 220 255
193 220 255
194 220 255
194 221 255
194 221 255
195 221 255
195 221 255
196 222 255
196 222 255
196 222 255
197 222 255
197 222 255
197 222 255
198 223 255
198 223 255
199 223 255
199 223 255
199 223 255
200 224 255
200 224 255
201 224 255
202 225 255
201 225 255
203 225 255
203 225 255
203 226 255
203 226 255
204 226 255
205 226 255
206 227 255
206 227 255
206 227 255
207 228 255
208 228 255
208 228 255
208 228 255
209 229 255
210 229 255
210 229 255
211 230 255
212 230 255
211 230 255
212 230 255
214 231 255
214 231 255
215 232 255
215 232 255
217 233 255
217 233 255
218 233 255
218 234 254
216 232 249
218 234 254
215 231 244
212 229 231
205 222 207
208 225 215
208 225 214
206 223 207
200 217 186
195 214 161
197 214 171
189 208 157
194 211 171
193 211 159
184 201 137
170 188 92
170 186 102
170 187 107
162 180 84
165 183 76
157 177 60
150 170 47
138 154 47
135 153 47
124 142 60
121 140 70
119 138 62
116 134 54
117 135 62
93 110 57
113 132 62
93 110 57
103 120 51
84 104 70
78 100 51
69 93 68
53 81 73
51 79 82
49 78 67
52 83 86
49 79 74
50 79 73
46 74 62
47 75 79
49 79 76
50 80 84
51 82 76
48 77 74
50 80 76
52 83 83
53 84 90
50 80 88
51 82 86
52 83 94
50 79 72
51 81 78
49 78 84
52 83 90
51 81 84
53 83 88
50 80 82
49 78 81
49 78 72
48 77 67
51 81 78
50 80 72
52 84 92
51 82 86
52 82 90
54 85 92
57 83 72
51 79 76
63 89 76
57 84 86
63 86 60
64 86 57
75 96 60
64 83 44
83 101 57
84 101 40
69 85 31
76 93 18
78 92 25
88 103 0
92 108 0
96 112 0
100 115 0
87 102 0
111 127 0
101 117 0
86 101 0
99 113 0
98 114 0
102 118 0
109 123 0
96 110 0
111 125 0
107 124 0
91 108 0
96 112 0
105 122 0
98 116 0
116 133 0
111 129 0
103 120 0
113 129 0
119 135 0
108 126 0
110 127 0
127 144 0
120 138 0
123 140 0
121 139 0
120 138 0
115 132 0
115 131 0
122 140 0
116 131 0
121 139 0
126 145 0
116 134 0
123 140 0
133 150 0
124 142 0
137 156 0
112 129 0
131 149 0
134 153 0
131 151 0
127 146 0
124 142 0
132 151 0
123 142 0
128 146 0
126 144 0
135 156 0
123 141 0
136 153 0
123 142 0
134 153 0
142 161 0
137 157 0
136 155 0
133 151 0
146 166 0
141 160 0
142 161 0
140 158 0
136 154 0
139 159 0
140 160 0
132 152 0
142 162 0
131 150 0
136 155 0
141 160 0
139 157 0
138 155 0
144 162 0
135 154 0
146 165 0
132 151 0
139 159 0
150 169 0
150 171 0
143 161 0
141 160 0
143 163 0
140 158 0
144 163 0
150 168 0
147 165 0
149 169 0
145 165 0
148 166 0
149 168 0
151 170 0
158 180 0
155 175 0
143 160 0
148 166 0
151 171 0
141 159 0
155 175 0
153 172 0
143 162 0
155 173 0
157 177 0
149 169 0
151 172 0
157 177 0
149 167 0
156 175 0
153 174 0
158 178 0
155 175 0
152 172 0
158 178 0
156 176 0
164 184 0
156 177 0
158 177 0
157 175 0
155 172 0
154 173 0
157 176 0
154 172 0
160 180 0
148 167 0
154 174 0
158 179 0
155 175 0
159 179 0
159 181 0
154 173 0
157 179 0
157 177 0
153 174 0
159 180 0
160 181 0
150 169 0
160 178 0
157 175 0
158 176 0
154 173 0
165 184 0
151 169 0
158 179 0
156 177 0
158 175 0
166 187 0
157 178 0
156 174 0
155 174 0
164 183 0
160 179 0
163 183 0
161 181 0
163 183 0
165 185 0
164 185 0
159 180 0
163 185 0
160 179 0
159 178 0
158 177 0
165 185 0
164 183 0
152 170 0
164 185 0
163 184 0
162 181 0
164 184 0
165 185 0
159 177 0
158 179 0
165 185 0
170 192 0
165 186 0
167 187 0
162 183 0
163 182 0
164 186 0
158 179 0
166 187 0
163 185 0
169 190 0
163 184 0
164 183 0
164 185 0
167 187 0
164 185 0
168 188 0
166 188 0
159 179 0
163 185 0
164 185 0
164 183 0
168 190 0
191 219 255
192 219 255
191 219 255
191 219 255
191 219 255
190 219 255
190 218 255
189 218 255
189 218 255
189 218 255
189 218 255
189 218 255
189 218 255
188 218 255
189 218 255
189 218 255
188 218 255
188 217 255
188 217 255
188 217 255
188 217 255
188 217 255
188 217 255
187 217 255
188 217 255
187 217 255
187 217 255
187 217 255
187 217 255
188 217 255
187 217 255
187 217 255
187 217 255
188 217 255
187 217 255
187 217 255
187 217 255
187 217 255
187 217 255
187 217 255
187 217 255
187 217 255
188 217 255
188 218 255
188 218 255
188 218 255
189 218 255
188 218 255
189 218 255
188 218 255
189 218 255
189 218 255
189 218 255
189 218 255
189 218 255
190 219 255
191 219 255
190 219 255
190 219 255
191 219 255
191 219 255
191 219 255
191 219 255
192 219 255
192 219 255
192 220 255
192 220 255
192 220 255
192 220 255
192 220 255
194 221 255
194 221 255
194 221 255
194 221 255
194 221 255
195 221 255
196 221 255
196 222 255
196 222 255
197 222 255
197 222 255
198 223 255
198 223 255
199 223 255
199 223 255
199 223 255
199 224 255
199 224 255
200 224 255
200 224 255
201 224 255
202 225 255
202 225 255
203 226 255
202 225 255
203 226 255
204 226 255
205 226 255
206 227 255
206 227 255
206 227 255
207 228 255
207 228 255
208 228 255
208 228 255
209 229 255
210 229 255
210 229 255
211 230 255
211 230 255
212 230 255
212 231 255
213 231 255
214 231 255
214 231 255
215 232 255
216 232 255
216 233 255
217 233 255
218 234 255
217 233 253
216 232 246
215 231 241
213 229 237
214 230 238
209 225 218
210 226 221
206 223 206
203 220 198
202 220 194
194 212 165
196 215 167
195 213 173
194 212 159
188 206 142
184 202 125
182 198 135
178 195 105
176 195 103
170 189 84
159 177 82
149 165 60
149 168 44
147 165 44
141 161 67
133 150 65
129 147 51
118 136 51
118 135 40
116 136 60
124 141 40
104 122 47
104 121 47
91 109 51
86 102 40
79 98 44
67 87 44
63 85 54
59 81 54
55 80 67
47 75 65
51 78 54
47 76 70
45 72 54
47 76 60
49 79 74
48 78 67
48 76 65
47 75 74
48 76 65
48 76 70
48 77 67
48 77 80
46 73 67
48 77 76
50 80 70
48 77 62
49 79 72
47 76 67
48 77 67
51 81 76
48 77 74
51 78 80
51 80 86
52 81 60
51 79 76
48 77 74
53 80 67
60 87 97
72 95 70
49 76 76
57 78 60
63 85 51
57 81 62
54 75 40
74 91 25
76 94 36
87 103 54
83 98 31
82 97 36
87 101 18
85 98 25
100 116 0
94 109 0
105 119 0
95 108 0
94 110 0
83 99 0
92 107 0
109 124 0
92 109 0
96 112 0
109 124 0
97 113 0
109 125 0
105 122 0
113 131 0
107 122 0
111 127 0
114 130 0
106 122 0
103 119 0
108 125 0
108 125 0
108 124 0
118 135 0
114 130 0
111 128 0
120 139 0
115 131 0
116 133 0
116 133 0
109 127 0
115 132 0
134 152 0
115 134 0
131 150 0
124 143 0
119 137 0
123 139 0
121 137 0
130 149 0
118 134 0
120 138 0
130 149 0
133 151 0
128 146 0
128 146 0
125 144 0
124 143 0
122 140 0
134 153 0
135 153 0
133 151 0
137 154 0
129 147 0
130 150 0
133 150 0
129 147 0
132 152 0
140 159 0
136 155 0
136 156 0
141 159 0
139 156 0
137 157 0
137 158 0
133 152 0
124 143 0
145 163 0
132 152 0
136 155 0
141 160 0
138 157 0
141 162 0
132 152 0
142 162 0
145 165 0
141 159 0
148 168 0
140 162 0
143 162 0
142 162 0
148 167 0
146 163 0
145 164 0
146 164 0
145 163 0
147 166 0
148 168 0
147 167 0
144 162 0
151 171 0
142 161 0
148 166 0
151 169 0
153 173 0
153 171 0
148 167 0
149 171 0
151 170 0
149 169 0
156 176 0
144 160 0
154 173 0
156 177 0
144 163 0
149 168 0
148 169 0
148 165 0
146 163 0
151 170 0
156 177 0
155 175 0
153 173 0
149 169 0
150 167 0
151 169 0
147 166 0
155 173 0
156 174 0
154 173 0
158 179 0
154 172 0
150 171 0
156 176 0
153 173 0
159 177 0
156 175 0
161 181 0
159 178 0
165 185 0
159 178 0
161 180 0
154 173 0
157 176 0
157 177 0
149 167 0
152 171 0
153 173 0
154 173 0
158 177 0
158 179 0
153 172 0
165 186 0
162 183 0
156 176 0
155 174 0
160 180 0
160 180 0
158 176 0
160 180 0
162 183 0
158 179 0
161 182 0
157 177 0
157 178 0
159 180 0
165 185 0
161 182 0
160 180 0
157 177 0
160 179 0
164 184 0
160 180 0
161 178 0
159 180 0
161 179 0
158 176 0
160 179 0
161 182 0
162 182 0
164 184 0
159 179 0
162 185 0
161 180 0
162 182 0
165 186 0
166 186 0
163 184 0
165 185 0
166 188 0
163 183 0
161 182 0
164 186 0
160 181 0
159 180 0
159 180 0
163 184 0
167 188 0
163 184 0
168 190 0
164 186 0
164 185 0
166 186 0
167 190 0
164 184 0
167 190 0
170 190 0
165 185 0
192 219 255
191 219 255
191 219 255
191 219 255
191 219 255
190 219 255
190 219 255
190 219 255
189 218 255
190 219 255
189 218 255
189 218 255
189 218 255
189 218 255
189 218 255
189 218 255
189 218 255
188 218 255
189 218 255
188 217 255
188 218 255
188 218 255
188 218 255
188 217 255
188 217 255
188 217 255
187 217 255
188 217 255
188 217 255
187 217 255
187 217 255
188 218 255
187 217 255
188 217 255
188 217 255
188 217 255
188 217 255
188 218 255
188 217 255
188 218 255
188 217 255
188 218 255
188 218 255
188 217 255
188 218 255
190 218 255
189 218 255
189 218 255
189 218 255
189 218 255
189 218 255
189 218 255
190 218 255
189 218 255
190 219 255
190 218 255
190 219 255
191 219 255
191 219 255
191 219 255
191 219 255
191 219 255
192 220 255
192 220 255
192 220 255
192 220 255
193 220 255
193 220 255
193 220 255
193 220 255
194 221 255
194 221 255
195 221 255
195 221 255
196 221 255
196 222 255
196 222 255
196 222 255
197 222 255
197 222 255
197 222 255
198 223 255
199 223 255
198 223 255
199 223 255
199 223 255
199 223 255
200 224 255
201 224 255
202 225 255
202 225 255
202 225 255
203 225 255
203 225 255
203 226 255
204 226 255
204 226 255
205 226 255
205 227 255
206 227 255
207 227 255
207 228 255
208 228 255
208 228 255
209 229 255
209 229 255
210 229 255
211 230 255
211 230 255
212 230 255
211 230 255
212 231 255
213 231 255
215 232 255
215 232 255
215 232 255
216 233 255
216 233 255
217 233 255
218 234 255
215 231 246
216 233 252
216 231 242
214 230 240
210 226 224
209 225 217
210 227 223
208 224 212
204 221 194
201 218 189
202 220 189
199 217 186
190 209 147
192 209 163
184 201 135
184 203 135
183 201 137
177 195 99
171 189 80
163 182 72
164 183 51
154 171 54
153 173 25
153 173 40
140 160 47
136 156 49
127 144 57
114 134 67
113 132 57
120 138 54
115 134 54
109 127 40
99 116 49
94 112 40
95 114 60
86 102 18
88 107 31
81 99 31
77 97 51
68 86 44
68 86 47
54 74 36
61 84 47
63 86 51
64 86 44
57 78 65
61 84 70
59 82 44
54 79 65
50 75 44
53 79 51
50 75 57
55 82 62
57 83 72
50 77 54
55 80 60
45 72 72
50 76 76
52 79 44
58 82 62
54 80 65
53 79 70
58 83 74
63 84 47
61 84 72
57 78 54
77 97 51
74 93 40
66 85 54
71 91 44
62 82 51
72 91 44
67 85 36
85 100 25
83 99 44
84 99 31
80 94 0
92 107 25
79 94 0
87 101 0
91 106 0
96 111 0
99 114 0
93 107 0
86 101 0
91 105 0
86 102 0
108 124 0
98 113 0
87 103 0
95 112 0
102 118 0
99 115 0
109 125 0
122 139 0
94 112 0
104 119 0
89 106 0
114 130 0
105 122 0
112 128 0
119 134 0
116 131 0
101 117 0
123 140 0
112 130 0
117 136 0
123 140 0
115 132 0
117 136 0
112 130 0
108 123 0
122 140 0
114 131 0
117 137 0
120 138 0
126 143 0
116 135 0
123 141 0
113 130 0
121 138 0
117 137 0
129 147 0
127 144 0
130 149 0
115 132 0
130 148 0
134 152 0
129 147 0
127 146 0
125 145 0
122 141 0
129 147 0
134 151 0
138 155 0
126 145 0
142 162 0
128 147 0
129 147 0
133 150 0
127 147 0
132 152 0
137 157 0
138 156 0
131 150 0
134 154 0
131 149 0
142 162 0
142 162 0
142 162 0
139 159 0
143 162 0
139 158 0
143 161 0
140 159 0
142 160 0
146 167 0
146 165 0
141 160 0
149 167 0
141 161 0
147 164 0
146 166 0
145 163 0
146 165 0
137 157 0
148 166 0
152 171 0
152 172 0
156 176 0
151 171 0
151 171 0
148 168 0
146 166 0
144 164 0
143 163 0
154 174 0
144 163 0
155 174 0
151 170 0
156 177 0
153 173 0
146 164 0
151 170 0
143 163 0
150 170 0
146 164 0
154 173 0
153 174 0
149 168 0
156 174 0
157 174 0
153 172 0
146 164 0
154 173 0
151 170 0
154 175 0
157 177 0
154 175 0
156 175 0
153 171 0
157 177 0
152 172 0
158 177 0
156 177 0
157 178 0
152 172 0
157 177 0
157 176 0
154 175 0
155 175 0
163 184 0
160 179 0
160 179 0
159 179 0
155 177 0
158 179 0
156 177 0
163 182 0
160 180 0
159 178 0
158 178 0
154 172 0
159 180 0
154 173 0
156 176 0
160 176 0
162 182 0
160 183 0
159 178 0
160 180 0
159 176 0
166 187 0
167 188 0
157 176 0
158 176 0
161 182 0
164 184 0
159 179 0
160 181 0
162 182 0
162 182 0
162 182 0
157 177 0
154 174 0
167 187 0
160 182 0
158 179 0
164 185 0
162 180 0
159 177 0
154 175 0
162 182 0
162 182 0
159 180 0
162 181 0
164 184 0
158 178 0
161 180 0
164 185 0
165 184 0
165 185 0
162 181 0
164 185 0
163 183 0
164 185 0
164 185 0
165 187 0
162 182 0
168 189 0
163 183 0
167 188 0
164 185 0
162 181 0
163 183 0
162 183 0
164 186 0
160 183 0
165 186 0
166 186 0
192 219 255
191 219 255
191 219 255
191 219 255
191 219 255
191 219 255
190 219 255
190 219 255
190 219 255
190 219 255
190 219 255
189 218 255
190 218 255
189 218 255
189 218 255
190 218 255
189 218 255
189 218 255
189 218 255
189 218 255
189 218 255
188 218 255
188 218 255
188 218 255
188 218 255
188 218 255
188 218 255
188 218 255
188 217 255
188 218 255
188 218 255
188 218 255
188 217 255
188 217 255
188 218 255
188 218 255
189 218 255
188 218 255
189 218 255
188 218 255
188 218 255
188 218 255
188 218 255
189 218 255
189 218 255
189 218 255
188 218 255
189 218 255
189 218 255
189 218 255
190 218 255
190 219 255
189 218 255
190 219 255
190 219 255
191 219 255
190 219 255
191 219 255
191 219 255
192 219 255
192 219 255
192 220 255
192 220 255
192 220 255
193 220 255
193 220 255
193 220 255
194 220 255
194 220 255
194 221 255
194 221 255
195 221 255
194 221 255
195 221 255
196 222 255
196 222 255
196 222 255
197 222 255
196 222 255
198 223 255
197 222 255
198 223 255
198 223 255
200 224 255
200 224 255
200 224 255
200 224 255
201 224 255
201 224 255
201 225 255
202 225 255
202 225 255
203 226 255
203 226 255
204 226 255
204 226 255
205 226 255
206 227 255
206 227 255
206 227 255
207 227 255
207 228 255
208 228 255
208 228 255
210 229 255
209 229 255
210 229 255
211 230 255
211 230 255
212 230 255
212 230 255
214 231 255
214 231 255
214 232 255
215 232 255
215 232 255
216 233 255
216 233 255
217 233 255
218 234 254
218 233 253
218 233 252
216 232 244
213 230 237
212 228 231
212 227 228
205 223 207
205 222 204
204 221 199
204 221 196
200 218 188
193 212 161
184 203 130
189 208 153
178 196 105
187 207 140
184 202 128
174 193 102
173 193 105
168 187 76
156 174 57
154 175 47
153 173 31
144 161 44
133 153 31
133 152 44
135 154 44
125 144 51
113 131 54
114 130 52
108 127 25
114 131 54
106 122 31
106 121 36
101 118 31
105 120 25
84 101 18
81 98 31
93 109 18
76 91 25
79 93 18
77 92 18
75 92 36
70 89 36
71 89 40
56 73 18
68 87 51
73 91 47
70 88 44
69 87 44
67 86 57
56 77 57
60 81 57
72 89 25
58 81 51
62 82 51
67 86 54
75 93 47
75 94 60
52 73 51
58 78 36
66 84 40
60 80 47
65 83 47
78 95 44
62 80 54
68 85 40
74 91 36
70 87 25
71 87 25
81 97 18
81 95 36
91 106 0
78 92 18
71 86 18
98 114 0
97 112 0
79 95 0
95 110 0
82 96 0
97 113 0
101 117 0
98 113 0
110 125 0
98 114 0
105 121 0
89 106 0
104 121 0
108 123 0
102 115 0
101 118 0
107 123 0
112 127 0
94 110 0
102 117 0
111 128 0
116 132 0
105 122 0
104 120 0
98 113 0
97 114 0
110 127 0
115 132 0
110 128 0
115 131 0
101 117 0
111 129 0
108 125 0
124 141 0
114 130 0
126 143 0
113 132 0
117 134 0
122 139 0
128 146 0
124 141 0
126 146 0
129 147 0
125 141 0
120 138 0
123 140 0
120 138 0
119 135 0
119 136 0
137 155 0
121 140 0
127 145 0
129 147 0
122 139 0
125 144 0
129 147 0
138 158 0
123 142 0
138 155 0
128 147 0
140 158 0
142 161 0
143 161 0
142 160 0
137 155 0
138 156 0
146 164 0
139 158 0
131 150 0
141 160 0
137 155 0
143 163 0
136 154 0
145 164 0
137 156 0
145 165 0
138 157 0
140 159 0
131 150 0
139 158 0
150 171 0
146 166 0
145 165 0
142 163 0
144 165 0
146 164 0
145 166 0
143 162 0
147 164 0
143 162 0
138 159 0
153 173 0
150 169 0
150 171 0
144 164 0
149 168 0
152 172 0
140 158 0
152 173 0
150 170 0
150 169 0
147 167 0
151 173 0
142 162 0
143 163 0
162 182 0
147 168 0
152 175 0
153 173 0
159 180 0
156 177 0
154 173 0
154 174 0
153 173 0
149 167 0
157 176 0
154 175 0
150 170 0
144 165 0
155 177 0
156 176 0
156 176 0
149 169 0
154 173 0
147 165 0
158 178 0
157 175 0
153 173 0
152 171 0
157 176 0
156 177 0
157 177 0
155 174 0
154 174 0
156 176 0
153 171 0
154 176 0
150 169 0
162 182 0
157 176 0
156 177 0
160 180 0
159 179 0
154 173 0
155 176 0
154 175 0
156 176 0
163 182 0
161 182 0
153 174 0
160 180 0
158 177 0
159 179 0
163 183 0
158 179 0
159 180 0
160 179 0
159 181 0
160 180 0
159 181 0
158 178 0
163 184 0
160 181 0
159 179 0
159 179 0
161 180 0
160 180 0
162 182 0
167 187 0
167 188 0
163 183 0
158 178 0
163 183 0
159 180 0
164 184 0
159 180 0
166 187 0
164 186 0
159 178 0
165 186 0
165 186 0
169 191 0
163 185 0
164 185 0
159 180 0
163 184 0
161 184 0
167 188 0
162 182 0
164 186 0
162 183 0
167 188 0
166 188 0
164 184 0
164 186 0
169 187 0
165 186 0
164 185 0
165 185 0
163 186 0
166 188 0
168 190 0
163 184 0
166 187 0
167 189 0
192 220 255
191 219 255
192 219 255
191 219 255
191 219 255
191 219 255
191 219 255
191 219 255
191 219 255
191 219 255
190 219 255
190 219 255
189 218 255
189 218 255
189 218 255
190 219 255
188 218 255
189 218 255
189 218 255
189 218 255
189 218 255
189 218 255
189 218 255
188 218 255
189 218 255
188 217 255
189 218 255
189 218 255
188 217 255
188 218 255
188 218 255
188 218 255
188 218 255
188 218 255
188 218 255
189 218 255
189 218 255
189 218 255
188 218 255
189 218 255
188 218 255
189 218 255
189 218 255
189 218 255
189 218 255
190 219 255
189 218 255
190 218 255
190 218 255
190 219 255
190 219 255
190 219 255
190 219 255
190 219 255
191 219 255
191 219 255
191 219 255
191 219 255
192 220 255
192 219 255
192 219 255
192 219 255
192 220 255
192 220 255
193 220 255
193 220 255
194 220 255
194 221 255
194 221 255
194 221 255
195 221 255
196 221 255
195 221 255
196 222 255
196 222 255
197 222 255
197 222 255
197 222 255
198 223 255
198 223 255
198 223 255
198 223 255
199 223 255
200 224 255
199 224 255
200 224 255
200 224 255
201 225 255
201 224 255
202 225 255
202 225 255
203 225 255
203 226 255
204 226 255
204 226 255
205 226 255
204 226 255
206 227 255
206 227 255
207 228 255
207 228 255
208 228 255
208 228 255
209 229 255
210 229 255
209 229 255
210 229 255
211 230 255
211 230 255
212 231 255
213 231 255
213 231 255
214 231 255
215 232 255
215 232 255
216 233 255
217 233 255
217 233 255
217 233 255
217 233 252
217 232 249
216 232 244
216 232 246
215 231 241
212 228 230
210 226 224
205 223 207
205 223 206
200 218 182
200 219 189
200 217 188
193 212 155
192 210 153
185 205 137
186 205 125
178 197 122
180 199 122
175 193 111
176 197 76
165 183 76
164 184 36
164 183 47
155 175 40
153 172 36
140 161 36
144 161 36
134 154 44
124 143 51
121 139 40
122 141 47
124 142 25
119 137 31
115 132 38
104 120 18
108 121 31
104 121 40
85 101 36
92 108 0
81 96 25
87 100 18
82 97 18
55 70 18
72 87 0
68 81 0
69 85 0
75 91 18
84 99 31
59 75 31
81 95 0
71 88 25
77 93 36
69 84 44
83 99 0
72 88 25
81 96 25
59 77 36
73 87 36
79 94 25
84 101 40
75 91 25
81 94 0
86 101 36
80 94 25
93 108 0
90 105 18
88 103 0
68 80 0
88 101 0
79 92 0
95 108 0
85 98 0
84 98 0
80 94 0
91 106 0
92 107 0
93 109 0
87 101 0
77 92 0
88 101 0
92 106 0
91 106 0
95 110 0
98 113 0
105 120 0
89 104 0
94 110 0
93 108 0
95 110 0
100 117 0
105 121 0
113 130 0
98 115 0
93 111 0
98 113 0
104 121 0
121 137 0
101 117 0
107 124 0
115 133 0
106 121 0
107 124 0
119 135 0
103 119 0
122 139 0
120 138 0
121 138 0
122 141 0
129 149 0
113 130 0
119 136 0
121 139 0
120 138 0
116 134 0
124 143 0
115 134 0
116 136 0
113 131 0
109 126 0
122 140 0
124 143 0
129 148 0
131 149 0
130 149 0
130 149 0
126 146 0
135 156 0
139 158 0
150 170 0
124 142 0
129 146 0
138 158 0
128 145 0
127 147 0
129 147 0
135 154 0
139 159 0
141 159 0
146 164 0
136 155 0
124 143 0
141 159 0
135 154 0
131 149 0
146 166 0
138 160 0
144 166 0
135 155 0
144 164 0
154 175 0
144 164 0
144 165 0
141 160 0
143 163 0
145 166 0
141 160 0
140 158 0
145 165 0
135 155 0
136 157 0
150 170 0
140 160 0
151 171 0
153 173 0
147 167 0
135 156 0
143 163 0
140 161 0
150 169 0
147 166 0
146 167 0
152 172 0
149 170 0
151 171 0
151 172 0
151 170 0
147 169 0
154 173 0
144 163 0
152 174 0
150 167 0
153 172 0
143 162 0
156 176 0
155 173 0
149 170 0
149 167 0
154 173 0
154 175 0
154 173 0
159 178 0
151 171 0
158 178 0
148 168 0
155 175 0
149 169 0
154 173 0
152 173 0
154 173 0
155 176 0
154 173 0
152 172 0
157 175 0
158 179 0
153 174 0
155 174 0
157 176 0
157 175 0
158 177 0
154 175 0
150 169 0
159 179 0
154 175 0
163 183 0
161 180 0
156 175 0
160 180 0
162 182 0
159 178 0
158 179 0
161 180 0
160 181 0
160 182 0
159 179 0
160 179 0
160 181 0
164 185 0
158 179 0
155 175 0
156 177 0
161 183 0
158 177 0
158 179 0
157 175 0
164 185 0
160 181 0
157 177 0
156 177 0
169 189 0
161 182 0
162 183 0
160 180 0
157 177 0
157 178 0
162 183 0
162 182 0
160 179 0
160 179 0
166 186 0
160 180 0
154 174 0
163 183 0
166 186 0
163 183 0
157 179 0
163 183 0
163 183 0
165 185 0
160 180 0
164 185 0
162 183 0
160 181 0
162 181 0
162 182 0
167 188 0
160 180 0
160 181 0
159 177 0
165 187 0
169 190 0
167 187 0
161 183 0
163 184 0
164 184 0
156 175 0
169 191 0
164 186 0
165 185 0
165 184 0
169 189 0
163 184 0
192 220 255
192 220 255
192 220 255
192 219 255
191 219 255
191 219 255
191 219 255
191 219 255
191 219 255
191 219 255
191 219 255
190 219 255
190 219 255
190 218 255
190 219 255
190 218 255
190 219 255
189 218 255
190 218 255
190 218 255
189 218 255
189 218 255
189 218 255
189 218 255
189 218 255
189 218 255
189 218 255
189 218 255
188 218 255
189 218 255
189 218 255
189 218 255
189 218 255
189 218 255
189 218 255
188 218 255
188 218 255
189 218 255
189 218 255
190 218 255
190 218 255
189 218 255
190 218 255
189 218 255
189 218 255
190 218 255
190 218 255
190 219 255
190 219 255
191 219 255
191 219 255
190 219 255
191 219 255
191 219 255
191 219 255
191 219 255
191 219 255
192 220 255
191 219 255
192 220 255
193 220 255
192 220 255
194 220 255
194 220 255
193 220 255
193 220 255
194 221 255
194 221 255
194 221 255
195 221 255
195 221 255
195 221 255
196 222 255
197 222 255
197 222 255
197 222 255
197 222 255
198 223 255
198 223 255
198 223 255
199 223 255
199 223 255
200 224 255
200 224 255
201 224 255
201 224 255
200 224 255
202 225 255
202 225 255
202 225 255
202 225 255
203 226 255
204 226 255
204 226 255
204 226 255
205 227 255
206 227 255
206 227 255
206 227 255
207 227 255
207 228 255
208 228 255
209 229 255
209 229 255
210 229 255
210 230 255
211 230 255
212 230 255
211 230 255
212 231 255
213 231 255
214 232 255
215 232 255
215 232 255
215 232 255
217 233 255
217 233 255
216 233 255
217 233 252
217 233 252
217 232 248
213 229 236
211 228 228
212 228 228
211 227 224
210 226 220
204 221 204
207 224 209
200 218 184
199 217 177
197 215 171
197 215 173
194 212 163
187 206 142
182 201 133
185 205 122
179 198 120
177 198 84
169 187 92
165 183 62
164 184 40
155 174 44
150 167 25
156 176 18
153 174 36
141 159 25
131 149 25
139 155 18
129 147 31
122 140 0
125 143 31
120 138 0
108 125 31
98 112 0
95 112 0
99 113 18
99 113 25
81 96 25
86 101 18
89 103 0
89 103 0
86 100 0
75 88 0
79 91 0
85 98 0
96 110 0
79 92 0
71 85 0
76 90 0
87 99 18
85 99 0
83 98 18
95 108 0
82 97 18
80 93 25
90 103 0
79 95 0
77 91 0
86 101 18
74 87 0
70 84 18
88 102 0
73 87 0
84 98 0
61 75 0
84 97 0
84 98 0
94 108 0
92 105 0
89 104 0
91 105 0
87 103 0
94 106 0
86 100 0
90 106 0
87 102 0
88 104 0
93 106 0
89 105 0
86 101 0
89 103 0
94 108 0
107 124 0
94 109 0
88 104 0
104 120 0
85 100 0
106 123 0
111 126 0
105 121 0
101 117 0
97 115 0
116 134 0
103 120 0
103 119 0
100 116 0
119 136 0
108 124 0
112 130 0
104 122 0
116 131 0
114 130 0
115 132 0
115 133 0
112 129 0
109 127 0
124 142 0
120 138 0
116 135 0
124 143 0
123 142 0
116 133 0
124 142 0
127 145 0
131 151 0
131 150 0
116 136 0
131 150 0
117 134 0
125 143 0
121 138 0
137 157 0
121 138 0
137 156 0
128 148 0
123 142 0
143 162 0
132 150 0
125 143 0
136 154 0
138 158 0
140 160 0
136 155 0
137 155 0
137 155 0
136 154 0
131 148 0
132 152 0
126 144 0
144 164 0
130 149 0
128 146 0
144 163 0
130 150 0
133 152 0
140 159 0
141 160 0
144 165 0
143 162 0
146 167 0
146 164 0
145 163 0
139 158 0
138 157 0
137 157 0
137 157 0
140 159 0
139 158 0
142 161 0
138 157 0
137 158 0
148 167 0
145 166 0
138 158 0
151 172 0
144 163 0
156 177 0
146 165 0
149 169 0
139 158 0
146 167 0
153 171 0
148 167 0
152 172 0
152 173 0
145 163 0
145 166 0
153 172 0
145 164 0
152 171 0
154 172 0
157 178 0
152 172 0
147 165 0
150 169 0
146 166 0
145 165 0
154 175 0
154 173 0
144 163 0
153 175 0
155 173 0
155 175 0
159 179 0
158 177 0
164 185 0
152 174 0
155 175 0
155 176 0
152 173 0
152 172 0
150 170 0
155 174 0
152 172 0
152 174 0
156 177 0
152 172 0
153 170 0
151 171 0
153 170 0
159 179 0
157 176 0
156 177 0
155 174 0
157 174 0
163 183 0
156 177 0
161 182 0
156 177 0
154 174 0
159 180 0
159 179 0
153 171 0
159 179 0
160 180 0
166 188 0
165 187 0
157 178 0
153 172 0
159 179 0
162 181 0
161 180 0
161 180 0
162 181 0
161 182 0
161 179 0
161 182 0
162 182 0
161 181 0
164 184 0
160 181 0
158 177 0
164 184 0
160 180 0
160 179 0
163 182 0
163 185 0
167 190 0
165 184 0
165 186 0
166 187 0
163 183 0
160 183 0
162 183 0
163 184 0
164 185 0
163 184 0
167 188 0
163 185 0
172 193 0
163 184 0
161 182 0
167 189 0
163 183 0
163 183 0
165 186 0
161 182 0
162 183 0
166 187 0
158 177 0
165 187 0
165 185 0
163 184 0
160 181 0
166 189 0
164 185 0
168 188 0
164 185 0
167 187 0
160 179 0
193 220 255
193 220 255
193 220 255
192 220 255
192 220 255
192 219 255
192 219 255
191 219 255
191 219 255
191 219 255
191 219 255
190 219 255
190 219 255
190 219 255
190 219 255
190 219 255
190 219 255
190 219 255
190 219 255
190 218 255
190 218 255
189 218 255
189 218 255
189 218 255
189 218 255
189 218 255
189 218 255
189 218 255
189 218 255
189 218 255
189 218 255
189 218 255
189 218 255
189 218 255
189 218 255
190 218 255
190 218 255
189 218 255
189 218 255
189 218 255
189 218 255
190 218 255
190 219 255
190 218 255
190 219 255
191 219 255
190 219 255
190 219 255
191 219 255
191 219 255
191 219 255
191 219 255
191 219 255
191 219 255
192 219 255
192 220 255
192 220 255
192 220 255
193 220 255
193 220 255
192 220 255
193 220 255
194 220 255
193 220 255
194 221 255
194 221 255
195 221 255
195 221 255
195 221 255
195 221 255
196 222 255
196 222 255
196 222 255
196 222 255
197 222 255
197 222 255
197 222 255
198 223 255
198 223 255
198 223 255
199 223 255
199 223 255
199 224 255
200 224 255
201 224 255
201 224 255
201 224 255
202 225 255
202 225 255
203 225 255
203 226 255
203 225 255
204 226 255
205 226 255
205 227 255
205 227 255
205 227 255
206 227 255
207 228 255
208 228 255
208 228 255
209 229 255
209 229 255
210 229 255
210 229 255
210 229 255
211 230 255
211 230 255
213 231 255
213 231 255
213 231 255
213 231 255
215 232 255
215 232 255
216 233 255
217 233 255
217 233 255
217 233 255
217 233 253
215 231 245
216 232 250
214 230 238
211 227 228
211 227 226
211 228 226
207 224 214
206 223 206
204 221 199
201 218 189
198 216 175
199 217 179
193 212 161
189 208 137
191 210 147
182 203 117
183 202 130
176 196 92
180 198 111
175 194 88
168 189 44
161 180 44
158 176 25
160 179 0
143 162 18
149 167 18
134 153 36
136 155 0
133 150 31
128 144 31
131 148 25
123 142 31
116 131 0
112 129 18
107 122 18
100 115 0
96 111 0
99 114 0
99 114 0
81 96 0
78 91 0
86 102 0
86 101 0
89 103 0
83 99 0
66 81 0
83 97 0
99 114 0
92 106 0
80 95 0
72 86 0
67 80 0
71 84 0
80 95 0
82 95 0
74 88 0
75 89 0
78 93 0
78 93 0
73 86 0
72 85 0
85 99 0
79 93 0
84 99 0
81 97 0
74 89 0
87 103 0
88 104 0
88 100 0
95 110 0
86 102 0
93 108 0
96 110 0
80 94 0
93 108 0
105 119 0
102 117 0
90 104 0
97 112 0
94 111 0
99 115 0
95 110 0
107 122 0
105 122 0
103 119 0
96 113 0
97 112 0
94 111 0
112 127 0
99 115 0
108 124 0
100 116 0
110 127 0
106 122 0
110 126 0
108 124 0
118 133 0
111 126 0
120 137 0
107 123 0
118 134 0
117 135 0
118 135 0
123 140 0
116 132 0
112 130 0
116 132 0
118 135 0
111 130 0
116 134 0
121 139 0
123 142 0
117 136 0
125 143 0
123 142 0
127 146 0
127 145 0
116 134 0
123 139 0
123 143 0
126 145 0
126 143 0
134 153 0
125 141 0
132 151 0
141 160 0
125 144 0
131 150 0
126 144 0
133 151 0
124 143 0
123 141 0
132 149 0
135 153 0
130 148 0
125 143 0
137 156 0
127 148 0
136 156 0
137 156 0
133 151 0
132 150 0
135 153 0
135 154 0
150 170 0
136 154 0
138 156 0
132 152 0
142 162 0
145 164 0
141 160 0
137 154 0
144 161 0
142 161 0
140 161 0
141 160 0
146 166 0
145 164 0
147 165 0
144 164 0
149 170 0
148 170 0
139 160 0
145 167 0
143 163 0
145 165 0
140 159 0
143 164 0
153 174 0
149 171 0
143 163 0
150 170 0
148 168 0
150 171 0
147 168 0
145 165 0
148 169 0
149 170 0
147 167 0
147 166 0
155 176 0
148 169 0
162 183 0
146 165 0
148 169 0
154 175 0
155 174 0
154 173 0
157 178 0
152 171 0
159 181 0
155 174 0
148 168 0
157 178 0
155 174 0
153 172 0
151 170 0
160 179 0
158 178 0
155 176 0
154 175 0
156 175 0
157 179 0
154 174 0
144 164 0
154 175 0
152 173 0
155 175 0
156 175 0
155 175 0
159 179 0
160 180 0
162 184 0
160 179 0
156 176 0
156 177 0
157 178 0
154 174 0
155 176 0
161 180 0
158 177 0
161 184 0
154 172 0
157 178 0
161 178 0
161 183 0
158 178 0
157 176 0
160 181 0
155 175 0
162 181 0
158 177 0
160 180 0
159 177 0
160 181 0
159 179 0
165 186 0
163 184 0
162 183 0
158 177 0
164 184 0
164 185 0
161 182 0
161 183 0
158 178 0
162 184 0
161 180 0
165 186 0
166 187 0
164 184 0
166 186 0
160 179 0
163 185 0
163 184 0
161 181 0
159 179 0
160 181 0
165 186 0
164 184 0
163 183 0
163 185 0
165 187 0
164 185 0
160 181 0
162 183 0
166 188 0
160 181 0
161 182 0
166 188 0
165 186 0
160 180 0
164 186 0
168 189 0
165 187 0
169 192 0
164 184 0
167 188 0
164 186 0
160 179 0
164 184 0
162 183 0
193 220 255
193 220 255
192 220 255
192 220 255
192 220 255
192 220 255
191 219 255
191 219 255
192 220 255
191 219 255
192 220 255
192 219 255
191 219 255
191 219 255
191 219 255
191 219 255
190 219 255
190 219 255
190 219 255
190 219 255
191 219 255
190 219 255
190 218 255
190 219 255
190 218 255
190 219 255
190 219 255
190 219 255
190 219 255
190 219 255
189 218 255
189 218 255
190 219 255
190 219 255
190 218 255
190 219 255
190 219 255
190 218 255
190 218 255
190 219 255
190 219 255
190 218 255
190 218 255
190 219 255
190 219 255
191 219 255
191 219 255
191 219 255
191 219 255
191 219 255
191 219 255
191 219 255
192 219 255
192 220 255
192 220 255
193 220 255
192 220 255
193 220 255
193 220 255
193 220 255
193 220 255
193 220 255
193 220 255
194 220 255
194 221 255
195 221 255
194 221 255
195 221 255
195 221 255
194 221 255
196 222 255
196 222 255
197 222 255
197 222 255
197 222 255
198 223 255
198 223 255
198 223 255
199 223 255
199 223 255
199 223 255
200 224 255
200 224 255
201 224 255
201 225 255
201 224 255
201 224 255
202 225 255
202 225 255
202 225 255
203 226 255
204 226 255
204 226 255
205 226 255
205 227 255
206 227 255
206 227 255
207 227 255
207 228 255
207 228 255
208 228 255
209 229 255
209 229 255
210 229 255
210 229 255
211 230 255
212 230 255
212 230 255
213 231 255
212 231 255
213 231 255
214 231 255
215 232 255
216 232 255
216 233 255
216 233 255
218 233 255
218 234 255
217 233 253
216 232 246
216 232 248
214 230 241
212 228 230
212 228 228
210 226 221
213 229 231
211 227 224
200 218 182
197 215 177
193 212 165
196 214 173
193 212 161
190 209 144
183 202 130
182 201 122
180 200 108
176 196 102
171 191 67
169 190 80
164 184 36
163 182 36
158 175 0
155 175 0
161 181 0
150 171 18
133 151 0
149 166 25
137 155 0
134 153 0
132 150 18
133 149 0
110 126 0
116 131 0
116 131 0
97 113 0
102 120 0
101 116 0
111 127 0
86 98 0
81 96 0
85 102 0
92 106 0
83 96 0
83 97 0
100 115 0
93 106 0
92 106 0
109 123 0
94 110 0
96 111 0
91 106 0
84 99 0
84 98 0
99 114 0
89 103 0
87 103 0
95 110 0
89 104 0
89 103 0
86 100 0
85 99 0
92 107 0
90 105 0
91 106 0
86 101 0
86 101 0
84 99 0
92 107 0
92 107 0
81 97 0
101 116 0
97 112 0
92 108 0
94 109 0
100 117 0
98 115 0
94 108 0
101 116 0
94 110 0
103 119 0
106 122 0
106 121 0
107 124 0
104 120 0
100 116 0
106 124 0
104 121 0
102 118 0
92 109 0
110 125 0
111 127 0
101 119 0
111 128 0
101 119 0
106 123 0
118 136 0
108 124 0
113 131 0
107 125 0
105 122 0
119 136 0
112 130 0
122 139 0
111 128 0
111 129 0
123 141 0
116 134 0
130 149 0
122 141 0
126 146 0
110 129 0
116 134 0
127 145 0
120 137 0
124 142 0
122 141 0
125 143 0
121 139 0
135 153 0
131 150 0
122 140 0
133 152 0
131 150 0
132 151 0
130 149 0
130 148 0
131 150 0
132 151 0
139 157 0
136 155 0
129 147 0
142 161 0
135 155 0
131 149 0
130 149 0
134 153 0
128 146 0
142 161 0
135 156 0
132 150 0
134 152 0
137 156 0
154 176 0
137 157 0
139 159 0
142 160 0
146 166 0
144 165 0
144 164 0
143 162 0
140 161 0
149 169 0
140 159 0
140 161 0
142 162 0
146 167 0
152 172 0
136 157 0
144 165 0
147 167 0
144 164 0
146 165 0
150 170 0
142 163 0
147 166 0
142 162 0
145 165 0
143 164 0
146 165 0
150 170 0
140 159 0
150 170 0
147 166 0
158 178 0
147 166 0
147 166 0
146 165 0
158 179 0
156 176 0
153 173 0
153 173 0
142 164 0
140 160 0
150 168 0
144 165 0
147 169 0
151 172 0
151 171 0
148 167 0
151 171 0
152 173 0
157 178 0
150 170 0
154 175 0
152 173 0
161 183 0
160 179 0
156 176 0
152 172 0
156 175 0
160 181 0
153 176 0
149 171 0
155 175 0
159 179 0
150 170 0
153 175 0
160 176 0
152 171 0
154 172 0
155 175 0
161 182 0
163 183 0
155 174 0
157 178 0
156 176 0
154 175 0
153 173 0
160 180 0
155 175 0
159 179 0
156 175 0
157 177 0
159 181 0
160 180 0
162 184 0
158 178 0
162 182 0
163 183 0
161 182 0
161 181 0
161 182 0
168 187 0
159 179 0
161 183 0
159 180 0
156 176 0
162 182 0
153 174 0
163 185 0
161 181 0
163 185 0
159 181 0
153 174 0
160 181 0
163 185 0
163 184 0
166 188 0
161 183 0
165 187 0
161 180 0
163 185 0
163 184 0
159 179 0
164 184 0
165 185 0
165 184 0
162 183 0
161 181 0
165 187 0
156 178 0
165 186 0
164 186 0
162 182 0
165 185 0
164 186 0
169 190 0
159 179 0
163 183 0
166 187 0
166 186 0
159 179 0
169 190 0
166 185 0
163 184 0
170 191 0
166 188 0
162 185 0
168 190 0
161 182 0
194 220 255
193 220 255
193 220 255
193 220 255
192 220 255
192 220 255
192 219 255
193 220 255
192 220 255
192 219 255
192 220 255
191 219 255
192 219 255
191 219 255
191 219 255
191 219 255
191 219 255
192 219 255
191 219 255
190 219 255
191 219 255
190 219 255
190 219 255
190 219 255
190 219 255
191 219 255
190 219 255
190 219 255
190 219 255
190 219 255
190 219 255
190 219 255
190 218 255
189 218 255
190 219 255
190 219 255
191 219 255
190 219 255
191 219 255
190 219 255
190 219 255
191 219 255
191 219 255
191 219 255
190 219 255
191 219 255
191 219 255
191 219 255
191 219 255
192 219 255
192 219 255
192 220 255
192 220 255
192 220 255
192 220 255
193 220 255
192 220 255
193 220 255
193 220 255
193 220 255
194 221 255
194 221 255
194 221 255
195 221 255
194 221 255
194 221 255
195 221 255
196 221 255
196 221 255
196 222 255
197 222 255
197 222 255
197 222 255
197 222 255
197 222 255
198 223 255
198 223 255
198 223 255
199 223 255
199 223 255
200 224 255
200 224 255
200 224 255
202 225 255
201 224 255
202 225 255
202 225 255
202 225 255
203 225 255
204 226 255
204 226 255
204 226 255
205 226 255
205 226 255
206 227 255
207 227 255
207 227 255
207 227 255
207 228 255
208 228 255
209 229 255
209 229 255
210 229 255
211 230 255
211 230 255
210 230 255
212 230 255
212 230 255
213 231 255
213 231 255
214 232 255
215 232 255
215 232 255
216 233 255
216 233 255
217 233 255
217 233 255
217 233 255
216 232 246
215 231 242
216 232 246
213 229 234
213 229 234
208 225 220
209 225 218
209 225 215
206 223 206
202 219 189
200 218 182
199 217 173
192 211 163
196 214 173
181 200 117
182 201 114
185 204 122
173 193 95
173 191 105
174 194 76
168 189 62
162 179 57
164 183 57
153 172 0
156 177 0
159 179 0
151 170 0
150 168 0
145 163 0
141 159 0
130 149 0
130 148 0
127 144 0
118 135 0
122 139 0
113 130 0
111 127 0
107 122 0
96 112 0
101 116 0
91 106 0
98 113 0
109 123 0
97 113 0
88 103 0
82 96 0
81 97 0
75 90 0
82 97 0
89 103 0
79 93 0
73 86 0
90 103 0
93 107 0
78 92 0
94 108 0
90 105 0
96 111 0
99 114 0
99 113 0
97 111 0
94 108 0
99 115 0
92 106 0
88 103 0
86 100 0
92 107 0
96 112 0
87 101 0
94 109 0
112 127 0
75 90 0
97 112 0
97 112 0
99 113 0
89 104 0
89 104 0
100 117 0
115 131 0
99 115 0
105 122 0
101 116 0
108 124 0
100 115 0
96 113 0
97 113 0
104 120 0
105 122 0
110 127 0
108 125 0
125 142 0
91 106 0
109 126 0
109 126 0
118 135 0
115 132 0
112 128 0
106 122 0
118 136 0
115 131 0
110 127 0
116 134 0
111 128 0
122 139 0
121 139 0
113 130 0
126 145 0
118 137 0
114 132 0
124 143 0
126 144 0
125 144 0
126 144 0
131 150 0
122 140 0
132 153 0
125 142 0
112 130 0
132 150 0
132 150 0
131 149 0
133 152 0
129 148 0
135 155 0
132 151 0
134 154 0
127 146 0
135 157 0
129 147 0
128 147 0
139 158 0
137 154 0
127 145 0
132 151 0
140 159 0
138 158 0
134 155 0
129 148 0
132 152 0
131 150 0
141 160 0
145 165 0
137 155 0
142 162 0
143 161 0
143 163 0
138 158 0
145 164 0
133 153 0
144 162 0
137 156 0
143 164 0
141 160 0
147 168 0
141 162 0
136 154 0
136 155 0
142 161 0
147 168 0
154 175 0
143 163 0
146 166 0
151 170 0
143 162 0
149 169 0
146 165 0
149 169 0
146 166 0
136 155 0
149 168 0
145 166 0
137 156 0
146 167 0
149 167 0
156 176 0
152 170 0
148 168 0
155 175 0
146 165 0
147 167 0
145 164 0
152 172 0
150 170 0
149 169 0
158 178 0
147 167 0
148 169 0
149 169 0
159 179 0
155 177 0
158 178 0
160 180 0
159 178 0
149 169 0
156 176 0
153 174 0
147 167 0
159 178 0
159 179 0
152 171 0
154 172 0
152 172 0
160 180 0
158 177 0
158 178 0
154 175 0
157 179 0
155 175 0
158 179 0
156 177 0
157 177 0
157 177 0
150 170 0
155 176 0
157 177 0
159 181 0
159 179 0
157 178 0
158 177 0
160 178 0
155 176 0
156 177 0
163 181 0
164 184 0
159 179 0
159 180 0
166 186 0
163 184 0
161 181 0
160 180 0
158 179 0
158 180 0
161 184 0
158 181 0
167 187 0
158 179 0
161 184 0
160 180 0
157 179 0
164 185 0
158 178 0
160 181 0
161 181 0
159 180 0
165 184 0
161 183 0
164 185 0
162 182 0
159 178 0
162 183 0
159 179 0
158 179 0
163 185 0
163 185 0
165 187 0
164 185 0
163 186 0
162 182 0
163 184 0
157 178 0
162 182 0
163 184 0
166 187 0
165 187 0
165 187 0
168 189 0
163 183 0
161 181 0
158 178 0
161 181 0
166 187 0
164 186 0
165 186 0
170 191 0
162 183 0
169 190 0
163 185 0
165 187 0
165 186 0
167 188 0
169 190 0
165 186 0
194 221 255
194 221 255
194 221 255
193 220 255
193 220 255
194 221 255
193 220 255
193 220 255
193 220 255
192 220 255
192 219 255
192 220 255
191 219 255
192 219 255
192 219 255
192 219 255
191 219 255
191 219 255
190 219 255
191 219 255
191 219 255
191 219 255
191 219 255
190 219 255
190 219 255
190 219 255
191 219 255
191 219 255
191 219 255
190 219 255
190 219 255
190 219 255
190 219 255
190 219 255
191 219 255
191 219 255
190 219 255
190 219 255
191 219 255
191 219 255
192 219 255
192 219 255
191 219 255
191 219 255
191 219 255
191 219 255
191 219 255
192 220 255
191 219 255
192 220 255
192 219 255
193 220 255
192 220 255
193 220 255
193 220 255
193 220 255
193 220 255
194 221 255
193 220 255
194 221 255
194 221 255
194 221 255
194 221 255
194 221 255
195 221 255
196 221 255
196 222 255
196 222 255
196 222 255
197 222 255
196 222 255
197 222 255
197 222 255
197 222 255
198 223 255
199 223 255
198 223 255
199 223 255
199 224 255
200 224 255
200 224 255
200 224 255
200 224 255
201 224 255
202 225 255
202 225 255
202 225 255
203 226 255
203 226 255
204 226 255
204 226 255
205 227 255
205 226 255
205 227 255
206 227 255
207 228 255
208 228 255
207 228 255
208 228 255
207 228 255
208 228 255
209 229 255
210 229 255
210 230 255
211 230 255
211 230 255
213 231 255
212 230 255
213 231 255
214 232 255
214 232 255
215 232 255
215 232 255
216 232 255
217 233 255
217 233 255
217 233 254
217 233 253
216 232 246
214 230 238
213 229 234
210 227 224
212 228 231
212 228 228
205 223 204
201 219 191
200 218 184
200 218 189
195 214 165
194 212 169
193 212 157
190 209 144
188 207 137
184 204 114
184 204 120
180 200 114
176 196 92
174 194 92
164 185 51
167 187 62
163 183 25
166 186 0
160 178 0
152 172 0
157 178 0
148 167 0
138 156 0
145 164 0
118 135 0
131 147 0
125 143 0
129 146 0
119 137 0
119 137 0
110 126 0
105 122 0
105 121 0
115 132 0
102 118 0
106 121 0
97 111 0
88 103 0
86 101 0
86 101 0
93 108 0
92 108 0
90 105 0
82 96 0
85 100 0
90 105 0
94 111 0
93 108 0
88 103 0
95 111 0
94 109 0
102 118 0
100 116 0
100 116 0
102 118 0
88 101 0
84 98 0
98 113 0
75 91 0
85 100 0
84 99 0
92 108 0
93 109 0
97 112 0
100 115 0
87 102 0
110 127 0
99 114 0
97 112 0
102 118 0
97 113 0
95 110 0
100 116 0
106 121 0
102 118 0
96 112 0
109 125 0
94 111 0
116 133 0
116 133 0
111 127 0
111 127 0
104 121 0
106 123 0
105 120 0
100 117 0
114 131 0
109 126 0
117 136 0
113 131 0
109 124 0
108 126 0
123 141 0
122 140 0
118 135 0
112 130 0
118 135 0
108 126 0
114 132 0
109 127 0
116 133 0
130 149 0
118 137 0
119 137 0
119 137 0
124 142 0
126 145 0
125 145 0
129 149 0
129 149 0
124 143 0
130 150 0
132 151 0
130 148 0
118 138 0
121 140 0
127 145 0
128 147 0
136 156 0
129 148 0
125 142 0
134 153 0
125 145 0
136 156 0
132 153 0
129 148 0
140 157 0
133 150 0
131 151 0
133 154 0
129 148 0
131 151 0
143 163 0
128 147 0
142 163 0
136 155 0
142 160 0
137 157 0
136 156 0
141 162 0
144 163 0
147 167 0
145 165 0
142 161 0
139 160 0
134 153 0
146 167 0
144 164 0
148 168 0
144 165 0
134 154 0
150 169 0
152 172 0
137 156 0
143 164 0
142 162 0
147 167 0
150 170 0
147 166 0
145 163 0
148 167 0
154 175 0
151 172 0
146 165 0
144 164 0
153 173 0
151 172 0
154 174 0
150 171 0
156 176 0
151 170 0
150 170 0
152 172 0
152 172 0
156 177 0
157 177 0
152 171 0
150 170 0
146 166 0
152 172 0
155 174 0
151 172 0
151 170 0
152 171 0
153 174 0
155 175 0
152 171 0
159 180 0
155 176 0
153 172 0
151 171 0
152 174 0
148 167 0
148 167 0
145 164 0
155 176 0
146 166 0
153 174 0
156 176 0
157 176 0
161 180 0
156 176 0
150 169 0
154 175 0
161 182 0
154 173 0
160 180 0
157 178 0
157 177 0
157 179 0
158 179 0
161 182 0
160 182 0
156 177 0
158 178 0
156 176 0
156 176 0
153 172 0
159 178 0
160 181 0
165 187 0
161 183 0
159 181 0
160 180 0
157 179 0
163 184 0
162 181 0
160 181 0
162 183 0
160 181 0
163 181 0
158 179 0
161 180 0
161 180 0
155 176 0
164 185 0
158 179 0
163 185 0
159 179 0
162 183 0
160 180 0
163 184 0
162 184 0
169 192 0
159 178 0
157 178 0
167 188 0
169 192 0
162 182 0
159 180 0
160 180 0
163 184 0
164 185 0
166 186 0
164 185 0
166 187 0
162 181 0
165 185 0
164 186 0
165 186 0
163 184 0
163 181 0
160 181 0
166 188 0
162 184 0
161 183 0
164 185 0
169 192 0
155 177 0
165 186 0
165 187 0
162 184 0
162 182 0
165 185 0
160 181 0
164 184 0
194 221 255
194 221 255
194 221 255
195 221 255
193 220 255
194 220 255
193 220 255
193 220 255
193 220 255
193 220 255
192 220 255
192 220 255
192 220 255
192 220 255
192 220 255
192 220 255
192 219 255
192 219 255
191 219 255
191 219 255
191 219 255
191 219 255
191 219 255
191 219 255
191 219 255
191 219 255
191 219 255
191 219 255
191 219 255
191 219 255
191 219 255
191 219 255
191 219 255
191 219 255
190 219 255
191 219 255
191 219 255
191 219 255
191 219 255
192 219 255
191 219 255
192 220 255
191 219 255
192 219 255
192 220 255
192 220 255
193 220 255
192 220 255
192 220 255
193 220 255
192 220 255
193 220 255
193 220 255
194 220 255
193 220 255
193 220 255
193 220 255
194 221 255
194 221 255
194 221 255
195 221 255
194 221 255
195 221 255
196 222 255
196 222 255
196 222 255
196 222 255
196 222 255
196 222 255
197 222 255
197 222 255
197 222 255
197 222 255
198 223 255
198 223 255
199 223 255
199 223 255
200 224 255
200 224 255
200 224 255
200 224 255
200 224 255
202 225 255
201 225 255
201 225 255
203 225 255
203 226 255
203 226 255
203 226 255
204 226 255
205 226 255
205 226 255
205 226 255
206 227 255
205 227 255
207 227 255
208 228 255
207 228 255
208 228 255
209 229 255
209 229 255
210 229 255
210 229 255
211 230 255
211 230 255
212 230 255
213 231 255
213 231 255
214 231 255
214 232 255
215 232 255
214 232 255
216 233 255
217 233 255
217 233 255
217 233 255
216 232 250
217 233 250
214 231 244
212 229 234
215 230 238
211 228 227
208 225 217
211 227 227
209 226 218
205 221 203
205 222 199
199 217 182
202 219 191
195 214 167
194 212 157
188 207 133
186 205 140
190 209 137
178 199 102
176 197 88
169 191 72
174 194 84
167 187 44
170 192 44
162 183 0
162 182 25
156 177 0
158 178 0
153 172 0
136 153 0
139 157 0
144 164 0
132 150 0
125 141 0
119 136 0
113 127 0
120 138 0
126 143 0
120 137 0
101 118 0
118 135 0
118 134 0
98 113 0
103 118 0
97 112 0
81 95 0
97 111 0
91 106 0
84 100 0
96 110 0
81 97 0
96 110 0
89 105 0
85 100 0
94 109 0
105 122 0
85 102 0
91 105 0
91 106 0
86 101 0
100 115 0
87 100 0
79 96 0
80 96 0
104 117 0
101 116 0
96 111 0
94 110 0
97 113 0
98 113 0
104 118 0
89 106 0
102 117 0
92 108 0
105 119 0
95 112 0
91 108 0
105 121 0
89 104 0
109 123 0
91 108 0
104 122 0
106 123 0
102 119 0
89 107 0
105 121 0
101 117 0
105 122 0
108 125 0
116 132 0
106 123 0
103 119 0
109 127 0
102 119 0
102 120 0
110 128 0
106 122 0
126 142 0
118 136 0
114 131 0
118 136 0
122 142 0
115 130 0
123 143 0
118 137 0
126 143 0
120 139 0
128 146 0
120 138 0
121 138 0
126 145 0
119 137 0
118 137 0
99 117 0
113 132 0
122 140 0
120 138 0
128 146 0
121 138 0
126 144 0
120 140 0
126 144 0
126 144 0
134 152 0
128 146 0
128 148 0
123 143 0
121 140 0
134 155 0
119 139 0
126 146 0
123 142 0
134 153 0
137 156 0
131 149 0
135 156 0
138 158 0
137 157 0
139 159 0
145 164 0
138 158 0
134 152 0
139 159 0
136 156 0
142 162 0
137 158 0
146 164 0
147 166 0
140 159 0
133 153 0
146 167 0
143 162 0
145 165 0
138 158 0
141 161 0
139 158 0
144 164 0
143 163 0
127 147 0
144 165 0
143 163 0
146 167 0
144 163 0
148 168 0
142 160 0
144 164 0
148 168 0
149 169 0
147 168 0
151 171 0
158 178 0
150 171 0
149 170 0
148 169 0
143 163 0
157 175 0
153 173 0
151 171 0
153 173 0
158 178 0
148 167 0
155 175 0
158 179 0
144 165 0
148 168 0
154 174 0
155 175 0
146 167 0
154 174 0
154 174 0
145 165 0
147 168 0
144 164 0
153 173 0
152 172 0
154 175 0
152 173 0
159 181 0
150 168 0
162 183 0
155 176 0
155 176 0
161 180 0
154 174 0
155 175 0
151 172 0
158 176 0
156 177 0
163 184 0
150 168 0
158 180 0
153 172 0
157 177 0
167 189 0
158 180 0
162 184 0
156 176 0
155 173 0
154 174 0
162 183 0
158 178 0
160 179 0
157 178 0
162 183 0
154 175 0
157 175 0
161 180 0
157 179 0
160 180 0
165 187 0
157 176 0
159 180 0
154 173 0
158 178 0
162 184 0
161 182 0
166 186 0
160 180 0
161 181 0
163 183 0
167 188 0
158 180 0
158 177 0
158 179 0
157 176 0
161 182 0
166 185 0
158 179 0
166 188 0
157 175 0
167 187 0
160 181 0
165 186 0
162 183 0
160 182 0
165 187 0
169 190 0
160 183 0
165 187 0
161 182 0
164 186 0
160 180 0
166 188 0
167 189 0
163 184 0
160 182 0
163 183 0
168 189 0
162 184 0
168 190 0
167 190 0
158 178 0
166 188 0
162 182 0
161 182 0
162 183 0
166 187 0
164 186 0
163 184 0
166 187 0
166 186 0
166 186 0
164 186 0
165 187 0
195 221 255
194 221 255
194 221 255
194 220 255
194 221 255
194 221 255
193 220 255
193 220 255
193 220 255
193 220 255
193 220 255
193 220 255
192 220 255
192 220 255
192 220 255
192 219 255
191 219 255
193 220 255
192 220 255
192 219 255
192 219 255
192 220 255
191 219 255
192 220 255
191 219 255
191 219 255
191 219 255
191 219 255
191 219 255
192 219 255
192 219 255
191 219 255
191 219 255
192 219 255
191 219 255
191 219 255
192 219 255
192 219 255
192 219 255
192 219 255
192 219 255
191 219 255
191 219 255
192 220 255
192 220 255
192 220 255
192 220 255
193 220 255
192 220 255
193 220 255
192 220 255
193 220 255
193 220 255
193 220 255
193 220 255
194 220 255
194 221 255
194 221 255
195 221 255
195 221 255
195 221 255
196 222 255
195 221 255
196 222 255
196 222 255
196 222 255
196 222 255
197 222 255
197 222 255
197 222 255
198 223 255
198 223 255
197 222 255
198 223 255
199 224 255
199 223 255
200 224 255
200 224 255
200 224 255
200 224 255
200 224 255
201 224 255
202 225 255
202 225 255
203 225 255
202 225 255
202 225 255
204 226 255
204 226 255
204 226 255
204 226 255
205 226 255
206 227 255
206 227 255
207 227 255
208 228 255
207 228 255
208 228 255
209 229 255
209 229 255
210 229 255
210 229 255
211 230 255
211 230 255
211 230 255
213 231 255
213 231 255
213 231 255
214 231 255
215 232 255
214 232 255
216 233 255
216 232 255
217 233 255
218 233 255
217 233 253
217 233 254
216 232 248
216 232 248
215 231 244
213 229 234
213 229 231
209 226 221
210 226 220
205 222 206
201 219 189
195 213 175
198 217 184
194 213 161
194 213 157
188 208 140
185 205 130
183 203 111
184 204 120
181 202 111
176 197 84
172 192 76
168 188 44
168 190 57
159 181 0
158 180 0
154 176 0
161 181 0
153 171 0
152 174 0
141 158 0
144 163 0
140 160 0
142 162 0
125 144 0
131 148 0
132 150 0
124 141 0
123 140 0
118 135 0
120 137 0
98 114 0
98 112 0
103 119 0
98 112 0
92 106 0
84 100 0
90 106 0
97 112 0
96 111 0
102 117 0
90 106 0
95 110 0
92 108 0
94 110 0
86 102 0
104 120 0
86 101 0
91 107 0
88 103 0
97 113 0
93 109 0
101 117 0
82 96 0
101 116 0
98 114 0
91 107 0
105 120 0
96 111 0
90 106 0
93 109 0
98 114 0
94 110 0
97 112 0
100 115 0
94 110 0
99 114 0
92 108 0
101 119 0
101 117 0
105 120 0
98 114 0
94 110 0
108 125 0
98 114 0
108 124 0
114 130 0
89 106 0
113 130 0
113 130 0
99 117 0
108 124 0
112 132 0
105 123 0
102 119 0
111 128 0
122 142 0
107 124 0
116 134 0
118 135 0
124 142 0
120 137 0
125 143 0
114 132 0
126 143 0
127 146 0
121 139 0
128 146 0
119 138 0
114 132 0
124 143 0
131 150 0
112 130 0
119 137 0
126 144 0
126 145 0
123 143 0
117 135 0
134 153 0
140 159 0
126 144 0
129 149 0
122 140 0
124 143 0
128 145 0
130 148 0
134 153 0
140 159 0
116 134 0
137 156 0
132 151 0
133 154 0
129 148 0
145 166 0
132 151 0
142 161 0
135 153 0
138 158 0
140 159 0
143 162 0
137 156 0
144 165 0
141 161 0
139 160 0
141 163 0
140 160 0
132 152 0
142 162 0
143 162 0
145 166 0
135 153 0
138 158 0
136 155 0
149 169 0
142 161 0
143 164 0
142 162 0
147 167 0
143 162 0
146 167 0
151 171 0
149 170 0
143 164 0
143 164 0
149 169 0
151 173 0
148 167 0
154 174 0
144 163 0
143 163 0
151 172 0
150 169 0
146 168 0
146 167 0
143 162 0
153 174 0
156 177 0
152 174 0
143 162 0
149 170 0
148 168 0
147 168 0
147 166 0
148 169 0
149 170 0
157 177 0
151 171 0
143 164 0
148 169 0
153 174 0
152 174 0
154 175 0
147 167 0
160 180 0
154 174 0
153 173 0
142 160 0
154 174 0
152 173 0
160 181 0
151 170 0
160 181 0
149 169 0
154 176 0
157 176 0
147 165 0
155 175 0
158 178 0
151 169 0
157 178 0
153 174 0
156 176 0
153 173 0
159 179 0
162 185 0
160 181 0
163 184 0
158 180 0
162 182 0
157 177 0
156 176 0
159 180 0
161 181 0
157 177 0
159 180 0
159 181 0
155 175 0
158 177 0
155 174 0
162 183 0
159 180 0
160 181 0
163 186 0
154 174 0
163 183 0
155 176 0
158 180 0
161 182 0
156 176 0
157 177 0
165 186 0
168 189 0
162 182 0
161 180 0
165 186 0
161 181 0
155 175 0
164 186 0
157 177 0
165 187 0
166 187 0
157 178 0
166 187 0
168 189 0
162 183 0
160 181 0
159 178 0
164 186 0
163 184 0
163 185 0
163 183 0
164 187 0
161 182 0
165 186 0
162 185 0
162 182 0
162 181 0
164 185 0
167 190 0
165 185 0
164 184 0
167 187 0
166 187 0
169 190 0
159 181 0
161 181 0
162 184 0
164 185 0
167 188 0
171 194 0
164 186 0
168 190 0
163 185 0
164 186 0
164 184 0
195 221 255
195 221 255
194 221 255
194 221 255
195 221 255
194 221 255
194 221 255
194 221 255
194 220 255
194 221 255
193 220 255
193 220 255
193 220 255
193 220 255
193 220 255
193 220 255
193 220 255
193 220 255
192 220 255
192 220 255
192 220 255
192 220 255
192 219 255
192 220 255
192 220 255
192 219 255
193 220 255
192 220 255
192 220 255
191 219 255
192 220 255
192 219 255
192 220 255
192 219 255
192 220 255
192 219 255
192 220 255
192 219 255
192 219 255
192 220 255
192 219 255
193 220 255
193 220 255
193 220 255
193 220 255
193 220 255
193 220 255
193 220 255
194 221 255
193 220 255
194 220 255
193 220 255
194 221 255
194 220 255
195 221 255
194 221 255
195 221 255
195 221 255
195 221 255
195 221 255
195 221 255
196 222 255
196 222 255
195 221 255
196 222 255
196 222 255
197 222 255
197 222 255
198 223 255
198 223 255
198 223 255
198 223 255
199 223 255
199 223 255
199 223 255
199 224 255
200 224 255
200 224 255
200 224 255
201 224 255
201 225 255
201 225 255
202 225 255
203 225 255
203 226 255
203 226 255
204 226 255
205 226 255
205 226 255
205 227 255
205 227 255
206 227 255
206 227 255
207 228 255
207 228 255
208 228 255
208 228 255
208 228 255
209 229 255
210 229 255
210 229 255
211 230 255
211 230 255
212 230 255
212 230 255
212 230 255
213 231 255
213 231 255
214 232 255
214 232 255
215 232 255
216 232 255
216 232 255
217 233 255
217 233 255
217 233 252
216 233 252
215 231 242
215 231 242
215 231 242
212 228 228
208 225 215
206 224 211
199 218 184
206 223 206
199 217 182
201 218 188
197 216 175
197 216 173
195 213 161
185 205 130
189 208 147
187 206 135
184 204 120
178 199 88
182 202 92
167 189 36
175 195 76
169 190 51
163 185 0
163 184 0
164 186 0
158 179 0
150 169 0
151 172 0
151 170 0
143 159 0
137 156 0
135 154 0
140 160 0
132 150 0
127 145 0
123 141 0
122 141 0
112 129 0
118 135 0
105 121 0
120 137 0
107 124 0
95 111 0
100 115 0
94 109 0
96 112 0
99 116 0
91 106 0
92 108 0
95 111 0
107 122 0
108 125 0
98 113 0
103 118 0
73 89 0
99 114 0
92 108 0
100 116 0
101 117 0
79 94 0
99 114 0
100 116 0
109 126 0
108 122 0
99 115 0
105 120 0
92 109 0
97 114 0
102 118 0
108 124 0
108 124 0
97 113 0
100 118 0
111 128 0
96 112 0
101 116 0
107 124 0
97 115 0
110 128 0
97 114 0
122 140 0
103 120 0
100 118 0
108 123 0
107 125 0
106 123 0
98 115 0
104 120 0
116 134 0
117 135 0
110 128 0
114 131 0
103 121 0
99 117 0
115 132 0
122 140 0
131 149 0
118 137 0
127 146 0
118 137 0
117 134 0
119 138 0
115 134 0
119 136 0
123 141 0
132 151 0
111 128 0
120 137 0
123 141 0
116 133 0
112 131 0
120 139 0
128 146 0
123 141 0
131 149 0
126 146 0
129 148 0
136 154 0
119 137 0
124 143 0
133 154 0
128 147 0
131 151 0
121 140 0
124 144 0
125 144 0
131 151 0
138 156 0
127 147 0
130 150 0
141 160 0
144 164 0
142 161 0
141 161 0
138 159 0
142 162 0
139 161 0
141 159 0
141 161 0
140 160 0
138 159 0
136 154 0
137 156 0
142 162 0
138 159 0
145 165 0
136 154 0
145 164 0
135 155 0
142 164 0
139 159 0
144 165 0
145 165 0
142 163 0
144 164 0
147 169 0
142 161 0
147 166 0
141 162 0
145 164 0
148 167 0
142 163 0
144 166 0
147 169 0
150 171 0
145 165 0
146 165 0
146 167 0
143 164 0
152 172 0
149 168 0
144 165 0
149 169 0
148 170 0
147 168 0
150 169 0
141 162 0
148 167 0
154 176 0
150 171 0
158 180 0
157 177 0
148 169 0
160 181 0
152 172 0
153 174 0
153 173 0
154 174 0
152 173 0
160 180 0
156 177 0
151 172 0
152 172 0
154 173 0
153 174 0
157 179 0
152 174 0
154 175 0
152 173 0
148 169 0
153 173 0
157 177 0
155 176 0
161 182 0
150 171 0
157 178 0
158 178 0
155 176 0
150 172 0
151 172 0
158 179 0
157 176 0
159 178 0
159 180 0
159 180 0
157 179 0
156 177 0
159 178 0
154 174 0
156 177 0
158 177 0
157 176 0
161 182 0
163 184 0
162 184 0
166 185 0
160 181 0
160 180 0
160 182 0
159 179 0
163 183 0
160 179 0
157 177 0
162 183 0
156 176 0
163 184 0
161 183 0
164 186 0
160 182 0
162 183 0
158 178 0
157 177 0
161 180 0
158 178 0
162 183 0
160 181 0
159 181 0
162 179 0
165 186 0
159 181 0
163 183 0
167 188 0
164 186 0
164 186 0
163 184 0
160 178 0
161 182 0
164 185 0
161 183 0
159 180 0
162 184 0
165 186 0
162 185 0
162 183 0
163 184 0
165 184 0
163 184 0
164 185 0
164 187 0
164 184 0
161 182 0
167 189 0
159 181 0
162 183 0
165 185 0
162 183 0
161 182 0
162 183 0
165 186 0
166 187 0
169 190 0
164 186 0
172 194 0
196 222 255
195 221 255
196 222 255
195 221 255
194 221 255
194 221 255
194 221 255
194 221 255
194 221 255
194 221 255
194 220 255
194 221 255
193 220 255
193 220 255
193 220 255
193 220 255
193 220 255
193 220 255
192 220 255
193 220 255
193 220 255
192 220 255
193 220 255
192 220 255
193 220 255
192 220 255
193 220 255
192 220 255
193 220 255
192 220 255
192 220 255
193 220 255
192 220 255
193 220 255
192 220 255
192 220 255
192 220 255
192 219 255
192 220 255
192 220 255
193 220 255
193 220 255
193 220 255
193 220 255
193 220 255
193 220 255
193 220 255
194 221 255
194 220 255
194 221 255
194 221 255
194 221 255
194 221 255
194 221 255
194 221 255
194 221 255
195 221 255
195 221 255
196 222 255
196 222 255
195 221 255
196 222 255
197 222 255
197 222 255
197 222 255
197 222 255
197 222 255
198 223 255
198 223 255
198 223 255
199 223 255
198 223 255
199 223 255
200 224 255
200 224 255
201 224 255
200 224 255
200 224 255
201 224 255
201 225 255
202 225 255
202 225 255
203 225 255
203 225 255
204 226 255
203 226 255
204 226 255
204 226 255
205 227 255
205 227 255
205 227 255
206 227 255
207 227 255
207 228 255
207 228 255
208 228 255
208 228 255
208 228 255
210 229 255
210 229 255
210 230 255
210 229 255
212 230 255
212 230 255
212 231 255
213 231 255
214 231 255
213 231 255
214 231 255
215 232 255
216 233 255
216 233 255
216 233 255
217 233 255
217 233 252
217 233 250
217 233 252
217 232 248
215 230 238
213 229 230
211 227 223
210 226 221
207 224 214
209 225 217
204 221 199
201 219 188
201 219 191
195 214 165
192 212 155
192 211 153
184 204 120
189 209 135
183 203 111
182 203 105
178 199 92
179 200 80
174 195 88
169 191 25
171 193 44
161 183 36
164 185 0
160 181 0
159 178 0
153 175 0
152 174 0
144 164 0
149 167 0
135 155 0
134 153 0
136 155 0
130 148 0
121 140 0
120 138 0
112 128 0
117 135 0
116 133 0
110 126 0
107 124 0
100 115 0
103 118 0
101 118 0
107 123 0
102 117 0
91 107 0
91 107 0
101 116 0
119 136 0
100 117 0
97 115 0
86 101 0
111 128 0
94 110 0
93 109 0
94 109 0
93 110 0
96 112 0
103 119 0
102 117 0
94 110 0
106 121 0
101 117 0
105 123 0
94 110 0
104 119 0
93 109 0
92 108 0
101 117 0
113 129 0
111 127 0
96 110 0
103 121 0
111 128 0
104 121 0
113 130 0
103 121 0
118 137 0
100 117 0
112 130 0
100 117 0
110 128 0
121 139 0
114 132 0
106 123 0
114 132 0
108 126 0
115 133 0
120 137 0
121 139 0
117 135 0
112 130 0
114 133 0
115 134 0
107 125 0
111 129 0
119 138 0
117 136 0
122 140 0
120 137 0
122 141 0
121 140 0
127 147 0
121 141 0
123 143 0
124 142 0
110 128 0
116 137 0
128 146 0
114 132 0
128 146 0
127 146 0
122 141 0
128 146 0
132 152 0
134 151 0
137 157 0
132 151 0
137 157 0
124 143 0
132 149 0
129 147 0
134 153 0
142 163 0
124 144 0
138 158 0
125 145 0
126 146 0
134 154 0
138 158 0
130 150 0
136 155 0
136 157 0
140 160 0
134 154 0
142 161 0
136 157 0
143 162 0
134 152 0
141 161 0
140 160 0
151 171 0
145 164 0
147 167 0
136 156 0
145 166 0
134 154 0
140 161 0
142 163 0
144 164 0
150 172 0
142 161 0
150 169 0
148 167 0
142 162 0
143 165 0
149 169 0
140 162 0
144 163 0
149 170 0
145 164 0
142 160 0
152 173 0
154 175 0
145 165 0
148 166 0
143 162 0
145 167 0
148 168 0
146 165 0
151 172 0
149 169 0
146 164 0
151 172 0
140 160 0
154 173 0
154 175 0
146 167 0
154 174 0
148 168 0
153 174 0
158 180 0
152 172 0
154 175 0
149 170 0
156 177 0
149 168 0
148 167 0
163 184 0
160 181 0
154 174 0
159 181 0
153 174 0
153 174 0
153 173 0
158 179 0
155 176 0
157 177 0
153 173 0
157 178 0
150 171 0
162 184 0
157 178 0
156 177 0
160 183 0
154 174 0
153 175 0
161 183 0
156 177 0
155 174 0
152 173 0
157 176 0
157 177 0
157 178 0
160 179 0
164 185 0
161 181 0
161 181 0
160 181 0
160 179 0
152 170 0
160 183 0
164 185 0
157 178 0
154 174 0
156 177 0
155 175 0
157 179 0
163 183 0
158 179 0
163 184 0
161 183 0
160 180 0
161 181 0
160 183 0
159 179 0
166 189 0
162 183 0
163 182 0
162 184 0
165 186 0
164 186 0
164 185 0
163 183 0
158 179 0
163 182 0
161 180 0
161 183 0
161 183 0
164 186 0
165 187 0
160 181 0
162 184 0
166 187 0
159 180 0
167 187 0
162 183 0
165 187 0
167 188 0
158 179 0
163 185 0
165 185 0
160 181 0
168 188 0
161 182 0
162 184 0
161 184 0
167 188 0
162 183 0
163 183 0
167 188 0
168 188 0
163 184 0
165 187 0
164 186 0
164 185 0
168 189 0
165 186 0
164 187 0
165 186 0
166 188 0
167 189 0
196 222 255
196 222 255
195 221 255
195 221 255
195 221 255
195 221 255
195 221 255
194 221 255
194 221 255
195 221 255
194 221 255
194 221 255
194 221 255
194 221 255
194 221 255
193 220 255
193 220 255
193 220 255
193 220 255
194 221 255
193 220 255
193 220 255
193 220 255
193 220 255
193 220 255
193 220 255
193 220 255
193 220 255
192 220 255
193 220 255
193 220 255
193 220 255
194 220 255
193 220 255
192 220 255
193 220 255
193 220 255
193 220 255
193 220 255
193 220 255
193 220 255
193 220 255
193 220 255
193 220 255
194 221 255
194 221 255
194 221 255
194 221 255
194 221 255
194 221 255
194 221 255
194 221 255
194 221 255
194 221 255
195 221 255
195 221 255
196 221 255
196 222 255
195 221 255
196 222 255
195 221 255
196 222 255
197 222 255
197 222 255
197 222 255
197 222 255
198 223 255
198 223 255
198 223 255
199 223 255
199 223 255
199 223 255
199 224 255
200 224 255
201 224 255
200 224 255
201 224 255
201 224 255
201 224 255
201 225 255
202 225 255
203 225 255
204 226 255
203 226 255
203 226 255
205 227 255
205 227 255
205 226 255
205 226 255
205 226 255
206 227 255
206 227 255
207 228 255
208 228 255
208 228 255
209 229 255
209 229 255
209 229 255
210 229 255
211 230 255
210 230 255
211 230 255
212 230 255
212 231 255
213 231 255
214 231 255
215 232 255
215 232 255
215 232 255
216 233 255
216 233 255
217 233 255
217 233 255
217 233 254
218 234 255
217 233 252
215 231 245
215 231 242
213 229 234
214 230 236
210 226 221
207 224 214
208 225 215
206 223 209
200 218 188
200 219 188
198 216 175
195 213 157
196 214 175
191 209 144
190 209 151
185 205 125
177 197 114
180 200 102
171 193 76
176 196 88
173 195 72
172 194 36
165 186 36
161 181 0
158 180 0
167 189 0
151 172 0
152 172 0
153 173 0
150 171 0
145 164 0
143 163 0
133 153 0
143 161 0
125 144 0
122 139 0
133 153 0
114 132 0
119 138 0
101 118 0
118 136 0
103 120 0
110 126 0
103 118 0
110 127 0
109 126 0
94 111 0
109 125 0
105 121 0
94 110 0
92 108 0
103 119 0
93 108 0
110 126 0
102 119 0
91 108 0
94 110 0
91 107 0
101 117 0
101 117 0
107 123 0
109 125 0
100 117 0
105 123 0
104 120 0
100 116 0
107 123 0
102 118 0
95 111 0
101 117 0
111 129 0
105 123 0
115 132 0
100 117 0
103 119 0
104 121 0
96 114 0
111 128 0
105 121 0
112 128 0
110 128 0
116 133 0
97 114 0
110 128 0
119 136 0
110 127 0
115 132 0
115 134 0
113 132 0
109 129 0
124 142 0
110 129 0
117 135 0
118 135 0
120 139 0
120 137 0
115 134 0
118 137 0
123 141 0
117 136 0
123 142 0
119 138 0
127 147 0
128 146 0
115 133 0
118 136 0
117 137 0
120 140 0
128 147 0
130 148 0
121 140 0
124 142 0
126 146 0
117 136 0
136 155 0
126 143 0
129 148 0
131 149 0
137 156 0
124 142 0
136 155 0
127 146 0
131 150 0
133 154 0
129 148 0
130 150 0
131 150 0
128 148 0
130 151 0
144 165 0
135 156 0
143 162 0
140 160 0
137 157 0
137 158 0
133 154 0
141 161 0
131 150 0
143 163 0
135 155 0
134 154 0
136 156 0
142 163 0
146 167 0
140 159 0
135 154 0
144 165 0
143 163 0
134 153 0
151 172 0
134 153 0
139 158 0
134 152 0
146 165 0
145 164 0
145 165 0
146 166 0
137 158 0
141 162 0
148 168 0
150 169 0
147 168 0
145 166 0
147 167 0
143 162 0
144 165 0
147 169 0
144 164 0
150 170 0
147 167 0
142 163 0
152 173 0
144 163 0
145 165 0
156 176 0
149 169 0
151 170 0
148 170 0
150 170 0
153 173 0
158 180 0
146 165 0
159 180 0
154 173 0
150 169 0
158 179 0
157 178 0
155 176 0
157 178 0
155 176 0
157 177 0
155 174 0
159 181 0
148 169 0
151 172 0
148 166 0
153 173 0
161 182 0
160 182 0
157 178 0
158 179 0
153 174 0
156 175 0
154 174 0
160 181 0
154 175 0
153 175 0
153 174 0
158 179 0
157 178 0
154 175 0
159 181 0
151 173 0
159 179 0
160 180 0
159 181 0
157 179 0
155 174 0
159 182 0
156 176 0
160 182 0
161 180 0
163 184 0
157 176 0
161 182 0
164 185 0
157 177 0
166 187 0
156 177 0
160 180 0
164 185 0
159 180 0
168 190 0
161 182 0
156 178 0
163 183 0
162 184 0
153 172 0
163 184 0
163 183 0
164 185 0
161 184 0
161 183 0
162 184 0
153 174 0
162 181 0
162 181 0
163 184 0
163 185 0
160 179 0
170 192 0
161 182 0
165 186 0
167 188 0
162 184 0
161 183 0
163 182 0
163 184 0
159 180 0
161 181 0
161 183 0
167 187 0
161 183 0
166 188 0
168 190 0
162 183 0
162 183 0
166 187 0
170 192 0
166 187 0
166 188 0
166 187 0
161 182 0
168 190 0
161 182 0
162 184 0
163 187 0
161 182 0
166 188 0
168 190 0
163 182 0
165 186 0
163 184 0
168 191 0
197 222 255
196 222 255
195 221 255
196 222 255
196 222 255
195 221 255
195 221 255
195 221 255
195 221 255
194 221 255
194 221 255
195 221 255
194 221 255
194 221 255
194 221 255
194 221 255
194 221 255
193 220 255
194 221 255
194 221 255
193 220 255
193 220 255
194 220 255
193 220 255
194 221 255
193 220 255
193 220 255
193 220 255
194 220 255
192 220 255
193 220 255
193 220 255
193 220 255
193 220 255
193 220 255
193 220 255
194 221 255
193 220 255
194 221 255
193 220 255
194 221 255
193 220 255
194 221 255
194 220 255
193 220 255
194 221 255
195 221 255
194 221 255
195 221 255
195 221 255
195 221 255
195 221 255
196 221 255
195 221 255
195 221 255
196 222 255
196 222 255
195 221 255
196 222 255
196 222 255
197 223 255
197 222 255
197 222 255
197 222 255
198 223 255
199 223 255
198 223 255
199 223 255
198 223 255
198 223 255
200 224 255
199 223 255
201 224 255
200 224 255
200 224 255
201 225 255
201 224 255
202 225 255
202 225 255
202 225 255
202 225 255
203 225 255
203 226 255
204 226 255
205 227 255
205 226 255
205 227 255
205 226 255
205 227 255
206 227 255
207 228 255
207 228 255
208 228 255
208 228 255
208 228 255
209 229 255
209 229 255
210 229 255
210 229 255
210 230 255
211 230 255
212 230 255
212 230 255
212 231 255
214 231 255
213 231 255
214 231 255
215 232 255
215 232 255
216 233 255
216 233 255
217 233 255
218 233 254
218 234 255
217 233 253
217 233 249
215 231 241
217 232 248
211 228 228
207 225 215
207 225 217
212 228 228
206 223 206
203 221 201
202 220 193
197 215 173
193 212 161
195 214 161
189 208 144
193 210 155
186 207 130
182 203 117
185 204 117
178 200 95
175 198 84
173 195 51
175 197 67
169 190 51
161 182 36
162 183 0
159 180 0
160 182 0
159 181 0
152 174 0
152 172 0
144 166 0
150 169 0
142 162 0
135 155 0
145 166 0
139 161 0
120 139 0
136 154 0
111 129 0
120 138 0
113 132 0
120 138 0
121 139 0
108 125 0
107 124 0
109 126 0
114 129 0
109 124 0
97 113 0
107 125 0
103 118 0
107 124 0
87 104 0
98 116 0
103 119 0
92 108 0
98 114 0
109 126 0
107 124 0
94 111 0
106 121 0
100 116 0
115 131 0
96 115 0
117 132 0
102 119 0
94 108 0
105 120 0
104 120 0
96 113 0
104 121 0
108 125 0
105 122 0
97 114 0
111 128 0
106 122 0
100 118 0
89 105 0
108 124 0
108 125 0
125 142 0
124 142 0
107 123 0
116 134 0
101 118 0
130 149 0
111 127 0
113 131 0
112 129 0
112 128 0
111 129 0
115 131 0
109 127 0
106 124 0
118 137 0
108 127 0
106 123 0
116 134 0
121 138 0
126 144 0
116 134 0
110 128 0
118 136 0
128 147 0
126 144 0
114 133 0
128 147 0
118 137 0
116 133 0
119 138 0
125 143 0
121 141 0
123 143 0
124 143 0
130 151 0
130 150 0
135 155 0
123 141 0
140 160 0
134 154 0
122 140 0
128 146 0
131 151 0
128 146 0
127 147 0
128 148 0
134 153 0
136 155 0
136 155 0
134 155 0
140 159 0
143 163 0
134 153 0
141 162 0
142 164 0
143 165 0
137 158 0
140 160 0
144 163 0
146 166 0
140 160 0
135 154 0
140 162 0
143 164 0
139 161 0
137 157 0
143 162 0
143 165 0
124 144 0
146 165 0
149 169 0
141 161 0
147 168 0
149 170 0
144 164 0
145 164 0
146 167 0
157 179 0
147 167 0
150 170 0
147 168 0
148 168 0
150 170 0
142 163 0
147 169 0
141 163 0
143 163 0
150 171 0
148 169 0
142 162 0
154 175 0
151 171 0
149 171 0
155 176 0
148 169 0
158 178 0
154 174 0
150 171 0
143 163 0
148 167 0
155 173 0
149 169 0
145 164 0
158 179 0
149 170 0
156 176 0
147 167 0
149 168 0
148 167 0
156 175 0
156 177 0
150 172 0
153 174 0
159 180 0
154 174 0
154 175 0
148 169 0
151 172 0
159 181 0
151 174 0
146 166 0
156 177 0
157 178 0
152 172 0
155 178 0
158 180 0
151 172 0
160 181 0
150 171 0
158 180 0
147 167 0
155 176 0
157 177 0
155 176 0
158 179 0
157 177 0
160 181 0
162 184 0
159 179 0
158 179 0
160 181 0
163 183 0
155 175 0
162 184 0
153 175 0
159 181 0
157 177 0
165 186 0
160 180 0
163 185 0
163 185 0
162 184 0
159 180 0
159 181 0
164 184 0
163 186 0
158 179 0
160 182 0
163 184 0
164 184 0
160 181 0
157 179 0
161 179 0
161 182 0
163 184 0
156 177 0
165 187 0
166 188 0
160 182 0
163 185 0
170 190 0
160 181 0
162 183 0
161 181 0
161 180 0
166 187 0
159 179 0
160 181 0
167 189 0
158 178 0
164 186 0
161 182 0
160 183 0
168 189 0
161 182 0
163 185 0
165 187 0
165 187 0
160 181 0
166 188 0
163 185 0
166 187 0
168 189 0
164 185 0
167 188 0
168 191 0
164 186 0
167 188 0
166 187 0
164 185 0
167 189 0
166 188 0
170 191 0
165 186 0
166 188 0
198 223 255
196 222 255
196 222 255
197 222 255
196 222 255
196 222 255
196 222 255
195 221 255
195 221 255
195 221 255
194 221 255
196 222 255
195 221 255
195 221 255
195 221 255
194 221 255
195 221 255
194 221 255
194 221 255
194 221 255
195 221 255
194 221 255
194 221 255
194 220 255
194 221 255
194 221 255
193 220 255
194 221 255
194 221 255
193 220 255
194 221 255
193 220 255
194 220 255
193 220 255
194 221 255
194 221 255
194 221 255
194 220 255
194 221 255
195 221 255
194 221 255
194 221 255
194 221 255
195 221 255
194 221 255
196 221 255
195 221 255
195 221 255
195 221 255
195 221 255
196 222 255
196 222 255
195 221 255
196 222 255
196 222 255
196 222 255
196 222 255
196 222 255
197 222 255
197 222 255
197 222 255
197 222 255
197 222 255
198 223 255
198 223 255
199 223 255
198 223 255
199 223 255
200 224 255
199 223 255
200 224 255
200 224 255
200 224 255
201 224 255
201 224 255
201 224 255
201 225 255
203 225 255
202 225 255
203 226 255
203 225 255
203 225 255
203 226 255
205 226 255
205 226 255
205 226 255
205 227 255
205 227 255
206 227 255
207 228 255
208 228 255
207 228 255
208 228 255
209 229 255
208 228 255
209 229 255
210 229 255
211 230 255
210 229 255
211 230 255
212 230 255
212 230 255
212 231 255
213 231 255
214 231 255
213 231 255
214 232 255
215 232 255
215 232 255
216 232 255
217 233 255
218 234 255
217 233 253
217 233 253
217 233 250
216 232 245
213 230 238
213 229 233
213 229 233
208 225 217
206 223 209
208 225 212
201 219 189
202 220 189
199 218 181
194 213 161
195 214 169
192 211 151
190 209 147
190 209 149
187 207 135
184 204 122
181 202 102
180 201 102
173 195 76
173 195 76
168 189 36
168 190 44
165 187 25
162 183 0
164 185 0
167 187 0
165 185 0
153 174 0
153 175 0
156 177 0
155 175 0
146 167 0
138 158 0
127 147 0
141 160 0
135 153 0
125 144 0
117 136 0
115 133 0
125 144 0
117 135 0
98 114 0
101 119 0
111 127 0
111 127 0
101 118 0
108 124 0
100 117 0
108 125 0
117 133 0
100 117 0
100 116 0
104 122 0
106 123 0
111 128 0
90 107 0
94 110 0
106 123 0
92 108 0
98 114 0
98 114 0
97 114 0
102 120 0
110 127 0
100 116 0
108 126 0
114 132 0
110 127 0
107 123 0
115 132 0
107 124 0
110 127 0
103 121 0
108 125 0
120 138 0
103 121 0
99 118 0
121 138 0
105 124 0
111 130 0
116 134 0
108 126 0
104 122 0
113 131 0
121 138 0
121 138 0
105 121 0
118 136 0
114 132 0
111 129 0
111 130 0
117 135 0
114 132 0
104 121 0
114 133 0
133 151 0
121 140 0
118 136 0
105 123 0
135 154 0
115 132 0
118 136 0
116 135 0
123 141 0
113 132 0
121 139 0
126 145 0
130 149 0
121 138 0
131 150 0
131 149 0
117 135 0
131 150 0
129 149 0
134 153 0
118 139 0
116 135 0
130 149 0
141 161 0
126 145 0
126 146 0
138 158 0
138 158 0
126 146 0
144 165 0
132 153 0
141 162 0
137 156 0
132 152 0
133 154 0
138 159 0
130 151 0
135 155 0
129 148 0
142 163 0
135 154 0
141 161 0
140 157 0
139 159 0
143 162 0
139 159 0
130 149 0
136 155 0
131 152 0
137 158 0
140 161 0
143 163 0
142 162 0
137 157 0
150 170 0
143 162 0
139 160 0
143 164 0
130 149 0
150 171 0
140 160 0
141 161 0
142 163 0
144 163 0
144 164 0
150 171 0
145 166 0
147 166 0
145 165 0
148 167 0
145 163 0
152 172 0
150 171 0
151 172 0
144 164 0
148 169 0
148 167 0
151 173 0
151 173 0
153 173 0
154 176 0
155 176 0
153 176 0
146 169 0
151 172 0
150 173 0
150 169 0
159 179 0
153 172 0
163 184 0
141 161 0
152 172 0
158 179 0
147 169 0
151 172 0
153 174 0
157 177 0
161 182 0
152 173 0
157 177 0
157 178 0
160 182 0
154 175 0
160 182 0
152 171 0
155 175 0
162 184 0
160 180 0
154 175 0
159 180 0
160 181 0
160 181 0
158 177 0
159 181 0
155 176 0
156 178 0
162 183 0
155 175 0
158 179 0
159 181 0
156 178 0
157 178 0
152 173 0
163 185 0
161 183 0
162 184 0
157 178 0
155 176 0
161 181 0
162 183 0
159 180 0
154 174 0
162 185 0
162 184 0
167 189 0
162 183 0
155 175 0
160 181 0
161 181 0
160 182 0
160 182 0
163 186 0
163 186 0
163 183 0
162 184 0
161 184 0
165 187 0
163 184 0
163 185 0
165 187 0
158 178 0
159 180 0
165 186 0
161 181 0
162 184 0
160 182 0
165 186 0
165 187 0
159 180 0
165 187 0
161 183 0
165 186 0
159 180 0
165 185 0
164 186 0
162 184 0
165 186 0
166 188 0
163 185 0
168 190 0
167 188 0
166 188 0
160 180 0
166 188 0
165 187 0
161 183 0
163 184 0
166 187 0
165 186 0
166 188 0
163 184 0
163 185 0
163 186 0
168 189 0
167 190 0
170 192 0
164 183 0
162 184 0
165 187 0
198 223 255
197 222 255
198 223 255
197 222 255
197 222 255
196 222 255
196 222 255
196 222 255
196 222 255
195 221 255
195 221 255
195 221 255
195 221 255
195 221 255
194 221 255
195 221 255
195 221 255
195 221 255
195 221 255
194 221 255
195 221 255
195 221 255
194 221 255
194 221 255
195 221 255
194 220 255
194 221 255
194 221 255
194 221 255
194 220 255
193 220 255
194 221 255
194 221 255
194 221 255
194 221 255
195 221 255
194 221 255
194 221 255
195 221 255
195 221 255
194 221 255
195 221 255
195 221 255
195 221 255
195 221 255
195 221 255
195 221 255
196 222 255
196 222 255
195 221 255
196 222 255
196 222 255
196 222 255
196 222 255
197 222 255
196 222 255
197 222 255
198 223 255
197 222 255
197 222 255
197 222 255
198 223 255
198 223 255
199 223 255
199 223 255
200 224 255
199 224 255
199 223 255
200 224 255
200 224 255
200 224 255
201 224 255
201 224 255
200 224 255
201 224 255
202 225 255
202 225 255
203 225 255
202 225 255
203 225 255
204 226 255
204 226 255
205 227 255
205 227 255
205 226 255
205 227 255
205 227 255
206 227 255
206 227 255
207 228 255
208 228 255
208 228 255
208 228 255
208 228 255
210 229 255
210 229 255
210 229 255
211 230 255
211 230 255
212 230 255
212 230 255
213 231 255
213 231 255
214 232 255
214 232 255
214 232 255
215 232 255
215 232 255
215 232 255
216 233 255
217 233 255
217 233 255
218 234 255
216 232 250
214 230 241
216 231 244
215 231 240
209 226 221
209 225 218
208 225 214
210 226 220
204 222 199
204 221 201
199 218 181
198 217 177
195 214 165
194 212 165
189 208 149
187 207 130
193 212 159
186 206 130
179 200 99
181 201 108
178 199 84
179 200 95
170 192 44
171 192 67
168 191 44
165 188 0
163 186 0
167 188 0
160 182 0
157 180 0
159 178 0
150 172 0
146 166 0
142 162 0
141 159 0
145 165 0
135 154 0
138 157 0
118 137 0
129 148 0
132 151 0
110 129 0
123 141 0
109 126 0
108 125 0
115 133 0
106 123 0
98 114 0
108 126 0
121 137 0
113 130 0
102 119 0
100 116 0
97 114 0
106 123 0
100 117 0
114 131 0
114 132 0
104 121 0
108 125 0
101 119 0
98 114 0
112 129 0
94 111 0
100 118 0
112 129 0
115 132 0
100 118 0
111 128 0
106 123 0
91 108 0
101 118 0
104 121 0
105 121 0
122 140 0
115 133 0
108 125 0
105 123 0
104 121 0
117 136 0
105 123 0
104 122 0
109 128 0
116 133 0
109 127 0
111 128 0
124 141 0
108 125 0
112 130 0
109 126 0
122 140 0
130 148 0
119 138 0
112 130 0
125 143 0
119 137 0
117 135 0
111 130 0
123 142 0
121 140 0
121 139 0
124 143 0
127 146 0
116 134 0
126 145 0
124 143 0
122 141 0
122 143 0
126 146 0
127 146 0
132 153 0
124 144 0
120 140 0
121 139 0
138 157 0
128 146 0
130 149 0
129 148 0
131 149 0
134 154 0
125 144 0
131 150 0
135 154 0
131 150 0
134 154 0
133 153 0
137 157 0
125 145 0
130 150 0
141 162 0
137 158 0
133 151 0
135 156 0
131 149 0
140 160 0
139 161 0
127 147 0
142 163 0
141 162 0
141 161 0
146 167 0
143 164 0
136 156 0
145 164 0
136 157 0
144 166 0
141 161 0
137 157 0
149 169 0
140 161 0
148 169 0
144 165 0
143 163 0
144 164 0
142 162 0
140 161 0
148 170 0
147 167 0
147 169 0
146 166 0
148 168 0
144 165 0
140 159 0
153 174 0
147 168 0
149 170 0
144 164 0
146 167 0
149 169 0
142 163 0
156 177 0
149 170 0
151 173 0
148 170 0
155 176 0
151 171 0
151 171 0
151 172 0
147 167 0
151 170 0
150 170 0
150 172 0
155 176 0
145 166 0
151 171 0
151 172 0
156 178 0
153 174 0
155 176 0
153 173 0
151 171 0
156 177 0
157 179 0
155 175 0
149 172 0
154 175 0
156 176 0
158 179 0
154 176 0
149 169 0
150 171 0
156 177 0
156 178 0
159 181 0
155 175 0
157 178 0
156 174 0
149 170 0
161 183 0
160 182 0
157 177 0
163 184 0
159 181 0
161 182 0
155 177 0
160 182 0
160 181 0
156 176 0
156 177 0
158 180 0
155 175 0
158 179 0
163 184 0
160 180 0
156 178 0
160 182 0
156 176 0
162 181 0
160 182 0
158 179 0
162 184 0
156 176 0
159 179 0
159 180 0
161 183 0
157 176 0
163 185 0
160 180 0
163 185 0
165 185 0
166 188 0
162 184 0
162 183 0
161 182 0
160 183 0
166 186 0
163 183 0
159 182 0
164 186 0
158 177 0
160 180 0
165 186 0
163 183 0
159 181 0
165 186 0
164 186 0
167 189 0
165 187 0
164 185 0
164 186 0
161 183 0
164 186 0
161 183 0
163 184 0
165 187 0
164 186 0
166 188 0
161 182 0
164 185 0
166 189 0
161 183 0
160 181 0
165 186 0
167 188 0
163 184 0
168 189 0
160 180 0
164 186 0
161 182 0
170 191 0
166 189 0
161 182 0
165 187 0
165 186 0
164 186 0
165 187 0
168 189 0
198 223 255
197 222 255
198 223 255
197 222 255
197 222 255
197 222 255
197 222 255
197 222 255
196 222 255
196 222 255
195 221 255
196 222 255
196 222 255
195 221 255
196 222 255
195 221 255
195 221 255
195 221 255
195 221 255
195 221 255
194 221 255
195 221 255
195 221 255
194 221 255
195 221 255
194 221 255
194 221 255
194 221 255
195 221 255
195 221 255
194 221 255
195 221 255
195 221 255
194 221 255
194 221 255
194 221 255
195 221 255
195 221 255
195 221 255
194 221 255
195 221 255
196 222 255
195 221 255
196 222 255
196 222 255
196 221 255
196 222 255
196 221 255
195 221 255
196 222 255
196 222 255
196 222 255
196 222 255
196 222 255
197 222 255
197 222 255
197 222 255
198 223 255
198 223 255
198 223 255
199 223 255
198 223 255
199 223 255
199 224 255
199 223 255
200 224 255
200 224 255
200 224 255
201 224 255
201 224 255
201 224 255
201 225 255
202 225 255
202 225 255
202 225 255
202 225 255
203 226 255
203 226 255
204 226 255
204 226 255
205 226 255
205 226 255
205 227 255
205 226 255
206 227 255
205 227 255
207 227 255
206 227 255
207 228 255
208 228 255
208 228 255
209 229 255
208 228 255
209 229 255
210 229 255
210 229 255
211 230 255
211 230 255
211 230 255
212 230 255
213 231 255
213 231 255
213 231 255
213 231 255
214 232 255
215 232 255
215 232 255
216 233 255
216 233 255
217 233 255
218 233 255
217 233 252
217 233 250
217 232 246
216 232 245
217 232 245
210 227 226
213 229 231
212 228 230
209 226 223
206 223 207
206 223 207
204 221 196
195 214 169
201 218 189
195 214 165
196 215 175
191 210 149
183 204 120
188 208 133
183 204 105
184 205 114
180 201 108
179 200 84
169 190 72
168 191 25
169 191 44
167 190 25
163 185 0
165 186 0
162 185 0
153 175 0
164 186 0
158 178 0
158 179 0
151 172 0
144 164 0
142 163 0
131 149 0
137 157 0
123 140 0
126 145 0
131 150 0
134 152 0
126 145 0
127 146 0
114 132 0
123 141 0
112 129 0
125 142 0
110 128 0
113 130 0
110 128 0
104 121 0
103 120 0
108 125 0
96 112 0
111 129 0
110 129 0
106 124 0
114 132 0
106 123 0
99 116 0
99 116 0
104 121 0
103 120 0
106 123 0
103 120 0
103 122 0
103 120 0
108 126 0
90 108 0
116 134 0
104 121 0
117 134 0
117 134 0
99 115 0
108 126 0
106 123 0
104 120 0
99 117 0
106 125 0
110 129 0
117 135 0
106 122 0
109 126 0
118 138 0
112 130 0
112 131 0
117 134 0
121 140 0
115 133 0
123 141 0
123 141 0
112 131 0
119 137 0
114 132 0
113 131 0
117 136 0
122 141 0
119 139 0
121 140 0
117 135 0
110 128 0
122 141 0
114 130 0
126 145 0
134 153 0
138 157 0
133 152 0
124 143 0
135 154 0
137 156 0
134 154 0
124 143 0
126 147 0
136 156 0
122 141 0
135 154 0
140 159 0
117 136 0
122 143 0
136 157 0
131 150 0
132 151 0
131 151 0
132 151 0
130 148 0
128 148 0
128 147 0
138 158 0
128 148 0
130 149 0
148 169 0
141 161 0
142 162 0
125 144 0
137 157 0
136 156 0
143 164 0
143 162 0
138 159 0
133 153 0
144 164 0
139 160 0
141 161 0
136 157 0
143 164 0
147 168 0
140 161 0
151 172 0
149 170 0
144 164 0
142 163 0
140 160 0
144 166 0
149 171 0
151 172 0
148 170 0
137 157 0
151 171 0
138 157 0
143 164 0
155 175 0
137 157 0
136 157 0
146 168 0
148 169 0
148 168 0
148 169 0
150 171 0
149 168 0
142 161 0
149 168 0
149 169 0
149 168 0
147 167 0
151 172 0
153 173 0
152 171 0
148 169 0
153 174 0
151 173 0
153 172 0
159 182 0
155 177 0
151 172 0
150 171 0
145 165 0
147 166 0
151 170 0
151 170 0
153 172 0
153 173 0
153 172 0
154 174 0
149 169 0
153 174 0
158 178 0
164 185 0
161 182 0
152 175 0
152 172 0
156 178 0
152 172 0
157 178 0
151 172 0
153 174 0
158 179 0
161 181 0
159 179 0
158 179 0
155 176 0
159 180 0
158 179 0
159 180 0
151 171 0
156 178 0
158 181 0
155 176 0
162 183 0
161 181 0
161 182 0
158 178 0
158 179 0
158 179 0
164 185 0
161 183 0
155 177 0
154 175 0
160 181 0
161 183 0
164 186 0
161 183 0
154 175 0
158 178 0
161 182 0
163 185 0
168 188 0
159 181 0
164 187 0
154 174 0
162 183 0
165 186 0
166 186 0
163 185 0
159 178 0
162 182 0
162 183 0
161 182 0
162 183 0
162 185 0
158 180 0
161 183 0
157 178 0
161 182 0
159 180 0
163 184 0
162 183 0
167 189 0
162 183 0
163 184 0
164 186 0
163 185 0
165 185 0
156 176 0
157 178 0
163 182 0
166 187 0
163 185 0
167 189 0
165 188 0
169 191 0
164 185 0
164 186 0
156 177 0
166 187 0
165 188 0
166 189 0
167 189 0
169 191 0
164 184 0
166 186 0
164 184 0
168 190 0
164 187 0
167 188 0
165 187 0
166 188 0
165 185 0
198 223 255
198 223 255
198 223 255
197 222 255
197 222 255
198 223 255
197 222 255
197 222 255
197 222 255
196 222 255
196 222 255
197 222 255
195 221 255
196 222 255
196 222 255
196 222 255
195 221 255
196 221 255
195 221 255
195 221 255
195 221 255
195 221 255
195 221 255
195 221 255
194 221 255
195 221 255
195 221 255
195 221 255
195 221 255
195 221 255
195 221 255
195 221 255
195 221 255
195 221 255
195 221 255
195 221 255
196 222 255
195 221 255
196 221 255
195 221 255
196 222 255
196 222 255
196 221 255
196 221 255
195 221 255
196 221 255
196 222 255
197 222 255
196 222 255
197 222 255
197 222 255
197 222 255
198 223 255
197 222 255
197 222 255
198 223 255
198 223 255
198 223 255
198 223 255
198 223 255
199 223 255
199 224 255
199 223 255
199 224 255
200 224 255
200 224 255
201 224 255
201 224 255
201 224 255
201 225 255
201 224 255
201 225 255
202 225 255
202 225 255
203 225 255
202 225 255
204 226 255
204 226 255
203 226 255
204 226 255
205 226 255
205 226 255
205 227 255
206 227 255
206 227 255
207 227 255
207 227 255
207 228 255
208 228 255
208 228 255
208 228 255
209 229 255
209 229 255
210 229 255
210 229 255
211 230 255
211 230 255
211 230 255
212 231 255
212 230 255
213 231 255
213 231 255
214 232 255
214 232 255
215 232 255
215 232 255
216 233 255
216 233 255
217 233 255
218 233 255
215 232 250
216 232 249
217 232 249
217 233 249
213 230 237
215 231 241
212 228 230
213 229 231
211 227 226
208 225 214
204 221 203
200 218 181
201 218 184
198 216 182
195 214 163
194 212 163
192 211 153
189 208 144
185 205 125
190 209 149
180 202 92
182 203 114
176 197 102
178 199 92
176 198 76
173 195 36
164 186 0
166 188 0
164 184 0
161 184 0
164 187 0
167 188 0
159 180 0
155 176 0
150 171 0
148 170 0
153 173 0
137 156 0
152 172 0
140 158 0
131 149 0
127 145 0
117 134 0
124 144 0
119 138 0
111 130 0
120 140 0
122 140 0
116 133 0
106 124 0
100 117 0
109 127 0
116 134 0
99 116 0
109 126 0
109 126 0
105 122 0
100 118 0
122 139 0
111 127 0
101 118 0
123 140 0
113 131 0
92 109 0
110 128 0
98 114 0
98 116 0
106 123 0
113 130 0
100 118 0
99 115 0
109 127 0
116 135 0
111 129 0
108 126 0
107 125 0
121 140 0
117 136 0
125 143 0
123 139 0
119 137 0
116 135 0
117 136 0
108 126 0
114 131 0
119 137 0
125 144 0
117 135 0
106 125 0
119 138 0
108 126 0
112 130 0
108 126 0
128 146 0
125 144 0
113 131 0
119 137 0
120 139 0
130 149 0
130 151 0
125 143 0
124 142 0
129 148 0
119 138 0
118 136 0
123 144 0
124 142 0
128 147 0
125 145 0
135 155 0
127 146 0
127 146 0
126 147 0
134 153 0
131 150 0
127 146 0
137 157 0
119 139 0
131 152 0
136 156 0
134 154 0
140 161 0
134 153 0
134 154 0
135 154 0
128 147 0
134 154 0
133 152 0
128 148 0
131 151 0
135 154 0
131 152 0
141 160 0
138 158 0
146 165 0
144 166 0
134 154 0
126 146 0
128 148 0
138 159 0
141 161 0
131 153 0
142 162 0
143 164 0
143 164 0
143 164 0
145 166 0
142 162 0
143 163 0
142 162 0
144 165 0
142 162 0
140 159 0
142 164 0
142 162 0
144 162 0
144 163 0
148 170 0
134 156 0
153 173 0
149 170 0
141 162 0
141 161 0
155 177 0
155 176 0
150 172 0
144 164 0
147 167 0
145 164 0
149 171 0
155 175 0
159 180 0
146 167 0
153 176 0
147 166 0
149 170 0
150 171 0
156 178 0
156 176 0
147 166 0
151 172 0
151 173 0
148 169 0
149 170 0
152 173 0
155 177 0
155 177 0
152 172 0
158 179 0
151 172 0
153 175 0
154 173 0
157 177 0
153 173 0
159 182 0
150 170 0
154 175 0
152 172 0
156 178 0
155 178 0
159 180 0
154 175 0
163 184 0
154 174 0
154 174 0
161 183 0
154 175 0
157 178 0
159 181 0
160 181 0
158 181 0
156 178 0
153 173 0
157 177 0
160 180 0
163 183 0
161 183 0
160 180 0
159 181 0
162 183 0
155 177 0
159 180 0
154 175 0
160 180 0
155 176 0
162 183 0
162 184 0
161 184 0
166 188 0
158 180 0
158 178 0
163 185 0
163 185 0
158 180 0
161 181 0
157 179 0
165 186 0
159 181 0
163 185 0
158 179 0
165 187 0
164 185 0
158 180 0
158 178 0
162 183 0
162 184 0
163 184 0
162 182 0
162 182 0
160 181 0
160 184 0
161 181 0
165 186 0
163 184 0
164 186 0
162 183 0
164 185 0
162 184 0
168 189 0
162 182 0
166 188 0
163 184 0
166 188 0
166 189 0
161 184 0
168 191 0
165 186 0
162 183 0
168 191 0
169 190 0
167 189 0
162 184 0
163 184 0
164 187 0
168 189 0
164 186 0
163 185 0
163 186 0
170 191 0
165 187 0
163 185 0
162 182 0
164 185 0
165 187 0
160 180 0
164 184 0
165 187 0
168 190 0
165 187 0
167 190 0
199 223 255
198 223 255
198 223 255
198 223 255
198 223 255
198 223 255
197 222 255
197 222 255
198 223 255
197 222 255
196 222 255
197 222 255
196 222 255
196 222 255
197 222 255
197 222 255
196 222 255
196 222 255
196 222 255
197 222 255
196 222 255
196 222 255
196 222 255
196 222 255
196 222 255
196 222 255
195 221 255
196 222 255
195 221 255
196 221 255
196 222 255
194 221 255
196 222 255
196 222 255
196 222 255
196 221 255
196 222 255
195 221 255
196 222 255
196 221 255
196 222 255
196 222 255
196 222 255
197 222 255
196 222 255
197 222 255
196 222 255
197 222 255
197 222 255
197 222 255
197 222 255
197 222 255
198 223 255
197 222 255
197 223 255
199 223 255
198 223 255
199 223 255
200 224 255
198 223 255
199 223 255
199 223 255
199 223 255
200 224 255
200 224 255
200 224 255
200 224 255
201 225 255
201 224 255
202 225 255
202 225 255
202 225 255
202 225 255
203 226 255
203 226 255
203 225 255
204 226 255
203 225 255
205 227 255
205 226 255
204 226 255
205 227 255
206 227 255
206 227 255
206 227 255
207 227 255
208 228 255
206 227 255
208 228 255
208 228 255
209 229 255
210 229 255
210 229 255
209 229 255
211 230 255
211 230 255
212 230 255
212 230 255
212 231 255
213 231 255
214 232 255
214 231 255
214 231 255
215 232 255
215 232 255
215 232 255
216 233 255
217 233 255
217 233 255
217 233 254
218 234 255
217 233 250
213 230 237
211 228 231
215 231 241
209 226 220
213 229 230
209 225 217
210 226 218
203 221 199
204 222 203
207 224 209
201 219 186
199 217 173
196 215 161
195 213 163
188 208 133
184 205 120
181 202 117
185 205 117
184 205 114
178 199 88
176 197 95
176 197 62
166 186 51
167 188 44
164 186 36
168 189 0
162 184 0
162 184 0
159 181 0
164 186 0
159 181 0
155 174 0
151 172 0
151 172 0
150 171 0
140 159 0
140 161 0
138 157 0
132 151 0
120 140 0
126 144 0
127 146 0
121 139 0
115 134 0
117 135 0
116 135 0
114 132 0
120 137 0
106 122 0
121 139 0
110 128 0
97 116 0
108 125 0
115 134 0
125 144 0
119 136 0
94 110 0
110 128 0
115 131 0
107 124 0
101 118 0
110 126 0
105 124 0
113 129 0
103 121 0
104 121 0
109 126 0
110 128 0
112 131 0
117 135 0
105 121 0
103 121 0
118 137 0
110 127 0
120 137 0
101 119 0
114 133 0
112 129 0
120 140 0
106 123 0
107 125 0
120 138 0
117 136 0
129 149 0
118 137 0
114 133 0
125 143 0
123 143 0
113 131 0
121 139 0
125 144 0
116 135 0
121 140 0
134 153 0
111 131 0
119 138 0
116 134 0
110 130 0
110 129 0
121 139 0
120 139 0
131 150 0
126 145 0
131 150 0
126 145 0
123 143 0
126 145 0
132 152 0
129 150 0
121 141 0
138 157 0
128 148 0
136 156 0
134 154 0
132 151 0
125 145 0
132 153 0
144 163 0
133 154 0
122 142 0
124 144 0
122 140 0
130 150 0
130 150 0
129 149 0
133 154 0
139 159 0
131 149 0
138 159 0
124 143 0
144 164 0
137 158 0
145 164 0
136 156 0
139 157 0
143 164 0
138 159 0
143 164 0
134 152 0
146 167 0
138 158 0
133 154 0
142 163 0
144 165 0
142 163 0
141 162 0
138 156 0
136 157 0
143 164 0
149 171 0
153 174 0
154 173 0
145 166 0
137 156 0
140 160 0
153 173 0
141 162 0
145 165 0
146 165 0
149 169 0
142 162 0
150 171 0
147 167 0
143 164 0
140 161 0
145 167 0
147 167 0
153 176 0
153 175 0
156 177 0
147 166 0
150 171 0
149 170 0
153 174 0
150 172 0
151 172 0
152 173 0
156 176 0
148 168 0
152 172 0
156 175 0
154 175 0
151 172 0
154 175 0
146 168 0
145 166 0
147 166 0
151 171 0
157 179 0
156 177 0
155 177 0
157 179 0
160 182 0
161 182 0
150 170 0
157 178 0
160 182 0
155 175 0
151 172 0
151 172 0
155 176 0
161 181 0
153 175 0
160 181 0
162 184 0
147 169 0
160 181 0
154 175 0
160 181 0
155 176 0
159 179 0
161 183 0
164 186 0
161 182 0
156 178 0
163 185 0
158 180 0
165 187 0
154 175 0
155 177 0
159 181 0
160 180 0
159 180 0
157 179 0
163 184 0
163 184 0
156 178 0
162 183 0
159 180 0
157 179 0
162 184 0
164 185 0
161 181 0
166 188 0
163 184 0
158 179 0
153 173 0
159 180 0
158 179 0
163 184 0
160 181 0
162 183 0
159 181 0
158 179 0
165 188 0
159 180 0
162 182 0
158 181 0
164 186 0
162 182 0
159 181 0
160 181 0
165 186 0
161 183 0
162 183 0
161 182 0
164 185 0
163 184 0
163 183 0
165 187 0
168 190 0
161 183 0
162 184 0
165 187 0
166 188 0
164 187 0
162 185 0
159 180 0
158 179 0
166 187 0
167 189 0
161 182 0
165 187 0
165 187 0
165 186 0
164 187 0
167 189 0
164 188 0
165 187 0
167 190 0
166 187 0
168 190 0
169 190 0
165 187 0
169 190 0
165 187 0
167 189 0
163 186 0
199 223 255
199 224 255
199 223 255
199 223 255
198 223 255
198 223 255
198 223 255
198 223 255
198 223 255
197 222 255
198 223 255
198 223 255
197 222 255
197 223 255
197 222 255
197 222 255
197 222 255
197 222 255
197 222 255
196 222 255
196 221 255
197 222 255
197 222 255
196 222 255
197 222 255
197 222 255
196 222 255
196 222 255
196 222 255
196 222 255
196 222 255
196 222 255
197 222 255
196 222 255
196 222 255
197 222 255
197 222 255
196 222 255
197 222 255
197 222 255
197 222 255
197 222 255
197 222 255
197 222 255
197 222 255
198 223 255
197 222 255
197 222 255
198 223 255
198 223 255
198 223 255
198 223 255
199 223 255
198 223 255
198 223 255
199 223 255
198 223 255
199 223 255
200 224 255
199 223 255
200 224 255
200 224 255
200 224 255
200 224 255
200 224 255
200 224 255
202 225 255
201 224 255
202 225 255
202 225 255
201 225 255
203 225 255
202 225 255
203 225 255
203 226 255
203 226 255
204 226 255
205 226 255
205 227 255
205 227 255
206 227 255
206 227 255
206 227 255
207 228 255
207 228 255
207 228 255
207 228 255
208 228 255
208 228 255
209 229 255
209 229 255
210 229 255
211 230 255
210 229 255
211 230 255
211 230 255
212 230 255
212 230 255
213 231 255
213 231 255
214 231 255
214 232 255
214 231 255
215 232 255
216 233 255
216 233 255
217 233 255
218 234 255
217 233 255
217 233 254
218 233 253
215 231 245
213 229 230
214 230 237
211 228 230
211 228 228
209 225 218
205 222 206
206 223 203
204 222 203
201 219 184
199 217 177
200 218 184
201 219 186
197 215 169
194 213 161
193 213 157
187 208 130
186 207 128
185 205 120
180 202 95
180 201 95
176 197 72
175 196 76
166 187 36
172 195 51
168 190 25
165 187 0
167 189 0
162 185 0
167 190 0
160 181 0
151 171 0
158 180 0
153 174 0
149 170 0
154 175 0
141 160 0
144 165 0
147 168 0
142 162 0
138 157 0
132 152 0
129 148 0
121 138 0
119 137 0
120 139 0
103 122 0
114 132 0
113 131 0
124 142 0
116 133 0
114 132 0
108 124 0
95 112 0
106 124 0
117 136 0
113 131 0
118 136 0
100 117 0
107 124 0
109 127 0
120 137 0
107 124 0
122 140 0
121 138 0
118 136 0
115 132 0
98 115 0
106 124 0
122 141 0
118 135 0
120 138 0
101 118 0
122 142 0
120 139 0
110 127 0
110 128 0
125 143 0
109 126 0
112 130 0
125 145 0
110 130 0
128 147 0
124 143 0
122 140 0
119 137 0
120 138 0
121 140 0
121 139 0
119 137 0
123 143 0
114 133 0
120 139 0
120 139 0
119 138 0
124 143 0
127 145 0
126 145 0
136 155 0
126 146 0
121 140 0
125 145 0
125 145 0
118 136 0
133 153 0
133 153 0
121 141 0
123 141 0
120 139 0
129 148 0
133 153 0
129 149 0
133 153 0
123 143 0
135 155 0
130 150 0
122 142 0
127 147 0
133 151 0
128 148 0
141 160 0
132 152 0
127 144 0
138 157 0
140 160 0
137 158 0
145 165 0
127 146 0
131 151 0
142 162 0
138 159 0
137 158 0
137 158 0
136 158 0
141 161 0
134 155 0
144 164 0
141 162 0
148 168 0
144 164 0
140 159 0
142 164 0
139 160 0
145 166 0
141 160 0
147 167 0
146 165 0
142 162 0
136 157 0
141 160 0
141 161 0
144 164 0
143 163 0
144 165 0
140 162 0
145 165 0
153 173 0
145 166 0
147 169 0
145 167 0
148 168 0
145 166 0
152 174 0
145 166 0
146 166 0
147 167 0
145 165 0
153 174 0
147 168 0
149 170 0
148 169 0
151 174 0
147 169 0
154 176 0
150 171 0
146 167 0
153 175 0
151 171 0
153 175 0
153 175 0
153 176 0
151 172 0
150 172 0
159 180 0
153 175 0
154 174 0
150 171 0
152 173 0
154 176 0
149 172 0
149 169 0
151 173 0
159 180 0
159 180 0
159 179 0
161 181 0
160 181 0
158 180 0
158 178 0
155 177 0
160 183 0
161 183 0
158 180 0
155 177 0
156 177 0
157 178 0
156 176 0
159 179 0
158 179 0
157 179 0
156 178 0
155 176 0
160 182 0
159 181 0
160 181 0
157 178 0
163 183 0
160 182 0
161 182 0
154 174 0
162 184 0
157 179 0
166 187 0
152 172 0
160 183 0
162 182 0
156 177 0
163 185 0
159 181 0
160 181 0
163 184 0
162 184 0
158 179 0
169 191 0
159 182 0
160 182 0
157 179 0
160 182 0
166 186 0
161 182 0
162 185 0
165 186 0
161 182 0
162 184 0
165 187 0
162 184 0
164 187 0
161 181 0
157 178 0
159 178 0
169 192 0
162 184 0
164 185 0
163 185 0
163 186 0
166 188 0
161 182 0
160 181 0
164 186 0
158 178 0
163 186 0
165 187 0
165 186 0
162 184 0
162 183 0
164 184 0
163 185 0
167 189 0
165 187 0
162 183 0
165 187 0
166 188 0
164 185 0
166 188 0
167 190 0
164 186 0
165 187 0
165 186 0
165 186 0
165 186 0
171 192 0
167 189 0
168 190 0
165 187 0
165 187 0
167 188 0
167 190 0
167 190 0
164 187 0
200 224 255
200 224 255
199 223 255
199 223 255
198 223 255
199 223 255
198 223 255
199 223 255
198 223 255
198 223 255
198 223 255
197 222 255
198 223 255
198 223 255
197 222 255
197 222 255
197 222 255
197 222 255
196 222 255
197 222 255
197 222 255
197 222 255
198 223 255
196 222 255
197 222 255
196 222 255
196 222 255
196 222 255
196 222 255
196 222 255
197 222 255
197 222 255
197 222 255
197 222 255
197 222 255
197 222 255
197 222 255
197 222 255
196 222 255
197 222 255
198 223 255
198 223 255
198 223 255
197 223 255
197 222 255
198 223 255
198 223 255
198 223 255
197 222 255
198 223 255
199 223 255
198 223 255
199 223 255
199 223 255
199 223 255
199 224 255
200 224 255
200 224 255
200 224 255
199 223 255
200 224 255
201 224 255
201 224 255
201 225 255
201 225 255
201 224 255
202 225 255
202 225 255
203 226 255
202 225 255
202 225 255
203 226 255
204 226 255
204 226 255
204 226 255
204 226 255
204 226 255
205 226 255
206 227 255
206 227 255
206 227 255
206 227 255
207 228 255
207 227 255
207 228 255
207 228 255
208 228 255
209 229 255
209 229 255
210 229 255
210 229 255
210 229 255
210 229 255
211 230 255
211 230 255
212 230 255
212 231 255
213 231 255
213 231 255
212 231 255
215 232 255
214 232 255
215 232 255
216 232 255
215 232 255
218 234 255
216 233 255
218 233 255
217 233 252
216 232 250
216 232 249
215 231 241
213 229 234
212 228 231
213 229 233
209 226 221
212 228 227
204 221 201
207 224 207
206 223 207
198 217 179
195 213 167
197 215 171
196 215 173
192 211 151
193 212 153
183 205 122
187 207 133
182 204 102
183 203 105
176 198 88
173 195 67
176 198 76
172 194 57
174 196 36
169 191 0
165 187 0
166 188 0
161 183 0
170 192 0
158 180 0
158 179 0
156 176 0
155 178 0
146 167 0
143 164 0
151 170 0
141 161 0
141 162 0
133 152 0
142 162 0
133 154 0
124 143 0
128 148 0
129 148 0
122 140 0
127 146 0
114 132 0
117 135 0
124 143 0
104 121 0
114 133 0
123 140 0
116 134 0
121 138 0
102 119 0
122 140 0
114 133 0
114 132 0
114 131 0
114 131 0
120 137 0
113 131 0
112 128 0
110 128 0
114 132 0
126 144 0
106 124 0
115 134 0
126 144 0
111 128 0
104 123 0
111 129 0
111 129 0
119 138 0
125 144 0
117 134 0
119 135 0
119 137 0
117 136 0
118 135 0
133 152 0
127 145 0
119 138 0
116 134 0
121 140 0
128 147 0
124 143 0
118 137 0
120 138 0
122 141 0
118 136 0
125 144 0
116 135 0
133 152 0
120 139 0
135 154 0
134 152 0
129 149 0
126 146 0
135 153 0
126 144 0
127 145 0
125 144 0
127 147 0
124 142 0
125 144 0
128 148 0
121 139 0
127 147 0
138 158 0
134 154 0
129 150 0
130 148 0
133 153 0
127 146 0
138 158 0
139 159 0
126 145 0
141 161 0
131 150 0
128 148 0
140 161 0
135 155 0
131 151 0
140 161 0
134 154 0
129 149 0
129 148 0
132 151 0
142 163 0
138 157 0
132 152 0
138 158 0
137 157 0
135 155 0
145 167 0
137 156 0
137 156 0
141 161 0
145 165 0
135 155 0
154 175 0
144 164 0
144 165 0
148 168 0
138 159 0
149 171 0
141 160 0
143 163 0
139 159 0
144 166 0
152 173 0
140 159 0
139 160 0
143 164 0
150 172 0
145 165 0
150 171 0
151 172 0
149 171 0
144 164 0
144 166 0
144 165 0
143 164 0
142 163 0
148 169 0
153 173 0
151 171 0
154 174 0
142 162 0
149 170 0
150 169 0
149 171 0
146 166 0
155 176 0
146 167 0
146 168 0
154 176 0
152 174 0
151 173 0
157 177 0
145 166 0
156 176 0
154 174 0
148 170 0
157 180 0
153 173 0
144 166 0
148 169 0
151 173 0
160 180 0
153 173 0
155 177 0
149 169 0
155 176 0
150 173 0
155 176 0
151 172 0
153 175 0
159 180 0
152 171 0
153 173 0
156 177 0
154 174 0
150 171 0
155 177 0
153 174 0
156 177 0
155 177 0
151 171 0
148 169 0
157 178 0
152 173 0
160 182 0
158 180 0
163 186 0
151 173 0
158 180 0
157 180 0
157 179 0
156 178 0
152 172 0
159 180 0
163 185 0
159 181 0
156 174 0
157 179 0
163 183 0
164 187 0
159 181 0
163 186 0
168 189 0
160 181 0
168 190 0
157 177 0
164 186 0
162 183 0
160 183 0
161 181 0
162 182 0
160 180 0
160 182 0
161 182 0
159 182 0
159 180 0
164 186 0
163 184 0
162 184 0
167 187 0
160 182 0
167 188 0
163 185 0
163 185 0
162 184 0
165 186 0
167 188 0
169 190 0
164 185 0
165 186 0
163 184 0
170 190 0
167 190 0
164 185 0
169 191 0
164 185 0
165 186 0
167 189 0
162 183 0
165 189 0
166 187 0
164 187 0
162 184 0
164 186 0
166 186 0
161 182 0
162 184 0
163 186 0
167 188 0
164 184 0
163 187 0
160 180 0
170 191 0
164 185 0
169 192 0
163 184 0
169 192 0
163 186 0
168 188 0
169 190 0
200 224 255
200 224 255
199 224 255
199 223 255
200 224 255
199 223 255
199 223 255
198 223 255
199 223 255
198 223 255
198 223 255
199 223 255
198 223 255
197 222 255
198 223 255
198 223 255
198 223 255
197 222 255
198 223 255
197 223 255
198 223 255
197 222 255
197 222 255
198 223 255
197 223 255
198 223 255
197 222 255
197 222 255
197 222 255
196 222 255
197 222 255
197 222 255
197 222 255
197 222 255
197 222 255
197 222 255
198 223 255
198 223 255
198 223 255
197 222 255
198 223 255
197 222 255
198 223 255
198 223 255
198 223 255
198 223 255
198 223 255
198 223 255
199 223 255
199 223 255
198 223 255
198 223 255
199 224 255
200 224 255
200 224 255
200 224 255
200 224 255
200 224 255
200 224 255
200 224 255
201 225 255
201 224 255
201 224 255
202 225 255
201 224 255
201 224 255
202 225 255
202 225 255
203 226 255
202 225 255
204 226 255
203 226 255
203 226 255
204 226 255
204 226 255
205 226 255
204 226 255
206 227 255
205 227 255
206 227 255
207 227 255
206 227 255
207 228 255
208 228 255
209 228 255
208 228 255
209 229 255
209 229 255
209 229 255
209 229 255
210 229 255
211 230 255
212 230 255
211 230 255
212 230 255
212 230 255
213 231 255
214 231 255
215 232 255
215 232 255
215 232 255
215 232 255
215 232 255
216 233 255
217 233 255
217 233 255
218 234 255
217 233 253
217 233 250
216 232 248
214 230 238
216 232 246
215 230 240
211 227 227
208 225 217
210 227 224
208 225 215
205 222 204
206 223 207
200 218 186
199 217 188
196 215 167
199 217 182
194 213 163
192 211 153
190 210 140
185 206 130
183 204 108
181 202 114
185 205 122
178 200 95
177 199 80
174 196 44
174 196 44
168 190 44
162 185 25
165 189 0
165 187 0
164 185 0
159 181 0
162 184 0
161 183 0
158 178 0
156 177 0
151 173 0
147 167 0
152 173 0
144 165 0
141 161 0
134 155 0
137 157 0
133 153 0
136 155 0
134 154 0
125 145 0
132 150 0
129 147 0
120 138 0
109 127 0
114 132 0
132 150 0
133 151 0
119 138 0
115 133 0
109 127 0
116 134 0
106 124 0
115 133 0
117 135 0
124 142 0
118 136 0
113 130 0
115 134 0
108 126 0
107 124 0
106 124 0
110 128 0
124 144 0
110 128 0
111 129 0
116 134 0
110 127 0
104 122 0
116 132 0
115 132 0
119 138 0
121 139 0
114 132 0
108 125 0
114 132 0
102 120 0
132 149 0
114 132 0
121 140 0
130 149 0
124 142 0
122 142 0
120 138 0
119 138 0
126 143 0
112 130 0
114 133 0
126 145 0
118 136 0
129 149 0
121 140 0
129 148 0
136 156 0
118 137 0
129 150 0
125 145 0
119 140 0
119 139 0
136 156 0
130 150 0
120 140 0
122 140 0
140 160 0
133 152 0
130 151 0
122 142 0
129 148 0
135 155 0
128 148 0
125 145 0
138 158 0
132 153 0
136 155 0
118 138 0
140 160 0
138 160 0
130 151 0
145 166 0
132 152 0
144 165 0
136 157 0
131 150 0
139 159 0
143 163 0
140 161 0
141 162 0
140 160 0
137 159 0
136 155 0
144 165 0
147 166 0
142 162 0
131 151 0
134 155 0
139 159 0
145 165 0
149 169 0
143 164 0
134 154 0
145 165 0
141 161 0
143 165 0
141 162 0
142 164 0
142 164 0
147 167 0
150 172 0
150 171 0
149 170 0
147 166 0
149 170 0
144 165 0
148 168 0
148 170 0
147 168 0
148 170 0
150 169 0
152 173 0
150 172 0
147 167 0
153 174 0
156 178 0
148 168 0
143 165 0
144 166 0
157 177 0
154 175 0
152 175 0
153 176 0
153 175 0
153 175 0
155 177 0
154 174 0
155 176 0
147 169 0
143 163 0
148 167 0
148 168 0
152 173 0
149 170 0
148 171 0
154 176 0
153 175 0
154 175 0
153 173 0
147 168 0
154 175 0
158 178 0
149 170 0
149 169 0
157 179 0
151 172 0
153 175 0
153 176 0
156 179 0
151 172 0
152 173 0
158 180 0
154 176 0
149 170 0
160 181 0
153 175 0
161 184 0
152 173 0
162 183 0
162 183 0
160 183 0
152 173 0
155 177 0
161 183 0
160 183 0
163 184 0
150 172 0
156 176 0
165 186 0
159 180 0
160 181 0
157 177 0
159 182 0
156 178 0
163 186 0
152 174 0
155 175 0
159 181 0
162 183 0
163 184 0
158 180 0
158 178 0
165 185 0
157 178 0
161 182 0
162 183 0
163 184 0
162 181 0
161 183 0
162 183 0
164 185 0
155 177 0
165 187 0
166 187 0
162 184 0
161 182 0
165 187 0
160 181 0
163 185 0
162 181 0
164 185 0
166 188 0
163 184 0
167 189 0
166 188 0
163 185 0
167 189 0
161 184 0
164 186 0
165 186 0
167 188 0
162 184 0
166 186 0
161 183 0
166 188 0
162 182 0
163 184 0
162 183 0
163 185 0
162 183 0
163 185 0
165 187 0
162 184 0
168 190 0
164 186 0
166 186 0
163 184 0
167 189 0
166 190 0
167 189 0
168 189 0
160 183 0
167 188 0
164 184 0
165 188 0
167 189 0
169 192 0
166 187 0
167 189 0
199 224 255
200 224 255
200 224 255
200 224 255
199 223 255
200 224 255
200 224 255
200 224 255
199 223 255
199 223 255
199 223 255
199 223 255
198 223 255
198 223 255
198 223 255
199 223 255
198 223 255
198 223 255
198 223 255
198 223 255
197 222 255
198 223 255
198 223 255
198 223 255
197 222 255
197 222 255
197 222 255
198 223 255
198 223 255
198 223 255
198 223 255
198 223 255
197 222 255
198 223 255
197 222 255
198 223 255
198 223 255
198 223 255
198 223 255
198 223 255
198 223 255
198 223 255
198 223 255
199 223 255
198 223 255
198 223 255
199 223 255
199 223 255
199 223 255
200 224 255
199 223 255
200 224 255
200 224 255
200 224 255
200 224 255
200 224 255
200 224 255
200 224 255
201 225 255
201 225 255
201 224 255
201 224 255
201 225 255
202 225 255
202 225 255
202 225 255
202 225 255
204 226 255
203 226 255
204 226 255
204 226 255
204 226 255
204 226 255
205 226 255
205 227 255
206 227 255
205 226 255
206 227 255
207 228 255
206 227 255
207 227 255
208 228 255
207 228 255
208 228 255
209 229 255
209 229 255
210 229 255
209 229 255
210 229 255
210 229 255
211 230 255
211 230 255
211 230 255
212 230 255
212 231 255
213 231 255
214 231 255
214 231 255
214 231 255
215 232 255
215 232 255
216 232 255
216 232 255
216 232 255
217 233 255
218 234 255
218 234 255
217 233 252
216 232 246
215 231 245
211 228 234
215 231 241
210 227 226
212 228 230
205 222 206
209 225 218
204 222 201
205 222 204
202 220 191
199 218 181
198 217 181
196 215 167
194 213 167
193 213 161
189 209 135
188 208 140
185 205 122
185 206 117
183 203 117
176 198 72
180 201 88
174 196 62
174 195 76
171 192 57
171 193 25
167 190 0
169 193 0
165 189 0
164 188 0
159 181 0
157 179 0
157 179 0
160 183 0
154 175 0
143 166 0
146 168 0
151 173 0
141 161 0
135 155 0
135 155 0
133 152 0
133 153 0
138 158 0
130 151 0
123 144 0
119 138 0
119 137 0
130 149 0
112 131 0
119 137 0
119 137 0
112 130 0
115 132 0
122 140 0
100 118 0
111 129 0
110 127 0
114 132 0
120 138 0
133 152 0
117 135 0
121 140 0
112 130 0
111 129 0
127 146 0
113 130 0
104 123 0
120 138 0
125 143 0
119 136 0
108 127 0
123 142 0
118 138 0
108 126 0
115 135 0
123 141 0
120 136 0
116 135 0
118 137 0
121 139 0
124 144 0
118 138 0
127 144 0
127 145 0
123 142 0
122 140 0
127 147 0
122 140 0
118 137 0
123 140 0
126 145 0
114 132 0
124 143 0
135 153 0
114 133 0
127 146 0
125 145 0
131 150 0
122 142 0
119 137 0
129 150 0
122 142 0
137 156 0
141 161 0
132 152 0
127 147 0
127 147 0
134 155 0
121 140 0
135 154 0
126 145 0
132 153 0
128 149 0
133 152 0
129 149 0
134 154 0
139 160 0
137 157 0
131 152 0
131 150 0
132 153 0
136 157 0
134 155 0
133 154 0
133 154 0
143 164 0
139 158 0
136 156 0
133 154 0
137 156 0
139 159 0
142 163 0
127 147 0
136 156 0
138 158 0
137 158 0
135 155 0
135 155 0
138 159 0
140 160 0
146 167 0
142 163 0
149 169 0
142 162 0
138 160 0
141 162 0
139 159 0
149 169 0
154 176 0
142 164 0
146 166 0
142 162 0
138 158 0
144 164 0
152 173 0
150 172 0
158 179 0
141 162 0
154 173 0
143 165 0
150 171 0
144 162 0
149 171 0
141 160 0
149 170 0
148 169 0
155 176 0
157 178 0
150 170 0
152 173 0
151 172 0
157 178 0
149 169 0
152 174 0
152 173 0
155 176 0
158 180 0
145 163 0
153 176 0
157 178 0
156 178 0
156 178 0
159 182 0
157 178 0
150 170 0
153 174 0
159 180 0
161 184 0
152 172 0
151 172 0
153 173 0
152 175 0
152 172 0
159 180 0
151 172 0
155 175 0
154 177 0
152 171 0
154 177 0
155 178 0
156 176 0
149 169 0
155 177 0
155 175 0
156 176 0
162 184 0
157 178 0
160 180 0
160 183 0
159 181 0
160 182 0
160 181 0
147 169 0
156 178 0
156 177 0
161 184 0
160 182 0
160 183 0
167 188 0
158 180 0
153 174 0
155 175 0
161 185 0
163 184 0
158 180 0
164 186 0
158 179 0
160 182 0
163 185 0
160 182 0
164 186 0
162 184 0
165 187 0
157 177 0
165 187 0
163 184 0
159 182 0
161 184 0
165 187 0
161 182 0
163 186 0
166 187 0
168 190 0
164 185 0
163 185 0
158 179 0
161 183 0
167 187 0
166 188 0
167 188 0
161 182 0
161 181 0
167 188 0
166 189 0
161 184 0
163 185 0
168 189 0
163 185 0
167 188 0
159 179 0
164 185 0
162 184 0
162 185 0
165 186 0
167 189 0
162 183 0
166 187 0
167 190 0
163 184 0
164 185 0
162 184 0
169 191 0
166 187 0
164 186 0
165 187 0
165 186 0
169 191 0
163 186 0
164 185 0
162 184 0
172 194 0
167 190 0
165 186 0
163 185 0
167 189 0
170 190 0
160 182 0
164 186 0
167 189 0
166 188 0
200 224 255
201 224 255
201 224 255
200 224 255
200 224 255
201 224 255
201 224 255
200 224 255
200 224 255
200 224 255
199 224 255
199 223 255
199 223 255
200 224 255
200 224 255
199 223 255
199 223 255
199 223 255
199 223 255
198 223 255
199 223 255
198 223 255
199 223 255
198 223 255
199 223 255
198 223 255
198 223 255
198 223 255
199 223 255
199 223 255
198 223 255
198 223 255
198 223 255
199 223 255
198 223 255
198 223 255
198 223 255
198 223 255
199 223 255
199 223 255
198 223 255
199 223 255
199 223 255
199 224 255
199 223 255
199 223 255
199 224 255
200 224 255
199 223 255
198 223 255
200 224 255
200 224 255
199 223 255
201 225 255
201 224 255
201 224 255
201 224 255
202 225 255
202 225 255
202 225 255
202 225 255
202 225 255
202 225 255
203 225 255
203 225 255
202 225 255
204 226 255
203 226 255
204 226 255
204 226 255
204 226 255
205 226 255
205 227 255
205 227 255
206 227 255
206 227 255
206 227 255
206 227 255
207 228 255
207 228 255
207 227 255
207 228 255
208 228 255
208 228 255
209 229 255
210 229 255
210 229 255
210 229 255
211 230 255
211 230 255
212 230 255
212 231 255
211 230 255
213 231 255
213 231 255
213 231 255
214 231 255
214 231 255
215 232 255
215 232 255
215 232 255
215 232 255
216 233 255
217 233 255
217 233 255
216 232 252
216 232 250
218 233 253
216 231 244
215 231 244
211 228 231
210 227 224
211 228 228
208 225 215
210 226 221
205 223 206
201 219 189
204 221 201
202 220 191
196 215 171
192 211 153
197 215 173
194 213 157
194 213 163
189 208 137
187 206 135
180 201 105
185 206 111
185 206 120
181 201 122
180 201 88
175 197 57
173 196 57
165 189 25
168 191 25
167 189 0
165 188 0
166 188 0
167 188 0
152 172 0
162 183 0
155 177 0
156 178 0
149 170 0
155 175 0
145 166 0
152 173 0
153 174 0
145 166 0
144 165 0
134 153 0
129 150 0
138 158 0
139 157 0
118 138 0
120 139 0
123 142 0
131 149 0
104 122 0
115 133 0
113 133 0
120 138 0
113 131 0
113 131 0
117 135 0
118 137 0
118 136 0
106 124 0
116 135 0
125 143 0
122 140 0
126 145 0
112 132 0
125 144 0
119 138 0
99 117 0
116 134 0
123 143 0
109 127 0
118 136 0
118 137 0
124 143 0
112 128 0
124 144 0
118 136 0
112 131 0
114 133 0
115 133 0
117 135 0
126 146 0
126 145 0
112 133 0
119 137 0
116 134 0
129 148 0
131 150 0
116 135 0
124 143 0
121 140 0
120 140 0
131 151 0
122 140 0
122 141 0
115 135 0
139 158 0
118 136 0
119 139 0
128 146 0
127 148 0
122 143 0
135 155 0
133 153 0
128 147 0
128 149 0
131 150 0
126 146 0
126 146 0
118 138 0
134 153 0
132 153 0
128 150 0
134 154 0
136 156 0
128 147 0
138 158 0
131 150 0
123 144 0
119 139 0
136 156 0
146 166 0
137 158 0
139 159 0
132 152 0
140 161 0
138 159 0
131 151 0
138 158 0
125 146 0
139 160 0
131 151 0
138 157 0
134 155 0
144 165 0
133 154 0
142 163 0
138 157 0
140 161 0
144 164 0
143 163 0
141 161 0
140 160 0
147 169 0
142 162 0
140 161 0
146 167 0
143 163 0
150 171 0
140 161 0
143 165 0
137 157 0
151 172 0
154 174 0
148 169 0
137 158 0
146 165 0
143 165 0
153 173 0
146 167 0
150 171 0
144 165 0
143 165 0
148 169 0
150 171 0
147 167 0
150 172 0
153 175 0
153 175 0
155 177 0
144 164 0
144 165 0
141 162 0
152 174 0
149 171 0
154 176 0
153 175 0
155 177 0
151 172 0
149 169 0
154 174 0
152 173 0
144 165 0
157 178 0
154 176 0
156 178 0
152 174 0
154 175 0
157 178 0
156 177 0
153 175 0
151 173 0
155 175 0
163 184 0
153 173 0
160 182 0
154 174 0
161 183 0
162 184 0
157 178 0
160 182 0
161 184 0
150 172 0
156 176 0
158 179 0
159 180 0
157 178 0
161 182 0
152 171 0
150 171 0
162 183 0
160 181 0
161 181 0
160 181 0
159 180 0
158 179 0
156 178 0
162 182 0
156 177 0
156 178 0
154 175 0
159 181 0
160 180 0
158 180 0
159 180 0
163 185 0
161 183 0
160 182 0
162 185 0
160 181 0
159 178 0
161 183 0
164 186 0
157 179 0
157 179 0
159 181 0
161 182 0
159 182 0
160 181 0
163 184 0
164 186 0
164 187 0
161 184 0
161 184 0
165 186 0
158 181 0
160 182 0
167 189 0
158 179 0
161 183 0
164 186 0
166 187 0
167 188 0
165 186 0
163 186 0
156 178 0
165 188 0
162 182 0
160 183 0
169 191 0
166 188 0
164 186 0
164 185 0
165 187 0
161 183 0
165 186 0
165 187 0
162 183 0
160 182 0
163 184 0
162 184 0
170 191 0
167 189 0
164 184 0
160 181 0
166 187 0
168 189 0
164 186 0
167 190 0
164 186 0
169 190 0
165 187 0
169 190 0
166 189 0
166 188 0
163 186 0
164 186 0
163 185 0
166 189 0
169 190 0
165 187 0
165 187 0
201 224 255
201 225 255
200 224 255
201 225 255
201 225 255
201 225 255
201 224 255
201 224 255
201 224 255
199 224 255
200 224 255
200 224 255
200 224 255
200 224 255
200 224 255
200 224 255
199 223 255
199 223 255
199 223 255
199 224 255
199 223 255
199 223 255
199 223 255
199 223 255
198 223 255
198 223 255
199 223 255
199 223 255
199 223 255
200 224 255
199 223 255
198 223 255
199 223 255
199 223 255
199 223 255
199 223 255
199 223 255
199 223 255
200 224 255
199 223 255
199 223 255
199 223 255
199 223 255
199 223 255
200 224 255
200 224 255
200 224 255
200 224 255
201 224 255
200 224 255
200 224 255
201 224 255
201 224 255
202 225 255
201 225 255
201 224 255
202 225 255
202 225 255
202 225 255
202 225 255
201 225 255
202 225 255
203 225 255
203 225 255
203 225 255
203 226 255
204 226 255
204 226 255
205 226 255
204 226 255
206 227 255
205 227 255
206 227 255
206 227 255
206 227 255
206 227 255
207 227 255
208 228 255
208 228 255
208 228 255
208 228 255
208 228 255
209 229 255
209 229 255
210 229 255
209 229 255
211 230 255
210 229 255
211 230 255
211 230 255
212 231 255
211 230 255
212 230 255
212 230 255
213 231 255
214 231 255
215 232 255
215 232 255
215 232 255
215 232 255
216 233 255
216 232 255
216 233 255
217 233 255
217 233 254
217 232 250
216 232 249
213 230 240
216 232 248
213 229 236
216 231 241
212 228 230
212 228 224
208 225 217
203 220 196
204 221 203
205 222 206
198 217 177
200 219 188
203 219 193
196 214 169
196 215 161
188 208 133
192 211 149
191 211 144
183 204 108
186 206 125
177 199 84
180 200 105
176 199 84
178 199 84
176 196 67
169 192 36
166 188 0
166 188 0
171 193 0
163 184 0
168 191 0
164 186 0
157 179 0
162 185 0
161 184 0
157 179 0
157 178 0
153 175 0
147 169 0
142 164 0
145 167 0
136 156 0
134 154 0
133 154 0
134 154 0
126 146 0
131 151 0
134 155 0
124 144 0
130 148 0
124 141 0
116 134 0
119 138 0
116 134 0
123 141 0
122 140 0
116 135 0
117 136 0
121 140 0
111 129 0
119 137 0
119 138 0
106 124 0
122 141 0
117 135 0
118 137 0
112 130 0
120 138 0
115 134 0
119 138 0
121 139 0
122 140 0
112 130 0
116 135 0
113 132 0
123 142 0
125 145 0
114 131 0
134 154 0
125 143 0
126 144 0
119 139 0
122 141 0
121 141 0
116 136 0
121 140 0
130 148 0
123 142 0
119 139 0
122 139 0
117 136 0
111 129 0
126 146 0
120 141 0
115 134 0
121 139 0
130 150 0
136 156 0
126 145 0
135 155 0
135 155 0
129 149 0
134 152 0
119 137 0
128 148 0
122 143 0
121 140 0
122 143 0
129 149 0
133 152 0
131 150 0
120 139 0
124 144 0
130 149 0
138 157 0
129 149 0
139 160 0
126 146 0
140 160 0
131 151 0
128 149 0
139 159 0
140 161 0
140 160 0
143 163 0
131 151 0
133 154 0
142 161 0
140 161 0
133 153 0
137 158 0
132 152 0
132 153 0
142 163 0
141 161 0
138 160 0
139 160 0
136 157 0
138 159 0
140 161 0
137 157 0
139 159 0
144 165 0
136 156 0
137 158 0
141 161 0
141 161 0
141 163 0
144 164 0
146 168 0
138 160 0
143 164 0
151 172 0
148 169 0
150 172 0
143 163 0
147 169 0
152 174 0
148 170 0
141 163 0
148 170 0
151 172 0
144 165 0
151 171 0
146 167 0
154 175 0
147 168 0
149 171 0
155 176 0
150 171 0
155 177 0
154 176 0
150 171 0
150 171 0
146 167 0
152 173 0
155 176 0
147 168 0
146 168 0
156 179 0
154 174 0
147 169 0
157 177 0
153 174 0
152 172 0
148 170 0
151 173 0
156 178 0
155 177 0
156 177 0
156 177 0
157 178 0
153 175 0
156 178 0
154 174 0
162 185 0
151 172 0
152 174 0
149 171 0
159 181 0
157 179 0
150 172 0
149 172 0
159 181 0
156 178 0
150 172 0
154 174 0
150 172 0
158 180 0
155 177 0
156 176 0
161 183 0
164 185 0
160 181 0
153 175 0
158 178 0
162 185 0
153 174 0
154 174 0
158 181 0
158 180 0
155 176 0
157 178 0
158 178 0
157 178 0
156 177 0
159 180 0
160 182 0
167 188 0
163 186 0
157 179 0
161 182 0
161 184 0
159 181 0
161 183 0
159 181 0
162 182 0
160 182 0
165 185 0
162 185 0
158 178 0
157 179 0
161 182 0
165 187 0
159 181 0
165 187 0
162 185 0
164 185 0
162 183 0
167 187 0
167 189 0
164 185 0
164 187 0
163 185 0
160 179 0
159 182 0
165 186 0
161 183 0
162 183 0
167 190 0
170 191 0
162 182 0
163 184 0
166 188 0
164 185 0
164 187 0
165 187 0
161 183 0
163 184 0
167 187 0
164 185 0
167 189 0
168 190 0
161 182 0
160 182 0
169 191 0
166 188 0
167 188 0
171 192 0
162 183 0
166 189 0
162 184 0
165 187 0
167 190 0
165 187 0
166 188 0
169 192 0
162 183 0
166 188 0
166 188 0
169 191 0
162 183 0
167 187 0
202 225 255
201 225 255
201 224 255
201 224 255
201 224 255
201 224 255
201 225 255
201 224 255
200 224 255
201 224 255
200 224 255
200 224 255
200 224 255
200 224 255
200 224 255
200 224 255
199 224 255
200 224 255
199 223 255
200 224 255
200 224 255
199 224 255
200 224 255
200 224 255
200 224 255
200 224 255
199 223 255
199 223 255
199 223 255
200 224 255
199 223 255
200 224 255
199 223 255
199 223 255
200 224 255
199 223 255
200 224 255
200 224 255
200 224 255
199 223 255
200 224 255
200 224 255
200 224 255
200 224 255
200 224 255
200 224 255
200 224 255
201 224 255
200 224 255
201 225 255
201 224 255
201 225 255
201 224 255
201 225 255
202 225 255
202 225 255
202 225 255
203 226 255
203 225 255
203 225 255
203 225 255
203 225 255
202 225 255
204 226 255
204 226 255
204 226 255
205 226 255
205 227 255
205 227 255
205 226 255
206 227 255
206 227 255
206 227 255
206 227 255
207 227 255
207 228 255
208 228 255
207 228 255
208 228 255
208 228 255
209 229 255
209 229 255
209 229 255
209 229 255
209 229 255
210 229 255
210 229 255
211 230 255
211 230 255
212 230 255
213 231 255
212 230 255
213 231 255
213 231 255
214 232 255
214 232 255
215 232 255
215 232 255
215 232 255
216 233 255
216 232 255
216 233 255
218 233 255
218 234 254
217 233 250
217 233 250
214 231 244
214 230 240
214 230 238
212 229 233
212 228 231
207 225 217
210 226 220
207 224 212
202 220 196
203 221 199
204 221 194
203 220 189
199 217 179
198 216 182
190 210 147
194 213 161
196 214 163
197 215 169
186 206 130
181 202 105
183 203 102
179 201 84
176 198 67
175 199 44
171 194 36
173 195 57
174 196 51
167 190 0
169 192 0
163 185 0
167 189 0
165 188 0
163 185 0
159 181 0
167 190 0
162 184 0
155 176 0
157 178 0
149 173 0
150 172 0
142 162 0
147 170 0
139 160 0
145 165 0
148 170 0
142 162 0
131 150 0
120 141 0
141 160 0
130 149 0
131 150 0
132 151 0
117 135 0
124 143 0
112 131 0
120 137 0
125 144 0
118 136 0
109 127 0
122 141 0
116 133 0
116 134 0
120 140 0
117 136 0
113 131 0
124 142 0
120 139 0
130 149 0
114 132 0
117 136 0
108 125 0
121 140 0
128 147 0
112 131 0
117 136 0
123 143 0
112 129 0
112 130 0
132 152 0
126 144 0
119 139 0
113 132 0
127 146 0
135 155 0
127 147 0
117 136 0
126 146 0
130 149 0
127 146 0
127 148 0
120 139 0
122 143 0
134 153 0
120 140 0
114 133 0
128 148 0
135 154 0
127 147 0
125 144 0
130 151 0
130 150 0
123 143 0
138 158 0
125 145 0
122 142 0
132 153 0
127 148 0
136 158 0
129 148 0
136 157 0
135 156 0
136 156 0
128 148 0
138 157 0
139 160 0
122 142 0
124 144 0
136 156 0
134 155 0
125 145 0
137 158 0
133 153 0
136 156 0
145 165 0
130 149 0
141 161 0
133 152 0
133 153 0
125 146 0
134 155 0
137 157 0
136 157 0
131 152 0
138 159 0
139 159 0
142 162 0
144 164 0
148 169 0
137 157 0
144 164 0
131 151 0
145 167 0
144 165 0
143 162 0
139 159 0
140 160 0
141 161 0
144 165 0
138 159 0
148 167 0
145 167 0
148 169 0
141 163 0
141 161 0
144 164 0
151 172 0
147 168 0
138 159 0
147 168 0
141 163 0
147 169 0
142 163 0
143 163 0
149 170 0
146 166 0
142 164 0
147 168 0
150 172 0
149 172 0
151 171 0
148 169 0
157 178 0
154 176 0
153 174 0
148 169 0
160 182 0
153 175 0
153 176 0
152 172 0
158 179 0
147 168 0
150 171 0
150 171 0
156 177 0
151 173 0
151 172 0
158 179 0
155 177 0
160 183 0
157 179 0
158 180 0
154 175 0
152 174 0
149 170 0
157 180 0
157 179 0
156 176 0
157 179 0
155 177 0
159 179 0
158 180 0
156 177 0
157 179 0
154 176 0
158 180 0
156 177 0
157 180 0
154 175 0
155 178 0
161 183 0
160 179 0
153 174 0
160 181 0
156 176 0
158 178 0
162 184 0
165 187 0
163 185 0
155 177 0
154 174 0
158 178 0
153 173 0
159 181 0
156 175 0
158 179 0
162 185 0
158 179 0
164 185 0
161 183 0
154 177 0
158 181 0
161 183 0
165 186 0
155 177 0
157 179 0
161 183 0
164 185 0
163 184 0
159 182 0
162 184 0
163 184 0
162 183 0
163 183 0
164 186 0
163 182 0
162 183 0
160 181 0
163 184 0
161 181 0
159 180 0
163 184 0
160 184 0
158 177 0
162 184 0
166 189 0
164 187 0
165 187 0
161 182 0
166 189 0
166 187 0
160 182 0
163 186 0
165 187 0
162 185 0
161 183 0
169 189 0
163 184 0
163 184 0
168 189 0
163 186 0
167 189 0
168 190 0
168 191 0
162 183 0
162 182 0
168 190 0
165 189 0
168 190 0
164 185 0
167 190 0
167 191 0
164 186 0
168 189 0
162 184 0
167 190 0
165 186 0
165 187 0
166 187 0
164 184 0
167 189 0
170 192 0
168 189 0
166 187 0
166 186 0
202 225 255
201 225 255
202 225 255
202 225 255
202 225 255
201 224 255
201 225 255
200 224 255
201 224 255
202 225 255
201 224 255
200 224 255
201 225 255
200 224 255
201 224 255
200 224 255
200 224 255
200 224 255
200 224 255
200 224 255
200 224 255
200 224 255
200 224 255
199 223 255
199 223 255
199 223 255
200 224 255
200 224 255
199 224 255
201 224 255
200 224 255
199 224 255
200 224 255
200 224 255
201 224 255
199 224 255
200 224 255
200 224 255
201 224 255
200 224 255
200 224 255
200 224 255
200 224 255
201 224 255
201 224 255
201 224 255
201 224 255
200 224 255
202 225 255
201 224 255
201 225 255
202 225 255
203 225 255
203 225 255
203 226 255
202 225 255
203 225 255
202 225 255
203 225 255
202 225 255
203 225 255
204 226 255
204 226 255
204 226 255
205 226 255
205 226 255
205 227 255
205 227 255
205 227 255
205 227 255
205 227 255
205 227 255
207 228 255
206 227 255
207 227 255
208 228 255
207 228 255
208 228 255
208 228 255
209 229 255
210 229 255
209 229 255
209 229 255
210 230 255
211 230 255
211 230 255
212 230 255
211 230 255
212 230 255
212 230 255
213 231 255
214 231 255
214 232 255
214 232 255
214 232 255
214 232 255
215 232 255
215 232 255
216 233 255
217 233 255
217 233 255
217 233 255
216 232 253
216 232 250
214 230 241
214 230 242
214 230 240
211 228 230
213 229 234
210 226 221
209 225 217
209 226 220
206 223 206
205 222 207
203 221 194
200 218 188
200 218 186
200 218 184
195 214 165
196 214 165
195 214 161
195 213 157
186 207 128
190 209 142
188 208 130
181 202 99
183 205 105
178 200 88
180 201 105
173 195 57
174 197 72
172 195 25
171 193 0
168 191 0
167 191 0
166 189 0
167 190 0
162 184 0
156 179 0
167 189 0
160 184 0
159 180 0
159 181 0
162 183 0
154 175 0
155 177 0
146 168 0
139 160 0
142 164 0
144 165 0
136 156 0
129 148 0
120 139 0
127 145 0
131 152 0
129 149 0
115 134 0
133 152 0
111 128 0
126 144 0
125 143 0
117 134 0
123 142 0
120 138 0
115 134 0
117 135 0
109 128 0
119 137 0
119 137 0
122 141 0
115 133 0
118 136 0
121 139 0
109 128 0
129 147 0
126 145 0
122 139 0
124 143 0
130 148 0
128 147 0
120 137 0
112 131 0
125 145 0
131 151 0
125 145 0
110 130 0
125 144 0
131 150 0
119 139 0
128 147 0
123 141 0
120 140 0
121 141 0
115 132 0
128 147 0
134 153 0
120 138 0
120 139 0
138 158 0
127 146 0
126 144 0
137 157 0
135 154 0
119 136 0
132 153 0
135 155 0
135 154 0
129 149 0
132 152 0
120 140 0
132 153 0
140 159 0
138 159 0
130 150 0
142 161 0
131 152 0
132 152 0
134 155 0
134 153 0
135 154 0
141 162 0
133 153 0
133 153 0
125 146 0
135 156 0
137 156 0
138 158 0
132 153 0
142 163 0
131 152 0
140 160 0
138 160 0
138 158 0
144 166 0
135 157 0
133 153 0
142 163 0
133 154 0
151 171 0
143 162 0
137 158 0
141 162 0
148 169 0
148 169 0
141 161 0
140 161 0
140 161 0
137 159 0
142 163 0
142 162 0
147 169 0
147 167 0
140 161 0
150 172 0
140 160 0
145 168 0
138 159 0
146 166 0
140 160 0
146 169 0
148 169 0
138 159 0
136 156 0
147 168 0
153 174 0
147 167 0
145 166 0
147 168 0
141 162 0
142 163 0
145 166 0
152 174 0
151 173 0
153 174 0
152 173 0
150 171 0
153 174 0
152 174 0
149 171 0
152 174 0
147 168 0
147 169 0
156 177 0
155 176 0
148 168 0
150 171 0
157 179 0
151 172 0
158 180 0
154 173 0
151 173 0
149 171 0
154 176 0
159 182 0
149 171 0
151 171 0
155 176 0
159 182 0
156 176 0
165 186 0
157 180 0
158 180 0
159 180 0
158 179 0
162 183 0
152 173 0
163 185 0
150 170 0
154 174 0
152 174 0
161 183 0
153 172 0
158 180 0
163 183 0
161 183 0
154 175 0
156 177 0
158 179 0
158 179 0
163 184 0
159 180 0
154 175 0
158 178 0
157 178 0
157 179 0
162 183 0
161 181 0
163 185 0
160 182 0
155 176 0
159 180 0
160 182 0
156 177 0
159 181 0
166 187 0
161 183 0
162 184 0
160 181 0
159 180 0
159 180 0
164 184 0
160 180 0
160 181 0
164 185 0
162 184 0
165 187 0
164 186 0
160 182 0
157 180 0
162 184 0
164 186 0
158 181 0
165 186 0
160 182 0
161 183 0
163 185 0
159 179 0
165 188 0
162 185 0
163 185 0
162 184 0
157 179 0
160 182 0
164 186 0
169 192 0
163 186 0
164 184 0
162 184 0
165 187 0
158 178 0
163 184 0
159 179 0
162 183 0
158 179 0
165 186 0
167 189 0
166 187 0
167 190 0
166 187 0
166 187 0
163 183 0
169 190 0
165 187 0
163 187 0
163 183 0
170 191 0
164 186 0
170 193 0
165 188 0
160 181 0
169 191 0
162 184 0
163 184 0
166 189 0
163 185 0
165 188 0
166 189 0
166 188 0
168 190 0
171 192 0
203 225 255
203 226 255
202 225 255
203 225 255
202 225 255
202 225 255
202 225 255
201 225 255
202 225 255
202 225 255
202 225 255
201 225 255
200 224 255
200 224 255
202 225 255
200 224 255
200 224 255
201 224 255
201 224 255
202 225 255
200 224 255
201 224 255
200 224 255
201 225 255
200 224 255
200 224 255
200 224 255
200 224 255
200 224 255
201 224 255
200 224 255
200 224 255
201 224 255
200 224 255
201 224 255
201 224 255
200 224 255
200 224 255
201 224 255
201 224 255
201 224 255
202 225 255
201 225 255
201 225 255
201 224 255
201 224 255
200 224 255
201 225 255
202 225 255
202 225 255
203 225 255
202 225 255
202 225 255
202 225 255
202 225 255
202 225 255
203 226 255
203 225 255
204 226 255
204 226 255
204 226 255
204 226 255
204 226 255
205 226 255
205 227 255
205 227 255
205 227 255
206 227 255
206 227 255
207 227 255
206 227 255
207 228 255
207 228 255
208 228 255
208 228 255
208 228 255
208 228 255
208 228 255
208 228 255
209 229 255
209 229 255
210 229 255
210 229 255
211 230 255
211 230 255
211 230 255
212 230 255
211 230 255
213 231 255
214 231 255
213 231 255
214 231 255
214 231 255
215 232 255
215 232 255
216 233 255
216 232 255
216 232 255
217 233 255
216 232 254
217 233 253
217 233 254
217 233 252
217 233 252
215 231 246
215 231 242
215 231 242
211 227 224
214 230 240
210 227 226
209 226 221
212 228 230
209 226 217
205 222 201
201 219 191
205 221 198
195 214 167
199 218 181
193 213 159
196 215 175
193 213 155
190 209 147
183 204 114
183 204 111
182 204 105
181 202 99
178 200 80
182 202 99
177 198 57
172 194 51
175 198 51
174 196 44
170 193 0
163 186 0
172 196 0
166 189 0
166 189 0
158 180 0
166 189 0
163 185 0
163 185 0
162 184 0
154 176 0
157 179 0
153 175 0
151 172 0
153 174 0
148 168 0
140 160 0
149 169 0
136 156 0
136 157 0
136 156 0
131 152 0
123 143 0
123 143 0
132 151 0
124 144 0
132 150 0
125 144 0
122 141 0
113 130 0
122 141 0
116 135 0
126 145 0
125 143 0
119 139 0
116 135 0
116 136 0
122 139 0
118 136 0
124 143 0
107 125 0
115 134 0
124 143 0
123 142 0
120 139 0
116 136 0
104 121 0
126 145 0
116 135 0
120 139 0
125 144 0
125 145 0
122 140 0
115 132 0
122 141 0
133 152 0
127 145 0
117 137 0
123 143 0
128 149 0
129 148 0
130 148 0
119 137 0
112 131 0
121 139 0
134 155 0
124 144 0
123 143 0
118 138 0
135 155 0
126 146 0
124 143 0
133 153 0
132 153 0
123 144 0
134 152 0
136 155 0
121 142 0
138 158 0
131 151 0
131 152 0
128 148 0
137 157 0
126 146 0
132 153 0
124 145 0
131 151 0
138 159 0
133 152 0
135 155 0
138 158 0
142 164 0
137 158 0
135 155 0
137 159 0
137 158 0
128 149 0
133 154 0
141 162 0
133 155 0
134 155 0
139 160 0
141 161 0
137 157 0
136 157 0
149 169 0
136 156 0
137 157 0
142 163 0
134 154 0
151 171 0
144 166 0
134 154 0
143 164 0
143 164 0
136 157 0
140 161 0
135 156 0
129 151 0
143 166 0
143 164 0
144 165 0
143 164 0
141 162 0
144 165 0
142 163 0
147 168 0
145 167 0
150 173 0
152 173 0
148 169 0
151 172 0
148 168 0
144 166 0
149 169 0
143 164 0
153 175 0
147 168 0
139 160 0
146 167 0
154 175 0
149 168 0
153 174 0
151 172 0
152 174 0
154 176 0
155 177 0
148 168 0
147 167 0
158 179 0
151 172 0
150 173 0
142 163 0
155 177 0
154 176 0
153 174 0
157 179 0
155 176 0
151 172 0
155 177 0
152 172 0
151 172 0
154 175 0
155 176 0
155 175 0
157 179 0
157 178 0
152 172 0
158 179 0
155 177 0
162 184 0
156 179 0
153 175 0
157 178 0
157 177 0
152 175 0
156 177 0
161 184 0
157 178 0
154 175 0
152 173 0
162 184 0
159 181 0
158 179 0
163 186 0
159 180 0
157 179 0
152 174 0
155 176 0
154 175 0
159 180 0
156 178 0
161 184 0
155 176 0
158 180 0
165 187 0
159 180 0
160 182 0
155 177 0
158 179 0
163 184 0
156 176 0
163 186 0
166 188 0
160 182 0
163 185 0
166 188 0
161 180 0
155 177 0
159 181 0
163 184 0
160 180 0
162 185 0
160 181 0
159 180 0
157 179 0
159 181 0
158 180 0
165 187 0
165 187 0
164 187 0
164 186 0
161 183 0
164 186 0
165 187 0
162 184 0
162 185 0
165 187 0
168 190 0
160 181 0
163 184 0
162 184 0
161 183 0
163 183 0
162 183 0
164 187 0
167 189 0
160 180 0
162 183 0
162 184 0
164 186 0
164 186 0
166 189 0
165 187 0
167 190 0
167 189 0
158 181 0
166 187 0
165 186 0
167 189 0
163 185 0
166 188 0
160 184 0
165 186 0
168 191 0
165 187 0
165 186 0
168 191 0
161 183 0
162 184 0
156 178 0
165 189 0
166 187 0
166 188 0
168 190 0
167 190 0
166 188 0
165 187 0
204 226 255
203 226 255
202 225 255
203 225 255
203 225 255
203 225 255
202 225 255
202 225 255
202 225 255
202 225 255
202 225 255
203 225 255
201 224 255
202 225 255
201 224 255
202 225 255
201 224 255
202 225 255
202 225 255
202 225 255
201 225 255
201 224 255
202 225 255
201 224 255
200 224 255
201 225 255
201 224 255
201 224 255
201 224 255
201 225 255
202 225 255
201 225 255
200 224 255
201 224 255
201 224 255
201 224 255
202 225 255
201 224 255
201 224 255
202 225 255
202 225 255
201 225 255
201 224 255
202 225 255
202 225 255
202 225 255
202 225 255
202 225 255
202 225 255
203 225 255
203 225 255
204 226 255
203 225 255
203 225 255
204 226 255
204 226 255
203 225 255
204 226 255
204 226 255
204 226 255
204 226 255
205 227 255
205 227 255
205 226 255
205 226 255
207 228 255
206 227 255
207 227 255
207 227 255
207 227 255
208 228 255
207 228 255
206 227 255
207 228 255
209 229 255
209 229 255
209 229 255
209 229 255
210 229 255
210 229 255
211 230 255
210 229 255
212 230 255
211 230 255
211 230 255
212 230 255
212 230 255
212 230 255
213 231 255
213 231 255
213 231 255
214 232 255
215 232 255
215 232 255
215 232 255
216 233 255
216 233 255
217 233 255
217 233 255
216 232 253
216 232 252
216 232 250
215 231 244
214 231 244
214 230 237
213 229 231
214 230 237
211 227 227
207 224 212
208 225 214
209 225 218
205 222 204
206 223 207
203 221 199
203 221 194
200 217 182
201 219 184
196 215 167
193 213 157
189 209 142
193 212 161
192 210 153
188 207 128
182 203 108
182 203 105
180 201 92
181 203 99
175 198 62
176 198 72
172 193 51
173 195 44
169 192 25
164 186 0
171 194 0
166 187 0
161 184 0
162 183 0
165 187 0
161 184 0
162 186 0
160 182 0
157 178 0
158 180 0
157 179 0
150 172 0
145 167 0
149 170 0
148 170 0
139 160 0
150 171 0
143 163 0
144 164 0
134 155 0
133 153 0
125 143 0
127 147 0
134 153 0
127 146 0
119 139 0
122 141 0
133 152 0
117 136 0
126 144 0
123 142 0
128 146 0
127 147 0
125 144 0
123 140 0
114 132 0
133 152 0
114 131 0
122 141 0
119 139 0
122 141 0
115 134 0
116 135 0
122 141 0
121 140 0
127 147 0
131 149 0
128 147 0
114 133 0
117 134 0
126 144 0
118 136 0
122 141 0
131 150 0
129 149 0
121 140 0
126 146 0
124 143 0
117 136 0
124 145 0
124 144 0
126 145 0
122 141 0
125 143 0
141 160 0
133 152 0
132 152 0
124 143 0
119 141 0
137 157 0
135 155 0
127 147 0
132 151 0
126 146 0
134 154 0
130 150 0
137 157 0
131 151 0
129 149 0
135 155 0
138 158 0
137 158 0
138 158 0
123 143 0
136 157 0
137 158 0
142 163 0
141 162 0
129 150 0
131 153 0
132 152 0
131 152 0
132 152 0
134 154 0
138 159 0
148 168 0
133 154 0
139 159 0
143 164 0
141 162 0
137 158 0
139 159 0
128 148 0
145 166 0
140 162 0
140 161 0
141 162 0
144 165 0
133 155 0
144 165 0
140 161 0
146 167 0
147 169 0
137 158 0
142 163 0
144 165 0
140 162 0
140 161 0
139 161 0
147 169 0
144 165 0
137 158 0
150 171 0
139 159 0
149 170 0
145 168 0
148 170 0
153 173 0
143 163 0
155 176 0
146 166 0
152 174 0
142 163 0
148 170 0
155 177 0
149 171 0
139 160 0
155 176 0
148 168 0
147 169 0
154 175 0
149 170 0
147 168 0
152 173 0
147 168 0
144 165 0
151 172 0
146 168 0
151 172 0
148 169 0
156 178 0
155 175 0
152 174 0
150 172 0
151 172 0
158 181 0
155 177 0
154 176 0
157 179 0
164 185 0
155 177 0
158 179 0
151 173 0
153 176 0
155 175 0
153 176 0
147 169 0
159 178 0
160 181 0
156 177 0
156 178 0
159 179 0
152 173 0
158 181 0
158 179 0
157 178 0
160 181 0
159 180 0
155 177 0
151 172 0
162 183 0
150 171 0
151 172 0
155 176 0
156 177 0
152 173 0
159 182 0
155 177 0
155 176 0
161 182 0
157 180 0
164 186 0
160 181 0
163 185 0
159 180 0
159 181 0
161 184 0
158 180 0
158 181 0
159 182 0
164 185 0
159 181 0
163 186 0
162 184 0
163 185 0
157 178 0
160 181 0
159 180 0
162 184 0
157 180 0
161 183 0
160 182 0
160 181 0
161 182 0
164 187 0
160 181 0
163 185 0
163 186 0
160 184 0
165 187 0
164 185 0
164 187 0
158 180 0
163 186 0
168 190 0
162 183 0
165 185 0
164 186 0
158 179 0
166 186 0
162 183 0
160 182 0
161 182 0
165 187 0
166 188 0
168 190 0
160 181 0
166 188 0
165 187 0
164 185 0
167 188 0
165 187 0
162 183 0
169 191 0
165 186 0
166 188 0
166 188 0
163 184 0
155 176 0
165 187 0
169 191 0
168 190 0
167 189 0
163 185 0
163 185 0
169 191 0
160 181 0
166 188 0
164 185 0
167 190 0
167 189 0
165 188 0
165 186 0
170 192 0
165 188 0
167 189 0
169 191 0
203 226 255
203 226 255
203 226 255
204 226 255
203 225 255
202 225 255
203 226 255
203 225 255
202 225 255
203 225 255
202 225 255
203 225 255
202 225 255
202 225 255
202 225 255
202 225 255
202 225 255
203 225 255
202 225 255
201 224 255
202 225 255
202 225 255
202 225 255
202 225 255
201 224 255
202 225 255
201 225 255
201 225 255
202 225 255
202 225 255
202 225 255
202 225 255
201 224 255
203 225 255
201 224 255
202 225 255
202 225 255
202 225 255
201 224 255
202 225 255
202 225 255
202 225 255
203 225 255
202 225 255
202 225 255
203 226 255
203 225 255
203 225 255
203 226 255
203 225 255
203 225 255
203 225 255
204 226 255
204 226 255
204 226 255
204 226 255
204 226 255
205 227 255
206 227 255
205 227 255
205 226 255
205 227 255
205 227 255
206 227 255
205 227 255
206 227 255
207 228 255
207 227 255
207 228 255
207 228 255
207 228 255
208 228 255
208 228 255
208 228 255
209 229 255
209 229 255
210 229 255
209 229 255
209 229 255
210 230 255
212 230 255
211 230 255
210 230 255
212 230 255
213 231 255
213 231 255
212 231 255
212 231 255
213 231 255
214 231 255
214 232 255
215 232 255
215 232 255
215 232 255
216 233 255
216 233 255
216 233 255
217 233 254
218 234 255
217 233 252
215 231 246
216 232 249
216 232 245
216 232 246
212 229 236
210 226 224
210 227 224
206 223 209
209 225 218
210 226 220
207 224 211
201 219 189
201 220 193
198 216 177
198 217 177
199 217 179
195 214 161
197 216 173
190 210 149
192 211 159
190 209 137
187 208 128
187 208 133
186 206 130
183 203 108
179 201 95
178 200 80
175 197 57
173 196 57
171 194 62
173 195 36
169 193 0
166 188 0
168 190 0
169 192 0
165 188 0
166 189 0
163 185 0
162 184 0
162 185 0
159 181 0
159 181 0
157 179 0
155 178 0
157 178 0
154 176 0
156 177 0
132 153 0
146 167 0
133 153 0
141 162 0
140 159 0
126 147 0
126 145 0
135 155 0
137 157 0
127 147 0
124 144 0
127 145 0
121 139 0
126 145 0
134 152 0
120 138 0
114 134 0
125 144 0
114 133 0
128 146 0
128 147 0
130 148 0
116 134 0
122 142 0
120 139 0
123 142 0
119 138 0
132 150 0
125 144 0
127 146 0
118 139 0
114 133 0
127 146 0
118 136 0
114 132 0
129 147 0
123 142 0
120 139 0
127 147 0
126 145 0
129 149 0
103 122 0
130 150 0
124 144 0
136 156 0
126 145 0
132 151 0
124 143 0
130 151 0
128 148 0
117 137 0
120 140 0
129 149 0
140 159 0
135 156 0
141 161 0
132 152 0
130 150 0
128 148 0
125 145 0
129 150 0
135 154 0
130 149 0
127 148 0
126 146 0
130 150 0
131 150 0
133 153 0
129 149 0
127 147 0
134 154 0
140 160 0
137 157 0
115 137 0
138 157 0
131 151 0
140 161 0
138 158 0
139 159 0
141 161 0
142 163 0
141 162 0
137 158 0
139 160 0
134 155 0
140 161 0
141 161 0
140 161 0
138 159 0
136 158 0
143 164 0
138 158 0
131 153 0
141 162 0
143 165 0
139 159 0
139 161 0
145 166 0
143 163 0
139 158 0
147 168 0
147 168 0
142 162 0
151 172 0
144 165 0
149 170 0
146 167 0
148 169 0
145 167 0
151 172 0
150 172 0
149 169 0
144 165 0
149 171 0
146 167 0
151 172 0
143 164 0
142 164 0
147 168 0
150 171 0
143 165 0
151 172 0
147 169 0
142 163 0
152 172 0
147 167 0
145 168 0
156 176 0
150 171 0
152 172 0
145 167 0
150 171 0
154 175 0
151 172 0
152 172 0
158 181 0
155 177 0
154 175 0
150 172 0
155 176 0
150 173 0
154 175 0
156 177 0
156 179 0
158 180 0
154 176 0
153 174 0
158 180 0
150 169 0
159 182 0
156 178 0
159 181 0
156 177 0
155 177 0
159 179 0
154 177 0
158 179 0
152 174 0
162 184 0
155 177 0
159 180 0
156 177 0
153 173 0
152 174 0
159 181 0
154 176 0
154 176 0
158 179 0
157 180 0
166 188 0
158 180 0
156 178 0
158 178 0
159 181 0
160 183 0
159 180 0
164 187 0
155 177 0
159 180 0
162 184 0
151 173 0
164 186 0
157 178 0
160 182 0
153 174 0
159 182 0
162 184 0
157 178 0
160 183 0
162 182 0
163 185 0
160 182 0
162 185 0
163 184 0
159 182 0
163 186 0
154 175 0
160 183 0
161 183 0
162 184 0
165 186 0
158 179 0
165 188 0
161 182 0
161 183 0
157 179 0
160 180 0
165 188 0
157 179 0
158 180 0
160 183 0
163 184 0
169 189 0
170 193 0
163 184 0
159 181 0
170 191 0
162 184 0
160 181 0
164 186 0
161 184 0
164 187 0
163 185 0
164 186 0
163 185 0
163 185 0
162 183 0
165 186 0
169 191 0
163 185 0
167 189 0
165 188 0
167 189 0
164 187 0
163 185 0
165 186 0
162 183 0
168 188 0
168 191 0
170 192 0
170 192 0
166 187 0
167 189 0
169 190 0
165 186 0
166 188 0
165 186 0
165 187 0
166 187 0
168 190 0
166 188 0
169 192 0
168 190 0
204 226 255
204 226 255
204 226 255
204 226 255
203 226 255
203 225 255
203 226 255
204 226 255
203 226 255
203 226 255
203 225 255
204 226 255
202 225 255
203 225 255
202 225 255
202 225 255
203 226 255
202 225 255
202 225 255
202 225 255
201 225 255
202 225 255
202 225 255
201 225 255
202 225 255
201 225 255
202 225 255
201 225 255
202 225 255
203 225 255
202 225 255
202 225 255
202 225 255
202 225 255
204 226 255
203 226 255
202 225 255
203 226 255
202 225 255
203 226 255
202 225 255
203 225 255
203 225 255
203 226 255
203 225 255
203 226 255
203 226 255
203 226 255
204 226 255
204 226 255
204 226 255
204 226 255
204 226 255
204 226 255
205 226 255
205 226 255
205 226 255
205 227 255
205 227 255
205 227 255
206 227 255
206 227 255
207 227 255
206 227 255
207 227 255
206 227 255
207 227 255
207 228 255
207 228 255
207 228 255
208 228 255
209 229 255
209 229 255
208 228 255
209 229 255
210 229 255
211 230 255
210 229 255
210 229 255
210 229 255
211 230 255
211 230 255
212 230 255
212 230 255
213 231 255
213 231 255
213 231 255
214 231 255
214 232 255
214 232 255
215 232 255
216 232 255
216 233 255
216 232 255
217 233 255
217 233 255
215 232 250
217 233 255
217 233 252
216 232 248
215 231 246
215 231 245
216 231 245
213 229 236
212 228 230
212 229 233
208 225 218
209 226 221
210 226 218
205 223 206
206 223 209
205 223 207
202 219 191
201 219 188
200 218 182
196 214 163
195 214 165
193 213 155
188 208 130
188 208 128
181 202 111
186 207 117
185 206 125
182 204 108
179 201 95
178 200 84
174 196 80
173 196 51
169 192 25
170 193 36
170 194 0
167 191 0
165 188 0
170 192 0
169 192 0
168 191 0
164 186 0
167 190 0
159 181 0
164 187 0
159 183 0
158 180 0
154 175 0
158 179 0
144 166 0
146 167 0
152 174 0
143 165 0
144 166 0
144 165 0
136 156 0
135 155 0
132 153 0
131 151 0
140 160 0
135 155 0
127 147 0
120 140 0
122 141 0
127 146 0
121 140 0
122 142 0
116 134 0
121 140 0
118 137 0
122 141 0
125 144 0
130 149 0
134 153 0
126 144 0
114 133 0
121 140 0
112 130 0
132 151 0
123 142 0
121 141 0
127 147 0
123 144 0
129 149 0
127 145 0
132 151 0
126 145 0
128 148 0
126 146 0
132 151 0
123 142 0
122 141 0
122 142 0
129 148 0
138 157 0
128 146 0
117 137 0
133 152 0
129 149 0
127 145 0
119 137 0
122 142 0
137 159 0
135 155 0
134 154 0
133 153 0
135 155 0
134 154 0
126 147 0
135 155 0
123 143 0
135 156 0
133 153 0
127 147 0
134 154 0
128 148 0
130 149 0
128 148 0
146 166 0
128 148 0
139 158 0
138 160 0
137 159 0
137 157 0
142 163 0
134 155 0
139 161 0
131 152 0
144 165 0
136 156 0
132 155 0
132 152 0
140 160 0
141 162 0
128 149 0
134 155 0
139 160 0
140 161 0
138 160 0
139 160 0
143 164 0
135 156 0
138 159 0
154 176 0
135 156 0
142 161 0
141 162 0
148 170 0
143 162 0
138 161 0
147 168 0
145 167 0
141 163 0
144 165 0
143 164 0
142 163 0
148 169 0
153 174 0
144 166 0
148 169 0
149 171 0
150 172 0
146 167 0
149 171 0
156 176 0
146 167 0
153 175 0
142 163 0
142 163 0
144 165 0
148 169 0
156 177 0
149 171 0
147 168 0
150 171 0
148 170 0
139 160 0
147 169 0
147 169 0
156 177 0
148 169 0
154 176 0
156 178 0
157 178 0
150 172 0
154 176 0
157 178 0
151 173 0
152 173 0
153 175 0
151 174 0
151 172 0
164 186 0
148 169 0
156 178 0
157 178 0
147 169 0
163 184 0
157 179 0
149 171 0
159 181 0
149 170 0
162 184 0
151 173 0
160 183 0
155 178 0
157 180 0
152 174 0
153 175 0
154 175 0
160 183 0
162 185 0
156 177 0
155 179 0
160 183 0
155 176 0
161 184 0
162 184 0
152 172 0
156 176 0
156 178 0
162 183 0
158 179 0
157 179 0
161 184 0
163 186 0
154 176 0
161 181 0
158 180 0
156 177 0
161 183 0
162 184 0
155 177 0
162 184 0
157 181 0
162 184 0
162 185 0
162 185 0
157 180 0
155 177 0
160 181 0
165 187 0
160 182 0
160 181 0
158 179 0
159 181 0
159 180 0
160 182 0
159 179 0
162 184 0
159 180 0
160 182 0
165 187 0
160 182 0
163 184 0
158 179 0
161 183 0
164 187 0
160 182 0
158 180 0
164 184 0
157 178 0
166 188 0
165 187 0
163 184 0
163 185 0
165 187 0
166 188 0
164 187 0
170 191 0
166 187 0
162 184 0
162 184 0
165 188 0
167 190 0
168 189 0
156 178 0
167 188 0
166 188 0
166 187 0
168 191 0
165 187 0
166 189 0
168 191 0
160 181 0
165 186 0
162 183 0
163 185 0
165 188 0
166 188 0
161 183 0
166 188 0
161 182 0
168 191 0
164 187 0
167 189 0
165 185 0
164 185 0
168 188 0
167 190 0
166 190 0
164 186 0
169 192 0
168 189 0
168 190 0
205 226 255
205 226 255
205 227 255
204 226 255
204 226 255
204 226 255
204 226 255
204 226 255
203 226 255
203 226 255
203 226 255
203 226 255
203 225 255
204 226 255
203 226 255
203 226 255
203 225 255
203 225 255
203 225 255
203 226 255
203 225 255
203 225 255
202 225 255
203 225 255
202 225 255
202 225 255
203 225 255
203 225 255
202 225 255
202 225 255
202 225 255
203 225 255
203 226 255
203 225 255
202 225 255
202 225 255
203 225 255
203 225 255
203 226 255
204 226 255
203 225 255
203 226 255
204 226 255
203 225 255
204 226 255
204 226 255
204 226 255
204 226 255
204 226 255
205 226 255
204 226 255
204 226 255
205 226 255
205 227 255
205 227 255
206 227 255
205 227 255
205 227 255
207 227 255
206 227 255
206 227 255
206 227 255
207 228 255
206 227 255
207 228 255
207 228 255
208 228 255
208 228 255
208 228 255
208 228 255
209 229 255
210 229 255
209 229 255
209 229 255
210 229 255
210 229 255
210 229 255
211 230 255
212 230 255
212 230 255
211 230 255
211 230 255
212 230 255
213 231 255
212 231 255
213 231 255
214 232 255
214 231 255
214 231 255
214 232 255
215 232 255
215 232 255
215 232 255
216 232 255
217 233 255
217 233 254
217 233 254
215 231 246
216 232 246
218 233 252
216 231 242
214 230 236
217 232 246
213 229 236
210 227 226
208 225 220
206 223 211
210 226 221
208 224 212
208 224 217
199 218 186
203 221 196
200 219 186
199 218 182
194 214 159
198 215 175
189 209 142
186 207 125
186 207 133
186 206 114
185 206 120
185 205 122
179 201 92
176 198 76
178 201 84
174 196 67
171 194 51
174 196 51
171 193 44
169 192 25
170 194 0
171 195 0
167 190 0
170 193 0
165 188 0
169 192 0
167 191 0
165 187 0
167 190 0
160 183 0
160 182 0
159 181 0
158 181 0
160 182 0
156 178 0
151 174 0
153 176 0
151 172 0
143 164 0
146 166 0
138 158 0
138 158 0
141 161 0
134 154 0
138 157 0
123 143 0
119 139 0
116 134 0
126 144 0
120 139 0
121 139 0
126 145 0
126 145 0
123 143 0
118 138 0
134 153 0
123 141 0
126 145 0
124 143 0
124 145 0
121 139 0
126 145 0
137 158 0
130 150 0
106 125 0
125 143 0
121 140 0
123 142 0
126 146 0
134 154 0
118 137 0
130 148 0
130 150 0
124 144 0
133 152 0
119 138 0
133 153 0
127 148 0
123 143 0
132 152 0
137 157 0
120 139 0
131 150 0
135 155 0
130 150 0
125 144 0
134 154 0
130 150 0
130 151 0
126 147 0
134 154 0
129 149 0
125 145 0
130 148 0
132 151 0
143 164 0
139 157 0
127 146 0
124 144 0
135 154 0
129 149 0
133 153 0
139 160 0
140 160 0
143 162 0
139 159 0
138 159 0
133 153 0
126 146 0
138 161 0
124 145 0
132 153 0
139 158 0
136 156 0
137 158 0
129 149 0
146 168 0
140 161 0
138 158 0
127 147 0
141 163 0
127 147 0
146 166 0
146 167 0
142 164 0
139 161 0
135 156 0
140 162 0
139 159 0
144 163 0
142 163 0
141 162 0
134 154 0
136 157 0
147 169 0
145 165 0
155 177 0
148 171 0
148 169 0
149 170 0
135 156 0
145 165 0
147 169 0
146 167 0
151 171 0
146 167 0
142 163 0
143 164 0
153 174 0
151 172 0
149 170 0
149 171 0
149 170 0
149 171 0
140 161 0
151 171 0
151 173 0
151 173 0
156 177 0
147 170 0
149 171 0
155 179 0
145 167 0
152 173 0
146 167 0
159 181 0
149 173 0
152 175 0
152 175 0
156 177 0
149 172 0
154 174 0
157 179 0
146 168 0
150 171 0
154 174 0
149 171 0
147 170 0
153 174 0
155 176 0
157 177 0
154 175 0
158 181 0
156 178 0
159 180 0
157 179 0
157 179 0
155 177 0
156 178 0
158 180 0
157 179 0
152 173 0
162 184 0
160 184 0
156 177 0
153 173 0
157 179 0
158 181 0
159 181 0
156 179 0
157 180 0
158 180 0
152 173 0
155 177 0
160 182 0
149 170 0
154 175 0
157 179 0
156 178 0
162 183 0
152 174 0
154 177 0
153 173 0
162 184 0
167 190 0
155 175 0
162 184 0
157 179 0
163 185 0
153 175 0
162 186 0
160 183 0
157 179 0
161 182 0
164 186 0
162 184 0
159 181 0
161 184 0
161 183 0
159 181 0
158 179 0
162 184 0
160 180 0
162 184 0
160 181 0
163 184 0
158 180 0
162 184 0
162 184 0
164 187 0
163 184 0
160 181 0
162 184 0
162 185 0
160 182 0
161 182 0
162 184 0
165 187 0
159 181 0
164 187 0
165 187 0
163 184 0
160 181 0
167 189 0
161 183 0
165 186 0
164 185 0
167 189 0
166 186 0
164 186 0
162 184 0
158 179 0
166 188 0
163 186 0
167 190 0
171 194 0
169 190 0
164 186 0
168 191 0
164 187 0
164 187 0
167 189 0
164 185 0
162 183 0
163 185 0
167 190 0
164 186 0
160 181 0
165 187 0
165 186 0
167 188 0
165 187 0
165 186 0
169 190 0
165 188 0
168 191 0
165 187 0
168 191 0
161 183 0
165 186 0
206 227 255
206 227 255
205 226 255
205 227 255
205 227 255
204 226 255
204 226 255
204 226 255
205 227 255
205 226 255
204 226 255
204 226 255
204 226 255
204 226 255
204 226 255
204 226 255
204 226 255
203 226 255
204 226 255
202 225 255
204 226 255
203 225 255
204 226 255
203 226 255
203 225 255
202 225 255
202 225 255
204 226 255
203 226 255
202 225 255
203 225 255
203 225 255
204 226 255
204 226 255
204 226 255
203 225 255
203 225 255
204 226 255
203 226 255
203 226 255
204 226 255
203 225 255
204 226 255
204 226 255
204 226 255
205 226 255
205 227 255
205 226 255
204 226 255
205 226 255
205 226 255
205 227 255
206 227 255
205 227 255
206 227 255
205 227 255
206 227 255
205 227 255
206 227 255
206 227 255
207 228 255
207 228 255
207 228 255
207 228 255
207 227 255
207 228 255
209 229 255
209 229 255
208 228 255
209 229 255
210 229 255
209 229 255
210 229 255
211 230 255
210 229 255
211 230 255
212 230 255
211 230 255
212 230 255
212 230 255
212 231 255
212 230 255
213 231 255
213 231 255
214 231 255
214 231 255
213 231 255
215 232 255
214 231 255
216 232 255
216 233 255
216 232 255
217 233 255
216 233 255
216 232 249
216 232 253
216 232 249
215 231 245
217 233 250
214 230 242
213 230 240
213 229 234
210 226 223
210 227 226
208 224 215
208 225 218
207 224 209
204 221 201
207 223 206
197 216 182
199 217 181
200 218 184
200 218 182
200 218 182
198 216 169
192 212 153
192 211 147
191 210 142
183 203 108
187 207 122
183 204 111
187 207 125
181 201 102
178 199 84
179 201 88
178 199 62
177 199 76
170 193 36
172 195 36
169 192 0
167 190 0
170 193 0
168 191 0
169 192 0
168 190 0
162 185 0
163 185 0
165 187 0
162 185 0
166 189 0
162 185 0
161 184 0
156 178 0
151 173 0
148 171 0
150 172 0
152 175 0
147 168 0
146 167 0
148 169 0
132 153 0
142 162 0
144 164 0
135 155 0
126 146 0
127 146 0
135 154 0
128 148 0
135 156 0
117 135 0
127 147 0
126 145 0
132 151 0
127 146 0
110 129 0
120 139 0
117 135 0
113 132 0
128 148 0
125 143 0
130 151 0
126 147 0
125 144 0
117 135 0
132 151 0
125 145 0
114 134 0
134 153 0
129 150 0
127 147 0
126 147 0
124 144 0
129 149 0
126 145 0
125 145 0
134 154 0
135 155 0
136 157 0
122 141 0
129 148 0
129 148 0
141 160 0
117 138 0
134 155 0
139 159 0
131 150 0
134 153 0
123 141 0
130 150 0
141 162 0
130 150 0
131 151 0
130 150 0
140 160 0
143 163 0
126 147 0
133 154 0
140 160 0
135 156 0
143 164 0
143 164 0
121 142 0
133 155 0
137 157 0
139 160 0
138 158 0
147 167 0
130 151 0
134 154 0
150 170 0
139 160 0
140 161 0
143 166 0
139 160 0
133 153 0
138 159 0
146 167 0
135 155 0
132 152 0
135 155 0
137 157 0
140 161 0
152 173 0
150 171 0
138 159 0
140 162 0
137 158 0
146 167 0
139 160 0
143 164 0
149 170 0
145 166 0
146 168 0
148 170 0
137 159 0
154 176 0
146 168 0
147 166 0
145 166 0
146 168 0
146 167 0
142 163 0
153 175 0
149 170 0
140 160 0
155 177 0
140 162 0
156 179 0
148 169 0
150 171 0
142 163 0
150 172 0
148 171 0
153 176 0
148 170 0
145 167 0
145 167 0
154 176 0
146 168 0
148 171 0
155 177 0
150 171 0
153 174 0
153 175 0
150 170 0
155 178 0
148 170 0
149 171 0
148 170 0
152 173 0
153 175 0
156 178 0
150 171 0
154 177 0
151 172 0
150 173 0
155 177 0
153 174 0
157 179 0
153 174 0
156 178 0
153 175 0
156 179 0
155 176 0
150 171 0
152 175 0
158 180 0
144 165 0
153 174 0
156 179 0
159 180 0
156 178 0
153 175 0
157 177 0
153 175 0
151 174 0
159 181 0
155 177 0
155 176 0
156 179 0
161 185 0
166 187 0
159 181 0
160 181 0
152 174 0
158 180 0
157 178 0
160 182 0
160 182 0
158 179 0
162 184 0
166 187 0
160 182 0
160 183 0
159 182 0
154 174 0
158 180 0
158 180 0
163 186 0
162 184 0
159 181 0
160 181 0
162 184 0
163 184 0
166 187 0
158 181 0
161 183 0
155 177 0
165 187 0
162 185 0
160 181 0
163 184 0
167 190 0
162 184 0
162 184 0
162 184 0
160 183 0
164 186 0
163 186 0
162 183 0
163 183 0
161 182 0
164 186 0
167 189 0
156 176 0
163 186 0
167 188 0
168 191 0
164 185 0
163 185 0
165 187 0
168 190 0
159 181 0
166 188 0
162 182 0
165 187 0
167 190 0
163 186 0
169 191 0
162 183 0
163 186 0
164 187 0
164 186 0
166 188 0
166 189 0
165 187 0
164 186 0
170 193 0
164 187 0
164 186 0
163 186 0
164 187 0
165 186 0
165 189 0
163 185 0
162 184 0
166 189 0
165 187 0
164 185 0
167 189 0
169 192 0
162 183 0
169 192 0
166 188 0
163 186 0
163 185 0
160 183 0
165 188 0
169 190 0
165 186 0
206 227 255
207 227 255
206 227 255
206 227 255
206 227 255
206 227 255
205 227 255
205 227 255
205 227 255
204 226 255
205 227 255
204 226 255
205 226 255
205 226 255
204 226 255
204 226 255
205 226 255
204 226 255
205 226 255
204 226 255
204 226 255
203 226 255
203 226 255
203 226 255
204 226 255
204 226 255
205 226 255
204 226 255
203 225 255
204 226 255
204 226 255
204 226 255
203 226 255
204 226 255
204 226 255
204 226 255
204 226 255
205 226 255
205 226 255
205 226 255
204 226 255
204 226 255
204 226 255
205 226 255
205 226 255
205 227 255
205 226 255
206 227 255
205 227 255
206 227 255
205 227 255
206 227 255
205 227 255
206 227 255
206 227 255
206 227 255
206 227 255
206 227 255
207 227 255
207 227 255
208 228 255
207 228 255
208 228 255
207 228 255
207 228 255
209 229 255
209 229 255
209 229 255
209 229 255
209 229 255
209 229 255
212 230 255
211 230 255
211 230 255
211 230 255
211 230 255
211 230 255
211 230 255
212 231 255
212 231 255
213 231 255
213 231 255
213 231 255
214 231 255
214 231 255
214 232 255
214 231 255
215 232 255
216 232 255
215 232 255
216 233 255
216 233 254
216 233 254
216 232 253
218 234 254
216 232 252
214 230 240
217 233 250
213 229 237
214 230 240
210 227 230
215 231 241
207 224 214
209 226 221
210 226 223
206 223 211
208 225 217
208 225 215
205 223 204
201 219 189
201 219 188
202 220 188
201 218 184
197 215 173
195 214 161
189 210 140
189 208 142
192 211 153
185 206 122
182 204 105
183 204 111
183 203 105
183 204 108
178 199 95
177 199 84
176 198 76
173 197 44
170 193 44
170 193 25
167 190 0
167 189 0
167 191 0
165 188 0
163 186 0
167 189 0
160 183 0
166 189 0
161 183 0
164 186 0
159 182 0
162 184 0
159 182 0
155 178 0
159 182 0
150 171 0
149 170 0
144 167 0
140 161 0
145 166 0
140 161 0
149 169 0
147 168 0
144 165 0
149 169 0
138 158 0
124 144 0
127 146 0
127 146 0
133 153 0
115 134 0
121 139 0
114 132 0
133 153 0
130 150 0
119 139 0
124 143 0
130 150 0
125 145 0
134 153 0
125 145 0
125 144 0
112 132 0
127 147 0
120 139 0
129 148 0
124 143 0
132 151 0
135 154 0
121 141 0
130 150 0
126 146 0
134 154 0
136 156 0
125 144 0
127 146 0
120 140 0
122 141 0
129 149 0
126 145 0
126 147 0
132 151 0
120 140 0
130 151 0
142 164 0
133 152 0
131 151 0
134 155 0
136 156 0
128 147 0
132 151 0
144 164 0
129 150 0
144 165 0
137 157 0
136 157 0
123 144 0
128 147 0
139 159 0
136 156 0
148 168 0
134 156 0
129 150 0
138 158 0
139 161 0
129 149 0
140 160 0
141 161 0
140 162 0
148 168 0
137 157 0
135 156 0
138 159 0
133 153 0
135 155 0
137 158 0
141 162 0
140 161 0
143 164 0
139 160 0
141 160 0
144 165 0
142 161 0
145 167 0
139 159 0
148 169 0
144 166 0
136 158 0
136 158 0
142 162 0
143 164 0
143 165 0
146 167 0
142 163 0
147 166 0
144 164 0
151 170 0
143 163 0
148 170 0
147 168 0
153 175 0
157 179 0
146 169 0
150 173 0
146 168 0
145 165 0
149 171 0
141 163 0
144 165 0
150 172 0
150 172 0
148 170 0
138 159 0
146 167 0
151 172 0
147 168 0
145 167 0
150 171 0
149 170 0
147 169 0
148 170 0
155 177 0
159 179 0
149 171 0
157 179 0
146 168 0
155 176 0
152 173 0
146 168 0
146 168 0
156 179 0
156 178 0
159 180 0
152 173 0
149 170 0
165 188 0
155 177 0
153 174 0
156 179 0
155 177 0
151 173 0
153 176 0
159 181 0
156 176 0
159 181 0
156 177 0
155 177 0
154 175 0
154 177 0
155 177 0
157 180 0
165 186 0
151 172 0
151 172 0
154 175 0
155 177 0
156 178 0
159 182 0
158 180 0
153 174 0
159 181 0
163 185 0
157 180 0
160 181 0
158 180 0
157 180 0
167 189 0
161 182 0
167 188 0
157 179 0
162 185 0
158 181 0
153 176 0
159 180 0
163 186 0
160 183 0
160 183 0
164 187 0
159 180 0
161 184 0
159 180 0
158 177 0
159 180 0
165 187 0
159 182 0
160 181 0
161 182 0
165 188 0
159 181 0
155 178 0
163 186 0
164 186 0
163 185 0
161 184 0
160 182 0
160 181 0
162 184 0
164 187 0
164 186 0
166 188 0
161 182 0
164 185 0
160 182 0
155 176 0
165 187 0
162 184 0
164 188 0
162 184 0
164 186 0
164 184 0
162 184 0
161 183 0
166 188 0
165 186 0
166 188 0
161 183 0
166 188 0
164 187 0
158 180 0
165 186 0
164 187 0
166 188 0
160 182 0
160 182 0
165 188 0
168 190 0
165 187 0
163 183 0
165 187 0
168 190 0
168 190 0
164 187 0
164 185 0
164 186 0
160 181 0
167 189 0
165 186 0
160 182 0
165 189 0
165 187 0
165 188 0
165 188 0
164 187 0
167 189 0
168 190 0
169 192 0
168 190 0
169 192 0
167 190 0
167 189 0
168 191 0
206 227 255
207 228 255
207 227 255
206 227 255
206 227 255
206 227 255
205 227 255
204 226 255
205 227 255
205 226 255
206 227 255
205 227 255
206 227 255
205 227 255
205 227 255
205 226 255
205 227 255
205 227 255
204 226 255
205 226 255
205 227 255
205 227 255
204 226 255
205 227 255
204 226 255
204 226 255
204 226 255
205 226 255
205 226 255
205 226 255
203 226 255
204 226 255
203 225 255
204 226 255
204 226 255
204 226 255
205 227 255
206 227 255
205 227 255
205 226 255
205 226 255
205 226 255
205 227 255
205 226 255
205 227 255
205 226 255
205 227 255
206 227 255
206 227 255
206 227 255
205 226 255
206 227 255
207 228 255
206 227 255
207 228 255
207 228 255
207 228 255
208 228 255
207 228 255
208 228 255
208 228 255
208 228 255
208 228 255
208 228 255
209 229 255
209 229 255
209 229 255
209 229 255
209 229 255
211 230 255
210 229 255
211 230 255
212 230 255
212 230 255
210 230 255
212 230 255
211 230 255
213 231 255
212 230 255
213 231 255
213 231 255
213 231 255
213 231 255
214 232 255
215 232 255
215 232 255
216 233 255
216 232 255
217 233 255
216 232 255
216 232 254
216 232 254
217 233 254
215 232 250
215 231 246
215 231 244
215 231 244
216 232 244
213 229 237
213 229 237
214 230 240
209 226 221
209 226 218
205 222 206
207 224 214
204 222 204
206 223 209
204 221 198
201 219 193
204 221 199
200 218 182
195 214 167
191 211 151
192 212 151
194 213 157
192 212 153
187 207 120
188 208 142
185 206 120
184 205 108
186 206 120
179 201 67
178 201 72
178 200 72
177 199 57
176 198 51
170 194 44
170 193 25
170 193 0
169 192 0
164 186 0
168 191 0
168 190 0
163 185 0
163 186 0
164 188 0
164 187 0
163 186 0
164 187 0
158 181 0
163 186 0
159 182 0
150 172 0
155 176 0
156 178 0
151 172 0
146 167 0
143 164 0
147 168 0
141 161 0
146 166 0
146 165 0
132 152 0
143 163 0
130 149 0
134 154 0
138 157 0
126 145 0
128 147 0
127 146 0
131 150 0
125 145 0
128 147 0
122 141 0
109 129 0
128 149 0
122 142 0
127 148 0
128 148 0
127 146 0
120 138 0
132 151 0
126 145 0
129 148 0
126 147 0
131 150 0
134 154 0
135 153 0
132 152 0
113 133 0
130 149 0
131 151 0
121 140 0
132 152 0
129 149 0
142 163 0
125 144 0
139 160 0
141 161 0
141 161 0
129 149 0
123 143 0
124 144 0
127 148 0
127 147 0
132 152 0
138 158 0
128 148 0
135 156 0
137 158 0
129 151 0
132 153 0
136 156 0
125 146 0
138 158 0
139 158 0
137 157 0
140 162 0
141 162 0
139 159 0
131 150 0
138 158 0
132 153 0
137 157 0
127 148 0
144 166 0
137 159 0
136 158 0
137 157 0
139 159 0
142 163 0
137 157 0
136 156 0
138 160 0
139 159 0
139 160 0
141 163 0
143 164 0
145 166 0
142 163 0
132 154 0
139 159 0
142 163 0
142 163 0
146 168 0
139 159 0
137 159 0
141 163 0
143 164 0
149 171 0
143 166 0
145 166 0
148 170 0
146 167 0
140 162 0
138 159 0
151 173 0
148 170 0
152 175 0
141 164 0
148 170 0
141 163 0
152 174 0
155 176 0
150 172 0
140 161 0
151 173 0
155 176 0
149 171 0
142 163 0
149 172 0
154 176 0
145 168 0
150 172 0
153 175 0
146 167 0
157 179 0
141 163 0
144 166 0
147 170 0
155 176 0
146 167 0
147 169 0
155 177 0
157 178 0
150 171 0
156 178 0
146 168 0
155 176 0
146 167 0
154 175 0
147 168 0
155 177 0
149 169 0
152 173 0
156 178 0
152 174 0
154 177 0
161 183 0
154 176 0
152 174 0
159 181 0
146 168 0
154 176 0
158 180 0
158 179 0
154 175 0
154 176 0
150 173 0
154 175 0
162 184 0
159 181 0
158 179 0
161 182 0
158 180 0
158 178 0
160 182 0
163 185 0
162 183 0
162 185 0
164 187 0
156 177 0
162 185 0
161 183 0
159 182 0
160 182 0
164 185 0
157 179 0
163 186 0
162 183 0
160 182 0
164 186 0
161 184 0
157 180 0
158 180 0
160 182 0
155 177 0
159 181 0
161 183 0
160 182 0
164 186 0
160 183 0
155 176 0
160 181 0
152 173 0
162 183 0
163 187 0
160 180 0
162 184 0
169 191 0
161 183 0
161 184 0
161 184 0
161 183 0
162 184 0
166 189 0
166 188 0
162 184 0
165 186 0
164 187 0
164 184 0
164 185 0
159 183 0
166 189 0
160 182 0
165 186 0
166 188 0
162 184 0
165 187 0
165 186 0
160 182 0
163 186 0
163 184 0
162 184 0
163 186 0
165 189 0
168 190 0
165 187 0
165 187 0
165 188 0
163 186 0
164 187 0
167 189 0
165 188 0
161 182 0
164 186 0
164 186 0
165 187 0
163 186 0
164 187 0
168 191 0
166 189 0
163 185 0
167 189 0
166 188 0
165 187 0
165 188 0
166 189 0
165 187 0
168 191 0
166 188 0
164 186 0
166 187 0
171 194 0
168 190 0
167 190 0
166 188 0
166 188 0
164 187 0
165 187 0
207 228 255
206 227 255
208 228 255
206 227 255
208 228 255
207 228 255
206 227 255
206 227 255
206 227 255
206 227 255
206 227 255
205 227 255
206 227 255
205 227 255
205 227 255
205 226 255
206 227 255
205 226 255
205 227 255
205 227 255
205 227 255
205 227 255
204 226 255
204 226 255
205 226 255
206 227 255
205 227 255
204 226 255
205 227 255
205 227 255
206 227 255
204 226 255
205 226 255
205 227 255
205 227 255
205 227 255
205 226 255
205 227 255
205 227 255
206 227 255
205 227 255
206 227 255
207 227 255
206 227 255
206 227 255
205 227 255
205 227 255
206 227 255
207 228 255
206 227 255
207 228 255
206 227 255
207 227 255
207 228 255
207 228 255
207 228 255
208 228 255
208 228 255
208 228 255
208 228 255
208 228 255
209 229 255
209 229 255
209 229 255
210 229 255
210 229 255
210 229 255
210 229 255
211 230 255
211 230 255
210 230 255
211 230 255
212 230 255
212 230 255
212 230 255
212 231 255
213 231 255
212 230 255
213 231 255
214 231 255
214 231 255
214 231 255
216 232 255
215 232 255
214 232 255
215 232 255
216 233 255
216 233 255
217 233 255
216 233 254
217 233 254
217 233 253
216 232 249
215 231 246
215 231 246
212 229 236
214 230 238
210 227 227
212 228 233
210 227 226
210 227 224
213 229 233
208 225 218
208 225 215
208 225 214
208 225 217
203 220 194
202 220 193
200 219 188
198 216 173
200 218 186
191 210 144
196 215 165
195 213 159
190 210 142
183 204 120
189 209 130
188 208 135
186 206 114
184 205 122
182 204 102
180 202 88
175 198 67
172 194 36
174 196 62
172 195 44
173 196 25
166 190 0
172 196 0
171 193 0
167 191 0
164 187 0
169 192 0
170 192 0
162 184 0
166 190 0
164 188 0
168 191 0
158 180 0
160 183 0
158 181 0
153 176 0
160 183 0
153 176 0
153 175 0
147 168 0
148 169 0
158 179 0
144 164 0
144 165 0
145 166 0
138 159 0
139 160 0
139 160 0
132 151 0
123 144 0
135 155 0
144 164 0
124 145 0
127 147 0
121 139 0
122 142 0
123 143 0
123 143 0
127 146 0
131 152 0
133 153 0
120 140 0
128 147 0
122 141 0
134 153 0
139 160 0
132 151 0
131 150 0
130 150 0
131 151 0
127 148 0
140 160 0
132 153 0
133 153 0
138 159 0
128 149 0
129 148 0
122 140 0
126 146 0
125 145 0
128 149 0
127 146 0
139 159 0
137 157 0
137 157 0
125 144 0
124 144 0
136 155 0
128 146 0
135 156 0
138 160 0
132 152 0
133 155 0
135 155 0
143 163 0
134 154 0
135 156 0
135 155 0
131 153 0
133 152 0
140 160 0
141 162 0
139 159 0
148 168 0
143 164 0
138 158 0
138 160 0
131 151 0
139 159 0
133 154 0
140 162 0
139 159 0
143 164 0
139 161 0
141 162 0
137 158 0
138 158 0
133 153 0
142 161 0
145 167 0
145 167 0
146 168 0
138 159 0
137 157 0
145 167 0
144 165 0
144 165 0
142 164 0
145 165 0
146 167 0
148 169 0
144 166 0
146 167 0
141 163 0
143 164 0
148 169 0
147 169 0
146 167 0
150 171 0
145 166 0
143 165 0
148 168 0
151 173 0
143 166 0
138 159 0
144 166 0
145 167 0
144 165 0
152 173 0
143 163 0
145 167 0
139 160 0
150 172 0
147 169 0
144 166 0
149 172 0
154 175 0
139 161 0
155 176 0
155 178 0
153 174 0
152 174 0
155 176 0
150 172 0
155 176 0
149 170 0
148 170 0
143 165 0
154 176 0
147 170 0
154 176 0
154 175 0
150 170 0
151 173 0
156 177 0
145 166 0
156 178 0
157 179 0
156 179 0
155 176 0
150 170 0
159 181 0
156 177 0
155 178 0
164 186 0
145 167 0
162 184 0
158 180 0
158 180 0
154 174 0
156 178 0
155 177 0
148 170 0
156 178 0
157 179 0
156 177 0
159 181 0
163 184 0
157 179 0
161 183 0
159 179 0
152 174 0
154 176 0
164 186 0
156 178 0
158 180 0
155 177 0
164 186 0
162 184 0
161 184 0
162 184 0
159 181 0
160 181 0
158 180 0
162 183 0
163 185 0
161 183 0
159 181 0
155 178 0
156 178 0
152 172 0
162 186 0
164 186 0
159 181 0
158 180 0
158 180 0
157 178 0
164 186 0
158 180 0
160 181 0
164 186 0
162 184 0
162 182 0
154 177 0
165 185 0
160 181 0
167 189 0
162 185 0
163 185 0
163 185 0
163 185 0
167 188 0
158 181 0
165 187 0
164 186 0
162 185 0
160 182 0
165 187 0
168 191 0
164 187 0
163 187 0
164 187 0
162 184 0
164 187 0
162 184 0
162 184 0
168 190 0
168 189 0
163 185 0
164 186 0
159 180 0
168 190 0
161 184 0
162 185 0
165 187 0
166 187 0
167 187 0
165 186 0
163 186 0
168 189 0
164 186 0
165 188 0
169 191 0
163 185 0
166 188 0
161 184 0
163 186 0
164 186 0
165 186 0
160 182 0
165 186 0
167 190 0
166 188 0
164 187 0
161 184 0
170 192 0
163 184 0
167 190 0
165 187 0
167 189 0
170 193 0
170 191 0
167 190 0
165 187 0
208 228 255
207 228 255
207 227 255
207 228 255
207 227 255
207 227 255
207 228 255
207 228 255
207 228 255
206 227 255
206 227 255
206 227 255
206 227 255
206 227 255
206 227 255
206 227 255
206 227 255
206 227 255
206 227 255
205 227 255
206 227 255
206 227 255
205 226 255
205 227 255
206 227 255
206 227 255
205 227 255
205 227 255
206 227 255
205 227 255
206 227 255
206 227 255
205 227 255
207 227 255
205 227 255
206 227 255
206 227 255
205 227 255
205 227 255
206 227 255
206 227 255
206 227 255
207 228 255
206 227 255
207 228 255
207 228 255
207 228 255
207 228 255
207 228 255
208 228 255
207 228 255
207 228 255
208 228 255
208 228 255
208 228 255
208 228 255
208 228 255
208 228 255
209 229 255
209 229 255
209 228 255
209 229 255
209 229 255
210 229 255
210 229 255
210 230 255
210 229 255
210 229 255
211 230 255
211 230 255
212 230 255
212 230 255
212 231 255
213 231 255
212 231 255
213 231 255
213 231 255
213 231 255
214 231 255
214 232 255
215 232 255
215 232 255
214 232 255
215 232 255
215 232 255
216 233 255
216 233 255
216 233 255
216 232 253
216 232 252
215 231 245
217 233 252
215 231 246
215 231 245
214 230 242
214 230 241
213 229 237
212 228 228
208 225 215
212 228 230
206 223 206
206 223 211
205 223 207
205 222 203
204 222 199
203 221 194
200 219 191
198 217 177
200 218 189
198 217 181
197 216 173
196 215 165
190 210 140
190 210 144
194 213 153
185 206 120
187 208 128
184 204 114
188 208 125
180 202 92
181 202 95
174 197 57
176 199 62
177 199 67
176 198 72
171 195 25
168 192 0
170 193 0
171 195 0
170 193 0
167 189 0
166 189 0
168 191 0
169 192 0
159 183 0
169 192 0
163 187 0
162 185 0
159 182 0
162 184 0
158 180 0
158 181 0
153 175 0
153 175 0
152 175 0
152 173 0
156 178 0
144 166 0
145 168 0
138 158 0
141 162 0
135 155 0
135 155 0
141 161 0
130 150 0
134 154 0
139 159 0
139 158 0
130 150 0
136 156 0
137 157 0
135 154 0
133 153 0
139 159 0
119 139 0
128 148 0
133 153 0
130 150 0
130 151 0
125 146 0
135 155 0
125 144 0
141 161 0
128 148 0
116 134 0
139 159 0
126 147 0
120 139 0
131 150 0
124 144 0
134 154 0
124 144 0
131 150 0
126 146 0
128 148 0
135 155 0
129 150 0
125 145 0
132 152 0
135 155 0
146 165 0
143 163 0
126 146 0
133 153 0
135 156 0
137 156 0
134 155 0
131 151 0
132 152 0
134 154 0
145 166 0
129 149 0
131 150 0
131 152 0
135 155 0
146 166 0
136 157 0
132 153 0
133 153 0
124 146 0
142 163 0
135 156 0
146 167 0
145 165 0
129 149 0
142 163 0
132 153 0
123 143 0
139 159 0
136 157 0
147 168 0
140 161 0
151 173 0
148 169 0
146 167 0
143 164 0
137 159 0
140 161 0
146 167 0
142 161 0
141 163 0
141 163 0
143 165 0
137 159 0
147 169 0
148 168 0
146 167 0
143 164 0
145 168 0
153 174 0
147 168 0
139 161 0
145 166 0
149 172 0
142 163 0
145 166 0
149 171 0
141 162 0
150 172 0
140 161 0
149 172 0
153 174 0
145 168 0
148 169 0
143 164 0
151 174 0
150 172 0
148 170 0
154 176 0
143 164 0
143 164 0
151 173 0
152 174 0
145 166 0
162 182 0
149 172 0
155 176 0
151 173 0
140 161 0
149 171 0
153 174 0
148 169 0
155 177 0
153 175 0
147 169 0
152 173 0
156 177 0
152 174 0
154 176 0
154 176 0
153 175 0
152 173 0
155 176 0
155 176 0
143 166 0
154 176 0
150 173 0
160 183 0
158 179 0
158 181 0
150 173 0
156 178 0
157 178 0
156 177 0
151 173 0
156 178 0
158 179 0
154 176 0
156 179 0
161 183 0
152 172 0
155 177 0
152 173 0
160 181 0
156 179 0
155 178 0
158 180 0
156 178 0
156 177 0
156 178 0
161 184 0
160 183 0
158 179 0
166 189 0
157 180 0
158 180 0
153 176 0
162 184 0
158 181 0
159 181 0
164 185 0
160 181 0
154 177 0
157 177 0
162 186 0
158 180 0
165 186 0
164 187 0
157 180 0
163 185 0
157 178 0
158 180 0
163 185 0
161 182 0
164 187 0
161 184 0
162 183 0
168 190 0
165 188 0
161 182 0
161 183 0
160 181 0
158 181 0
165 188 0
155 177 0
162 184 0
164 187 0
162 184 0
163 184 0
165 187 0
166 189 0
168 189 0
166 188 0
166 186 0
161 183 0
164 187 0
163 185 0
166 187 0
164 186 0
167 190 0
162 184 0
167 191 0
163 187 0
162 184 0
159 181 0
157 180 0
167 189 0
168 188 0
159 180 0
163 185 0
163 186 0
165 188 0
162 185 0
166 188 0
165 187 0
163 185 0
171 193 0
163 185 0
163 184 0
165 187 0
164 187 0
163 185 0
172 193 0
164 187 0
168 190 0
166 188 0
163 186 0
167 190 0
167 189 0
166 188 0
167 189 0
161 183 0
168 190 0
167 189 0
164 186 0
163 186 0
161 185 0
171 193 0
167 190 0
160 181 0
209 229 255
209 229 255
207 227 255
208 228 255
207 228 255
207 228 255
207 227 255
208 228 255
207 227 255
206 227 255
206 227 255
207 227 255
207 228 255
207 228 255
207 228 255
206 227 255
207 227 255
206 227 255
207 227 255
206 227 255
206 227 255
206 227 255
206 227 255
206 227 255
207 227 255
207 227 255
207 228 255
206 227 255
206 227 255
206 227 255
206 227 255
207 228 255
207 228 255
205 227 255
206 227 255
206 227 255
207 228 255
206 227 255
206 227 255
207 228 255
206 227 255
207 228 255
207 227 255
207 228 255
208 228 255
207 228 255
207 228 255
207 228 255
208 228 255
207 228 255
208 228 255
208 228 255
208 228 255
208 228 255
209 229 255
209 228 255
209 229 255
209 229 255
209 229 255
210 229 255
210 229 255
210 229 255
210 229 255
211 230 255
211 230 255
210 229 255
210 230 255
211 230 255
212 230 255
213 231 255
211 230 255
212 231 255
213 231 255
213 231 255
213 231 255
213 231 255
213 231 255
214 231 255
215 232 255
215 232 255
215 232 255
215 232 255
216 232 255
215 232 255
216 232 255
216 233 255
216 232 254
217 233 254
216 232 250
214 231 245
216 232 250
217 233 250
216 232 246
215 231 242
214 230 237
210 227 224
211 227 227
210 226 221
209 226 220
211 227 223
209 225 218
204 222 199
205 223 206
202 220 191
202 220 193
203 220 191
201 219 186
198 216 177
199 217 179
194 213 155
195 214 163
190 210 142
191 211 151
188 208 135
188 209 130
187 208 128
183 204 111
182 204 102
179 201 76
177 199 80
178 201 80
176 199 51
175 197 72
174 197 44
173 195 44
168 191 0
172 195 0
170 194 0
168 191 0
170 193 0
169 191 0
167 189 0
168 191 0
164 187 0
166 189 0
164 188 0
169 191 0
164 186 0
162 184 0
156 178 0
163 185 0
165 187 0
147 170 0
157 179 0
151 172 0
155 176 0
150 173 0
150 171 0
146 168 0
150 170 0
134 155 0
133 153 0
134 155 0
139 159 0
137 157 0
134 153 0
125 145 0
136 156 0
137 157 0
126 145 0
124 143 0
130 149 0
135 154 0
133 152 0
126 147 0
127 146 0
123 143 0
126 145 0
128 146 0
130 148 0
125 146 0
127 147 0
127 148 0
126 144 0
126 146 0
128 148 0
139 158 0
121 141 0
123 143 0
132 152 0
137 156 0
136 156 0
133 153 0
137 156 0
133 152 0
134 155 0
127 147 0
138 158 0
134 156 0
139 159 0
130 150 0
131 151 0
128 149 0
136 158 0
134 155 0
134 153 0
136 156 0
134 154 0
133 152 0
145 166 0
133 154 0
140 160 0
137 158 0
136 157 0
144 165 0
139 160 0
133 153 0
139 160 0
141 162 0
140 161 0
139 160 0
133 155 0
134 153 0
141 162 0
144 164 0
141 163 0
138 159 0
139 159 0
130 150 0
139 159 0
131 152 0
136 157 0
141 162 0
150 171 0
140 160 0
142 162 0
141 162 0
143 165 0
146 167 0
150 172 0
139 161 0
142 162 0
142 163 0
145 166 0
147 168 0
141 162 0
146 168 0
143 164 0
139 160 0
139 160 0
148 169 0
144 165 0
141 162 0
150 171 0
147 169 0
147 167 0
141 162 0
151 174 0
148 169 0
146 167 0
147 170 0
154 177 0
154 175 0
153 174 0
152 175 0
140 162 0
151 173 0
138 157 0
146 168 0
152 173 0
152 174 0
149 171 0
146 167 0
149 172 0
151 172 0
159 181 0
152 173 0
153 175 0
155 177 0
150 171 0
151 175 0
159 181 0
157 180 0
151 171 0
144 167 0
150 171 0
152 171 0
156 178 0
150 172 0
152 172 0
150 171 0
152 174 0
148 172 0
159 181 0
158 181 0
164 187 0
159 180 0
156 175 0
160 183 0
158 181 0
153 175 0
150 173 0
154 176 0
155 175 0
161 182 0
161 183 0
151 173 0
154 175 0
155 177 0
154 177 0
151 173 0
155 175 0
155 177 0
157 179 0
165 187 0
159 182 0
157 179 0
162 185 0
158 178 0
153 175 0
161 183 0
160 181 0
163 184 0
156 177 0
159 180 0
159 180 0
158 179 0
162 184 0
159 181 0
165 188 0
162 185 0
161 183 0
157 178 0
162 183 0
157 179 0
157 179 0
156 178 0
157 181 0
152 174 0
158 179 0
164 185 0
161 183 0
164 186 0
159 181 0
168 191 0
161 183 0
158 180 0
160 181 0
160 180 0
169 192 0
162 184 0
163 185 0
161 183 0
155 175 0
163 185 0
157 180 0
164 186 0
161 183 0
160 183 0
162 184 0
162 185 0
163 185 0
169 191 0
162 185 0
167 190 0
164 187 0
163 184 0
159 181 0
161 184 0
164 187 0
163 186 0
165 187 0
165 186 0
166 188 0
169 191 0
164 186 0
162 185 0
166 189 0
165 188 0
166 188 0
166 189 0
163 186 0
165 186 0
167 189 0
164 186 0
162 183 0
163 185 0
164 186 0
165 186 0
168 190 0
162 184 0
167 188 0
166 190 0
167 189 0
169 191 0
166 188 0
168 190 0
170 192 0
168 191 0
168 191 0
164 186 0
166 189 0
164 186 0
168 188 0
165 188 0
167 189 0
164 186 0
163 186 0
165 188 0
167 189 0
210 229 255
209 229 255
209 229 255
208 228 255
208 228 255
208 228 255
207 228 255
208 228 255
208 228 255
207 228 255
207 228 255
208 228 255
208 228 255
208 228 255
208 228 255
207 228 255
207 228 255
207 228 255
207 228 255
206 227 255
207 228 255
207 228 255
207 228 255
207 228 255
206 227 255
207 228 255
206 227 255
207 227 255
206 227 255
207 228 255
206 227 255
207 228 255
207 227 255
207 228 255
207 228 255
207 228 255
207 228 255
206 227 255
207 228 255
209 229 255
207 228 255
207 228 255
208 228 255
207 228 255
208 228 255
208 228 255
208 228 255
208 228 255
209 229 255
208 228 255
208 228 255
209 229 255
208 228 255
209 229 255
208 228 255
209 229 255
209 229 255
209 229 255
210 229 255
210 229 255
210 230 255
211 230 255
211 230 255
210 230 255
212 230 255
212 230 255
211 230 255
212 230 255
211 230 255
212 231 255
213 231 255
213 231 255
213 231 255
213 231 255
215 232 255
213 231 255
214 232 255
215 232 255
215 232 255
215 232 255
216 233 255
216 233 255
216 233 255
216 232 254
217 233 255
216 232 252
216 232 252
216 232 252
217 233 250
214 231 245
212 229 234
214 230 238
215 231 241
212 228 231
213 229 237
210 227 226
213 229 234
210 226 221
209 226 220
209 225 218
204 222 203
199 218 186
205 222 203
200 218 181
203 220 193
198 216 179
197 216 177
198 216 171
196 215 165
196 215 163
186 207 120
191 210 140
188 208 128
185 206 128
187 208 125
185 206 117
185 205 125
183 204 111
178 200 76
180 201 80
178 201 80
175 198 67
176 199 51
174 197 44
172 195 25
170 193 0
169 192 0
171 194 0
165 189 0
168 191 0
167 191 0
168 192 0
162 185 0
168 191 0
164 187 0
163 187 0
159 181 0
160 183 0
163 186 0
161 184 0
160 181 0
156 179 0
150 172 0
158 181 0
155 178 0
145 166 0
155 176 0
148 171 0
146 167 0
147 168 0
139 159 0
128 148 0
145 166 0
133 153 0
144 164 0
133 152 0
134 154 0
143 163 0
131 151 0
128 147 0
117 136 0
129 149 0
119 139 0
126 145 0
128 147 0
139 158 0
134 154 0
134 154 0
133 154 0
124 143 0
135 154 0
130 149 0
131 151 0
136 155 0
128 147 0
134 154 0
141 160 0
132 151 0
130 150 0
126 144 0
132 151 0
144 164 0
132 152 0
140 160 0
126 147 0
135 154 0
137 157 0
140 160 0
139 159 0
130 151 0
132 152 0
132 153 0
125 146 0
133 151 0
130 150 0
132 153 0
125 145 0
138 158 0
139 160 0
131 151 0
143 164 0
135 156 0
140 160 0
142 161 0
137 157 0
135 155 0
136 156 0
132 153 0
134 156 0
142 163 0
138 161 0
144 165 0
141 161 0
141 162 0
134 155 0
140 162 0
146 166 0
138 159 0
143 164 0
145 168 0
144 166 0
139 159 0
147 169 0
141 160 0
153 174 0
149 172 0
141 162 0
146 167 0
135 157 0
147 167 0
138 158 0
148 168 0
152 172 0
143 166 0
140 162 0
139 159 0
145 166 0
145 167 0
144 166 0
142 162 0
145 167 0
149 170 0
146 166 0
157 179 0
152 174 0
155 178 0
151 172 0
148 170 0
150 172 0
139 161 0
145 165 0
142 163 0
152 173 0
151 174 0
154 175 0
147 169 0
143 164 0
152 172 0
144 166 0
151 172 0
156 179 0
155 176 0
154 175 0
155 176 0
152 174 0
152 174 0
151 172 0
153 175 0
156 178 0
146 168 0
148 171 0
152 175 0
154 177 0
158 181 0
146 169 0
151 173 0
158 180 0
155 178 0
152 174 0
149 172 0
155 177 0
155 176 0
151 172 0
156 178 0
156 177 0
154 175 0
150 172 0
161 185 0
152 174 0
151 172 0
150 173 0
161 183 0
159 182 0
157 178 0
156 177 0
159 180 0
158 179 0
160 182 0
159 179 0
154 174 0
157 179 0
152 173 0
159 182 0
161 183 0
154 175 0
160 182 0
158 181 0
157 179 0
155 177 0
163 185 0
161 183 0
155 177 0
158 180 0
160 182 0
159 183 0
162 183 0
156 176 0
160 182 0
160 183 0
155 178 0
165 188 0
163 185 0
164 186 0
159 182 0
160 181 0
156 178 0
165 187 0
162 184 0
160 184 0
163 184 0
161 181 0
164 185 0
165 187 0
161 184 0
159 181 0
156 179 0
162 184 0
160 181 0
157 179 0
158 181 0
164 185 0
166 189 0
166 187 0
160 182 0
162 184 0
167 189 0
164 186 0
163 186 0
161 183 0
163 183 0
167 190 0
166 188 0
163 186 0
167 190 0
162 184 0
162 183 0
163 184 0
163 184 0
164 186 0
163 186 0
164 185 0
167 191 0
159 180 0
162 183 0
159 182 0
161 182 0
164 186 0
166 189 0
168 190 0
165 187 0
167 188 0
165 188 0
167 190 0
167 188 0
169 189 0
162 184 0
168 190 0
170 191 0
164 186 0
166 188 0
163 185 0
165 187 0
169 192 0
166 188 0
162 185 0
162 183 0
169 191 0
168 191 0
167 190 0
166 188 0
166 189 0
167 190 0
165 187 0
168 191 0
166 188 0
169 191 0
167 188 0
164 187 0
168 191 0
165 188 0
